; generated by PrusaSlicer 2.2.0+win64 on 2020-08-22 at 03:55:36 UTC

; 

; external perimeters extrusion width = 0.45mm
; perimeters extrusion width = 0.45mm
; infill extrusion width = 0.45mm
; solid infill extrusion width = 0.45mm
; top infill extrusion width = 0.40mm
; support material extrusion width = 0.35mm
; first layer extrusion width = 0.42mm

M73 P0 R129
M73 Q0 S129
M201 X1000 Y1000 Z200 E5000 ; sets maximum accelerations, mm/sec^2
M203 X200 Y200 Z12 E120 ; sets maximum feedrates, mm/sec
M204 P1250 R1250 T1250 ; sets acceleration (P, T) and retract acceleration (R), mm/sec^2
M205 X8.00 Y8.00 Z0.40 E4.50 ; sets the jerk limits, mm/sec
M205 S0 T0 ; sets the minimum extruding and travel feed rate, mm/sec
M107
M862.3 P "MK3SMMU2S" ; printer model check
M862.1 P0.4 ; nozzle diameter check
M115 U3.9.0 ; tell printer latest fw version
G90 ; use absolute coordinates
M83 ; extruder relative mode
M104 S215 ; set extruder temp
M140 S60 ; set bed temp
Tx
M190 S60 ; wait for bed temp
M109 S215 ; wait for extruder temp
G28 W ; home all without mesh bed level
G80 ; mesh bed leveling

;go outside print area
G1 Y-3.0 F1000.0
G1 Z0.4 F1000.0
; select extruder
Tc
; purge line
G1 X55.0 F2000.0
G1 Z0.3 F1000.0
G92 E0.0
G1 X240.0 E25.0 F2200.0
M73 Q0 S129
M73 P0 R128
G1 Y-2.0 F1000.0
G1 X55.0 E25 F1400.0
G1 Z0.20 F1000.0
G1 X5.0 E4.0 F1000.0

M221 S95
G92 E0.0

; Don't change E values below. Excessive value can damage the printer.

M907 E538 ; set extruder motor current
G21 ; set units to millimeters
G90 ; use absolute coordinates
M83 ; use relative distances for extrusion
M900 K0.06 ; Filament gcode LA 1.5
M900 K30 ; Filament gcode LA 1.0
;BEFORE_LAYER_CHANGE
G92 E0.0
;0.2


G1 E-0.80000 F2100.00000
G1 Z0.600 F10800.000
;AFTER_LAYER_CHANGE
;0.2
G1 X114.733 Y83.554
G1 Z0.200
G1 E0.80000 F2100.00000
M204 S1000
G1 F1200.000
G1 X134.886 Y83.508 E0.63188
G1 X135.400 Y83.565 E0.01621
G1 X135.893 Y83.732 E0.01633
G1 X140.577 Y86.169 E0.16555
G1 X143.471 Y88.802 E0.12267
G1 X143.961 Y89.494 E0.02661
G1 X146.168 Y94.572 E0.17359
G1 X146.231 Y95.108 E0.01692
G1 X146.220 Y115.288 E0.63272
G1 X145.999 Y116.080 E0.02579
G1 X143.597 Y120.777 E0.16542
G1 X141.246 Y123.421 E0.11091
G1 X140.825 Y123.781 E0.01740
G1 X135.901 Y126.264 E0.17288
G1 X135.097 Y126.482 E0.02614
G1 X115.705 Y126.649 E0.60803
G1 X114.163 Y126.293 E0.04964
G1 X109.225 Y123.814 E0.17325
G1 X108.757 Y123.425 E0.01906
G1 X106.403 Y120.776 E0.11112
G1 X103.999 Y116.076 E0.16552
G1 X103.778 Y115.264 E0.02637
G1 X103.779 Y94.893 E0.63873
G1 X103.959 Y94.183 E0.02296
G1 X106.187 Y89.224 E0.17047
G1 X106.556 Y88.775 E0.01823
G1 X109.356 Y86.212 E0.11901
G1 X114.143 Y83.754 E0.16874
G1 X114.676 Y83.573 E0.01765
G1 F8640.000
G1 X117.968 Y83.563 E-0.76000
G1 E-0.04000 F2100.00000
G1 Z0.800 F10800.000
G1 X139.041 Y83.299
G1 Z0.200
G1 E0.80000 F2100.00000
G1 F1200.000
G1 X139.959 Y83.318 E0.02880
G1 X141.067 Y83.589 E0.03575
G1 X142.192 Y84.190 E0.04000
G1 X143.265 Y85.242 E0.04714
G1 X143.665 Y85.956 E0.02565
G1 X144.948 Y86.710 E0.04666
G1 X145.677 Y87.472 E0.03308
G1 X146.215 Y88.304 E0.03106
G1 X146.665 Y89.728 E0.04685
G1 X146.697 Y91.083 E0.04247
G1 X147.691 Y92.042 E0.04330
G1 X148.278 Y92.960 E0.03418
G1 X148.691 Y94.208 E0.04122
G1 X148.752 Y115.548 E0.66911
G1 X148.479 Y116.746 E0.03850
G1 X147.875 Y117.847 E0.03938
G1 X146.757 Y118.943 E0.04908
G1 X146.482 Y119.105 E0.01003
G1 X146.459 Y120.190 E0.03400
G1 X146.172 Y121.299 E0.03591
G1 X145.591 Y122.368 E0.03816
G1 X144.542 Y123.436 E0.04693
G1 X144.011 Y123.743 E0.01924
G1 X143.907 Y124.000 E0.00867
G1 X143.342 Y124.876 E0.03269
G1 X142.752 Y125.490 E0.02670
G1 X142.100 Y125.998 E0.02590
G1 X140.354 Y126.651 E0.05846
G1 X139.050 Y126.695 E0.04092
G1 X138.862 Y127.010 E0.01150
G1 X137.763 Y128.107 E0.04868
G1 X136.590 Y128.730 E0.04163
G1 X135.297 Y129.014 E0.04151
G1 X116.388 Y129.017 E0.59289
G1 X115.782 Y128.991 E0.01899
G1 X115.543 Y129.017 E0.00755
G1 X114.714 Y129.017 E0.02598
G1 X113.377 Y128.718 E0.04296
G1 X112.129 Y128.026 E0.04475
G1 X111.120 Y126.987 E0.04540
G1 X110.948 Y126.695 E0.01063
G1 X109.646 Y126.651 E0.04084
G1 X107.899 Y125.998 E0.05848
G1 X107.244 Y125.486 E0.02605
G1 X106.615 Y124.828 E0.02855
G1 X106.007 Y123.753 E0.03874
G1 X105.458 Y123.436 E0.01985
G1 X104.409 Y122.368 E0.04695
G1 X103.828 Y121.299 E0.03816
G1 X103.541 Y120.190 E0.03591
G1 X103.518 Y119.110 E0.03385
G1 X103.279 Y118.969 E0.00871
G1 X102.160 Y117.893 E0.04865
G1 X101.523 Y116.746 E0.04114
G1 X101.244 Y115.485 E0.04050
G1 X101.248 Y94.679 E0.65236
G1 X101.528 Y93.413 E0.04066
G1 X102.125 Y92.277 E0.04023
G1 X103.126 Y91.230 E0.04544
G1 X103.304 Y91.109 E0.00672
G1 X103.342 Y89.668 E0.04522
G1 X103.665 Y88.572 E0.03582
G1 X104.232 Y87.588 E0.03561
G1 X104.995 Y86.768 E0.03511
G1 X105.683 Y86.262 E0.02677
G1 X106.314 Y85.982 E0.02166
G1 X106.692 Y85.302 E0.02440
G1 X107.800 Y84.195 E0.04911
G1 X108.873 Y83.612 E0.03827
G1 X109.981 Y83.325 E0.03591
G1 X111.031 Y83.302 E0.03292
G1 X111.202 Y83.013 E0.01054
G1 X112.204 Y81.979 E0.04512
G1 X113.282 Y81.353 E0.03911
G1 X114.458 Y81.025 E0.03827
G1 X135.624 Y81.021 E0.66364
G1 X136.853 Y81.375 E0.04010
G1 X137.788 Y81.917 E0.03390
G1 X138.831 Y82.948 E0.04600
G1 X139.010 Y83.248 E0.01092
G1 X138.817 Y83.674 F10800.000
G1 F1200.000
G1 X139.891 Y83.689 E0.03366
G1 X140.953 Y83.949 E0.03430
G1 X141.988 Y84.508 E0.03689
G1 X142.980 Y85.490 E0.04374
G1 X143.384 Y86.229 E0.02642
G1 X144.694 Y86.990 E0.04752
G1 X145.392 Y87.719 E0.03165
G1 X145.884 Y88.485 E0.02854
G1 X146.297 Y89.814 E0.04363
G1 X146.324 Y91.315 E0.04707
G1 X146.531 Y91.444 E0.00768
G1 X147.412 Y92.297 E0.03843
G1 X147.947 Y93.141 E0.03133
G1 X148.323 Y94.297 E0.03810
G1 X148.379 Y115.488 E0.66444
G1 X148.135 Y116.588 E0.03534
G1 X147.558 Y117.640 E0.03763
G1 X146.515 Y118.653 E0.04558
G1 X146.108 Y118.878 E0.01459
G1 X146.088 Y120.117 E0.03885
G1 X145.813 Y121.181 E0.03445
G1 X145.274 Y122.163 E0.03513
G1 X144.294 Y123.151 E0.04362
G1 X143.707 Y123.481 E0.02111
G1 X143.578 Y123.814 E0.01120
G1 X143.057 Y124.628 E0.03032
G1 X142.489 Y125.219 E0.02567
G1 X141.893 Y125.682 E0.02369
G1 X140.254 Y126.286 E0.05476
G1 X138.824 Y126.323 E0.04484
G1 X138.575 Y126.765 E0.01590
G1 X137.559 Y127.789 E0.04523
G1 X136.482 Y128.368 E0.03833
G1 X135.276 Y128.636 E0.03875
G1 X116.391 Y128.640 E0.59211
G1 X115.769 Y128.613 E0.01953
G1 X115.532 Y128.640 E0.00748
G1 X114.736 Y128.640 E0.02497
G1 X113.488 Y128.357 E0.04011
G1 X112.339 Y127.711 E0.04132
G1 X111.411 Y126.745 E0.04201
G1 X111.174 Y126.323 E0.01517
G1 X109.746 Y126.286 E0.04479
G1 X108.107 Y125.682 E0.05478
G1 X107.507 Y125.215 E0.02383
G1 X106.904 Y124.585 E0.02734
G1 X106.284 Y123.475 E0.03987
G1 X105.706 Y123.151 E0.02076
G1 X104.726 Y122.163 E0.04364
G1 X104.187 Y121.181 E0.03513
G1 X103.912 Y120.117 E0.03445
G1 X103.892 Y118.882 E0.03875
G1 X103.518 Y118.676 E0.01337
G1 X102.476 Y117.685 E0.04511
G1 X101.866 Y116.588 E0.03935
G1 X101.621 Y115.465 E0.03602
G1 X101.621 Y94.739 E0.64987
G1 X101.874 Y93.566 E0.03763
G1 X102.446 Y92.477 E0.03856
G1 X103.378 Y91.512 E0.04206
G1 X103.677 Y91.328 E0.01100
G1 X103.712 Y89.748 E0.04955
G1 X104.003 Y88.740 E0.03290
G1 X104.548 Y87.795 E0.03420
G1 X105.233 Y87.062 E0.03146
G1 X105.889 Y86.578 E0.02554
G1 X106.585 Y86.276 E0.02378
G1 X106.980 Y85.547 E0.02601
G1 X108.006 Y84.512 E0.04571
G1 X108.990 Y83.971 E0.03520
G1 X110.054 Y83.696 E0.03444
G1 X111.257 Y83.676 E0.03772
G1 X111.493 Y83.255 E0.01515
G1 X112.418 Y82.291 E0.04188
G1 X113.407 Y81.709 E0.03599
G1 X114.534 Y81.395 E0.03668
G1 X135.545 Y81.391 E0.65877
G1 X136.725 Y81.730 E0.03851
G1 X137.576 Y82.230 E0.03092
G1 X138.546 Y83.196 E0.04292
G1 X138.787 Y83.621 E0.01534
G1 X138.591 Y84.049 F10800.000
G1 F1200.000
G1 X139.823 Y84.061 E0.03863
G1 X140.839 Y84.309 E0.03281
G1 X141.783 Y84.826 E0.03373
G1 X142.692 Y85.736 E0.04034
G1 X143.127 Y86.551 E0.02897
G1 X143.276 Y86.602 E0.00492
G1 X144.442 Y87.272 E0.04216
G1 X145.087 Y87.941 E0.02915
G1 X145.532 Y88.623 E0.02553
G1 X145.929 Y89.899 E0.04191
G1 X145.949 Y91.537 E0.05136
G1 X146.289 Y91.735 E0.01234
G1 X147.107 Y92.520 E0.03556
G1 X147.596 Y93.281 E0.02837
G1 X147.955 Y94.385 E0.03640
G1 X148.002 Y115.467 E0.66101
G1 X147.774 Y116.478 E0.03250
G1 X147.243 Y117.432 E0.03422
G1 X146.275 Y118.361 E0.04209
G1 X145.735 Y118.647 E0.01916
G1 X145.711 Y120.088 E0.04518
G1 X145.455 Y121.061 E0.03156
G1 X144.957 Y121.956 E0.03210
G1 X144.048 Y122.864 E0.04029
G1 X143.402 Y123.217 E0.02308
G1 X143.248 Y123.630 E0.01382
G1 X142.771 Y124.381 E0.02789
G1 X142.227 Y124.947 E0.02463
G1 X141.686 Y125.365 E0.02145
G1 X140.156 Y125.921 E0.05104
G1 X138.596 Y125.949 E0.04891
G1 X138.286 Y126.521 E0.02039
G1 X137.354 Y127.470 E0.04170
G1 X136.327 Y128.023 E0.03659
G1 X135.256 Y128.259 E0.03439
G1 X116.395 Y128.262 E0.59135
G1 X115.755 Y128.235 E0.02010
G1 X115.521 Y128.262 E0.00740
G1 X114.758 Y128.262 E0.02393
G1 X113.600 Y127.996 E0.03723
G1 X112.551 Y127.398 E0.03788
G1 X111.703 Y126.505 E0.03860
G1 X111.403 Y125.949 E0.01980
G1 X109.844 Y125.921 E0.04889
G1 X108.314 Y125.365 E0.05105
G1 X107.770 Y124.944 E0.02158
G1 X107.194 Y124.342 E0.02611
G1 X106.561 Y123.196 E0.04107
G1 X105.952 Y122.864 E0.02172
G1 X105.043 Y121.956 E0.04031
G1 X104.545 Y121.061 E0.03210
G1 X104.289 Y120.088 E0.03156
G1 X104.265 Y118.649 E0.04513
G1 X103.756 Y118.382 E0.01803
G1 X102.791 Y117.476 E0.04151
G1 X102.210 Y116.429 E0.03753
G1 X101.998 Y115.446 E0.03155
G1 X101.998 Y94.760 E0.64860
G1 X102.237 Y93.672 E0.03490
G1 X102.766 Y92.679 E0.03530
G1 X103.628 Y91.795 E0.03869
G1 X104.050 Y91.550 E0.01532
G1 X104.081 Y89.828 E0.05398
G1 X104.359 Y88.868 E0.03136
G1 X104.863 Y88.004 E0.03136
G1 X105.471 Y87.355 E0.02788
G1 X106.094 Y86.895 E0.02430
G1 X106.856 Y86.571 E0.02595
G1 X107.269 Y85.790 E0.02769
G1 X108.214 Y84.827 E0.04230
G1 X109.110 Y84.330 E0.03215
G1 X110.083 Y84.073 E0.03156
G1 X111.486 Y84.050 E0.04399
G1 X111.785 Y83.495 E0.01976
G1 X112.632 Y82.602 E0.03858
G1 X113.576 Y82.047 E0.03434
G1 X114.609 Y81.766 E0.03356
G1 X135.466 Y81.761 E0.65396
G1 X136.597 Y82.086 E0.03690
G1 X137.362 Y82.541 E0.02790
G1 X138.258 Y83.442 E0.03984
G1 X138.562 Y83.996 E0.01983
G1 X138.361 Y84.424 F10800.000
G1 F1200.000
G1 X139.796 Y84.438 E0.04500
G1 X140.723 Y84.669 E0.02994
G1 X141.576 Y85.142 E0.03057
G1 X142.403 Y85.979 E0.03692
G1 X142.869 Y86.873 E0.03160
G1 X143.114 Y86.944 E0.00798
G1 X144.189 Y87.553 E0.03877
G1 X144.803 Y88.190 E0.02775
G1 X145.181 Y88.763 E0.02149
G1 X145.552 Y89.932 E0.03848
G1 X145.574 Y91.764 E0.05743
G1 X146.048 Y92.026 E0.01699
G1 X146.804 Y92.745 E0.03271
G1 X147.245 Y93.422 E0.02535
G1 X147.588 Y94.474 E0.03467
G1 X147.625 Y115.446 E0.65756
G1 X147.413 Y116.366 E0.02961
G1 X146.929 Y117.221 E0.03079
G1 X146.036 Y118.067 E0.03859
G1 X145.360 Y118.413 E0.02382
G1 X145.341 Y120.015 E0.05021
G1 X145.096 Y120.941 E0.03004
G1 X144.642 Y121.747 E0.02901
G1 X143.804 Y122.575 E0.03695
G1 X143.095 Y122.951 E0.02515
G1 X142.918 Y123.448 E0.01653
G1 X142.486 Y124.134 E0.02542
G1 X141.965 Y124.675 E0.02356
G1 X141.480 Y125.048 E0.01918
G1 X140.060 Y125.555 E0.04729
G1 X138.366 Y125.574 E0.05312
G1 X137.995 Y126.279 E0.02499
G1 X137.150 Y127.152 E0.03810
G1 X136.172 Y127.679 E0.03482
G1 X135.236 Y127.882 E0.03003
G1 X116.399 Y127.885 E0.59060
G1 X115.740 Y127.857 E0.02071
G1 X115.509 Y127.885 E0.00729
G1 X114.780 Y127.885 E0.02286
G1 X113.715 Y127.635 E0.03430
G1 X112.764 Y127.086 E0.03441
G1 X111.996 Y126.268 E0.03519
G1 X111.634 Y125.574 E0.02453
G1 X109.940 Y125.555 E0.05312
G1 X108.520 Y125.048 E0.04730
G1 X108.032 Y124.673 E0.01929
G1 X107.483 Y124.099 E0.02490
G1 X106.957 Y123.149 E0.03406
G1 X106.891 Y122.943 E0.00677
G1 X106.196 Y122.575 E0.02466
G1 X105.358 Y121.747 E0.03696
G1 X104.904 Y120.941 E0.02901
G1 X104.659 Y120.015 E0.03004
G1 X104.640 Y118.414 E0.05020
G1 X103.991 Y118.086 E0.02279
G1 X103.106 Y117.266 E0.03785
G1 X102.553 Y116.271 E0.03567
G1 X102.375 Y115.426 E0.02707
G1 X102.375 Y94.781 E0.64733
G1 X102.599 Y93.781 E0.03212
G1 X103.084 Y92.882 E0.03203
G1 X103.876 Y92.081 E0.03531
G1 X104.425 Y91.775 E0.01971
G1 X104.451 Y89.906 E0.05860
G1 X104.697 Y89.037 E0.02835
G1 X105.177 Y88.213 E0.02990
G1 X105.732 Y87.627 E0.02529
G1 X106.298 Y87.213 E0.02199
G1 X107.129 Y86.866 E0.02822
G1 X107.560 Y86.032 E0.02945
G1 X108.423 Y85.142 E0.03888
G1 X109.230 Y84.688 E0.02903
G1 X110.157 Y84.443 E0.03004
G1 X111.717 Y84.424 E0.04893
G1 X112.079 Y83.732 E0.02447
G1 X112.847 Y82.913 E0.03521
G1 X113.745 Y82.386 E0.03266
G1 X114.682 Y82.136 E0.03040
G1 X135.438 Y82.138 E0.65081
G1 X136.466 Y82.440 E0.03360
G1 X137.146 Y82.851 E0.02490
G1 X137.970 Y83.686 E0.03676
G1 X138.333 Y84.371 E0.02432
G1 F8640.000
G1 X139.796 Y84.438 E-0.33825
G1 X140.723 Y84.669 E-0.22049
G1 X141.485 Y85.092 E-0.20126
G1 E-0.04000 F2100.00000
G1 Z0.800 F10800.000
G1 X112.041 Y84.622
G1 Z0.200
G1 E0.80000 F2100.00000
G1 F1200.000
G1 X112.374 Y83.968 E0.02299
G1 X113.062 Y83.224 E0.03178
G1 X113.913 Y82.725 E0.03092
G1 X114.752 Y82.507 E0.02719
G1 X135.358 Y82.507 E0.64607
G1 X136.335 Y82.795 E0.03194
G1 X136.928 Y83.159 E0.02182
G1 X137.679 Y83.928 E0.03371
G1 X138.047 Y84.641 E0.02514
G1 X138.356 Y84.801 F10800.000
G1 F1200.000
G1 X139.727 Y84.809 E0.04298
G1 X140.606 Y85.029 E0.02841
G1 X141.366 Y85.456 E0.02734
G1 X142.113 Y86.221 E0.03351
G1 X142.611 Y87.200 E0.03444
G1 X142.955 Y87.287 E0.01110
G1 X143.938 Y87.835 E0.03529
G1 X144.520 Y88.440 E0.02634
G1 X144.831 Y88.905 E0.01752
G1 X145.176 Y89.966 E0.03498
G1 X145.198 Y91.867 E0.05961
G1 X145.269 Y92.030 F10800.000
G1 F1200.000
G1 X145.809 Y92.319 E0.01919
G1 X146.502 Y92.972 E0.02987
G1 X146.895 Y93.564 E0.02227
G1 X147.220 Y94.562 E0.03292
G1 X147.248 Y115.424 E0.65409
G1 X147.052 Y116.251 E0.02666
G1 X146.617 Y117.007 E0.02735
G1 X145.800 Y117.772 E0.03510
G1 X145.191 Y118.075 E0.02134
G1 X144.982 Y118.483 F10800.000
G1 F1200.000
G1 X144.970 Y119.944 E0.04580
G1 X144.755 Y120.778 E0.02701
G1 X144.327 Y121.538 E0.02735
G1 X143.562 Y122.285 E0.03353
G1 X142.788 Y122.685 E0.02731
G1 X142.586 Y123.267 E0.01933
G1 X142.200 Y123.887 E0.02288
G1 X141.704 Y124.404 E0.02246
G1 X141.275 Y124.730 E0.01690
G1 X140.024 Y125.178 E0.04166
G1 X138.438 Y125.196 E0.04974
G1 X138.028 Y125.403 F10800.000
G1 F1200.000
G1 X137.702 Y126.040 E0.02246
G1 X136.944 Y126.835 E0.03443
G1 X136.017 Y127.334 E0.03302
G1 X135.216 Y127.505 E0.02567
G1 X116.416 Y127.508 E0.58947
G1 X116.225 Y127.487 E0.00602
G1 X115.715 Y127.480 E0.01599
G1 X115.496 Y127.508 E0.00692
G1 X114.802 Y127.508 E0.02175
G1 X113.831 Y127.275 E0.03133
G1 X112.980 Y126.776 E0.03093
G1 X112.292 Y126.032 E0.03178
G1 X111.972 Y125.404 E0.02209
G1 X111.558 Y125.196 F10800.000
G1 F1200.000
G1 X109.976 Y125.178 E0.04960
G1 X108.725 Y124.730 E0.04166
G1 X108.294 Y124.401 E0.01700
G1 X107.773 Y123.857 E0.02363
G1 X107.299 Y122.990 E0.03098
G1 X107.212 Y122.683 E0.00999
G1 X106.438 Y122.285 E0.02729
G1 X105.673 Y121.538 E0.03353
G1 X105.245 Y120.778 E0.02735
G1 X105.030 Y119.944 E0.02701
M73 Q0 S128
G1 X105.018 Y118.483 E0.04580
G1 X104.810 Y118.075 F10800.000
G1 F1200.000
G1 X104.224 Y117.788 E0.02044
G1 X103.420 Y117.055 E0.03411
G1 X102.897 Y116.114 E0.03377
G1 X102.752 Y115.408 E0.02260
G1 X102.752 Y94.802 E0.64607
M73 P0 R127
G1 X102.960 Y93.892 E0.02929
G1 X103.401 Y93.088 E0.02873
G1 X104.121 Y92.368 E0.03192
G1 X104.709 Y92.052 E0.02094
G1 X104.802 Y91.847 F10800.000
G1 F1200.000
G1 X104.820 Y89.985 E0.05840
G1 X105.053 Y89.163 E0.02677
G1 X105.490 Y88.425 E0.02692
G1 X105.992 Y87.901 E0.02274
G1 X106.500 Y87.532 E0.01969
G1 X107.402 Y87.162 E0.03057
G1 X107.852 Y86.271 E0.03129
G1 X108.633 Y85.457 E0.03538
G1 X109.393 Y85.029 E0.02735
G1 X110.227 Y84.814 E0.02701
G1 X111.690 Y84.802 E0.04586
G1 X111.783 Y85.178 F10800.000
G1 F1200.000
G1 X112.251 Y85.176 E0.01467
G1 X112.324 Y84.900 E0.00894
G1 X112.606 Y84.331 F10800.000
G1 F1200.000
G1 X112.671 Y84.201 E0.00455
G1 X113.278 Y83.535 E0.02828
G1 X114.080 Y83.064 E0.02914
G1 X114.820 Y82.879 E0.02394
G1 X135.277 Y82.876 E0.64141
G1 X136.203 Y83.149 E0.03025
G1 X136.707 Y83.466 E0.01867
