; generated by PrusaSlicer 2.2.0+win64 on 2021-01-02 at 14:50:29 UTC

; 

; external perimeters extrusion width = 0.45mm
; perimeters extrusion width = 0.45mm
; infill extrusion width = 0.45mm
; solid infill extrusion width = 0.45mm
; top infill extrusion width = 0.40mm
; first layer extrusion width = 0.42mm

M73 P0 R245
M73 Q0 S262
M201 X1000 Y1000 Z200 E5000 ; sets maximum accelerations, mm/sec^2
M203 X200 Y200 Z12 E120 ; sets maximum feedrates, mm/sec
M204 P1250 R1250 T1250 ; sets acceleration (P, T) and retract acceleration (R), mm/sec^2
M205 X8.00 Y8.00 Z0.40 E4.50 ; sets the jerk limits, mm/sec
M205 S0 T0 ; sets the minimum extruding and travel feed rate, mm/sec
M107
M862.3 P "MK3SMMU2S" ; printer model check
M862.1 P0.4 ; nozzle diameter check
M115 U3.9.1 ; tell printer latest fw version
G90 ; use absolute coordinates
M83 ; extruder relative mode
M104 S215 ; set extruder temp
M140 S60 ; set bed temp
Tx
M190 S60 ; wait for bed temp
M109 S215 ; wait for extruder temp
G28 W ; home all without mesh bed level
G80 ; mesh bed leveling

;go outside print area
G1 Y-3.0 F1000.0
G1 Z0.4 F1000.0
; select extruder
Tc
; purge line
G1 X55.0 F2000.0
G1 Z0.3 F1000.0
G92 E0.0
G1 X240.0 E25.0 F2200.0
M73 Q0 S262
M73 P0 R245
G1 Y-2.0 F1000.0
G1 X55.0 E25 F1400.0
G1 Z0.20 F1000.0
G1 X5.0 E4.0 F1000.0

M221 S95
G92 E0.0

; Don't change E values below. Excessive value can damage the printer.

M907 E538 ; set extruder motor current
G21 ; set units to millimeters
G90 ; use absolute coordinates
M83 ; use relative distances for extrusion
M900 K0.06 ; Filament gcode LA 1.5
M900 K30 ; Filament gcode LA 1.0
;BEFORE_LAYER_CHANGE
G92 E0.0
;0.2


G1 E-0.80000 F2100.00000
G1 Z0.600 F10800.000
;AFTER_LAYER_CHANGE
;0.2
G1 X42.802 Y24.094
G1 Z0.200
G1 E0.80000 F2100.00000
M204 S1000
G1 F1200.000
G1 X43.308 Y23.330 E0.02872
G1 X44.079 Y22.809 E0.02919
G1 X44.991 Y22.623 E0.02919
G1 X205.004 Y22.623 E5.01708
G1 X205.906 Y22.802 E0.02884
G1 X206.675 Y23.313 E0.02896
G1 X207.190 Y24.076 E0.02884
G1 X207.377 Y24.976 E0.02884
G1 X207.377 Y185.011 E5.01780
G1 X207.198 Y185.906 E0.02860
G1 X206.692 Y186.670 E0.02872
G1 X205.917 Y187.193 E0.02931
G1 X205.000 Y187.377 E0.02934
G1 X44.989 Y187.377 E5.01705
G1 X44.094 Y187.198 E0.02860
G1 X43.330 Y186.692 E0.02872
G1 X42.807 Y185.917 E0.02931
G1 X42.623 Y185.000 E0.02934
G1 X42.623 Y24.989 E5.01705
G1 X42.791 Y24.153 E0.02672
G1 F8640.000
G1 X43.308 Y23.330 E-0.22440
G1 X44.079 Y22.809 E-0.21496
G1 X44.991 Y22.623 E-0.21496
G1 X45.449 Y22.623 E-0.10568
G1 E-0.04000 F2100.00000
G1 Z0.800 F10800.000
G1 X121.967 Y101.967
G1 Z0.200
G1 E0.80000 F2100.00000
G1 F1200.000
G1 X122.479 Y101.530 E0.02110
G1 X123.053 Y101.178 E0.02110
G1 X123.680 Y100.918 E0.02128
G1 X124.415 Y100.757 E0.02360
G1 X125.000 Y100.710 E0.01841
G1 X125.671 Y100.763 E0.02110
G1 X126.326 Y100.920 E0.02110
G1 X126.947 Y101.178 E0.02110
G1 X127.521 Y101.530 E0.02110
G1 X128.033 Y101.967 E0.02110
G1 X128.470 Y102.479 E0.02110
G1 X128.822 Y103.053 E0.02110
G1 X129.080 Y103.674 E0.02110
G1 X129.237 Y104.329 E0.02110
G1 X129.290 Y105.000 E0.02110
G1 X129.237 Y105.671 E0.02110
G1 X129.080 Y106.326 E0.02110
G1 X128.822 Y106.947 E0.02110
G1 X128.470 Y107.521 E0.02110
G1 X128.033 Y108.033 E0.02110
G1 X127.521 Y108.470 E0.02110
G1 X126.947 Y108.822 E0.02110
G1 X126.326 Y109.080 E0.02110
G1 X125.671 Y109.237 E0.02110
G1 X125.000 Y109.290 E0.02110
G1 X124.329 Y109.237 E0.02110
G1 X123.674 Y109.080 E0.02110
G1 X123.053 Y108.822 E0.02110
G1 X122.479 Y108.470 E0.02110
G1 X121.967 Y108.033 E0.02110
G1 X121.530 Y107.521 E0.02110
G1 X121.178 Y106.947 E0.02110
G1 X120.920 Y106.326 E0.02110
G1 X120.763 Y105.671 E0.02110
G1 X120.710 Y105.000 E0.02110
G1 X120.763 Y104.329 E0.02110
G1 X120.920 Y103.674 E0.02110
G1 X121.178 Y103.053 E0.02110
G1 X121.530 Y102.479 E0.02110
G1 X121.928 Y102.012 E0.01922
G1 X122.215 Y102.257 F10800.000
G1 F1200.000
G1 X122.701 Y101.836 E0.02018
G1 X123.224 Y101.515 E0.01924
G1 X123.793 Y101.279 E0.01931
G1 X124.470 Y101.130 E0.02174
G1 X125.000 Y101.089 E0.01666
G1 X125.612 Y101.137 E0.01924
G1 X126.209 Y101.280 E0.01924
G1 X126.776 Y101.515 E0.01924
G1 X127.299 Y101.836 E0.01924
G1 X127.766 Y102.234 E0.01924
G1 X128.164 Y102.701 E0.01924
G1 X128.485 Y103.224 E0.01924
G1 X128.720 Y103.791 E0.01924
G1 X128.863 Y104.388 E0.01924
G1 X128.911 Y105.000 E0.01924
G1 X128.863 Y105.612 E0.01924
G1 X128.720 Y106.209 E0.01924
G1 X128.485 Y106.776 E0.01924
G1 X128.164 Y107.299 E0.01924
G1 X127.766 Y107.766 E0.01924
G1 X127.299 Y108.164 E0.01924
G1 X126.776 Y108.485 E0.01924
G1 X126.209 Y108.720 E0.01924
G1 X125.612 Y108.863 E0.01924
G1 X125.000 Y108.911 E0.01924
G1 X124.388 Y108.863 E0.01924
G1 X123.791 Y108.720 E0.01924
G1 X123.224 Y108.485 E0.01924
G1 X122.701 Y108.164 E0.01924
G1 X122.234 Y107.766 E0.01924
G1 X121.836 Y107.299 E0.01924
G1 X121.515 Y106.776 E0.01924
G1 X121.280 Y106.209 E0.01924
G1 X121.137 Y105.612 E0.01924
G1 X121.089 Y105.000 E0.01924
G1 X121.137 Y104.388 E0.01924
G1 X121.280 Y103.791 E0.01924
G1 X121.515 Y103.224 E0.01924
G1 X121.836 Y102.701 E0.01924
G1 X122.176 Y102.303 E0.01641
G1 X122.109 Y101.872 F10800.000
G1 F8640.000
G1 X122.701 Y101.836 E-0.16235
G1 X123.224 Y101.515 E-0.14172
G1 X123.793 Y101.279 E-0.14218
G1 X124.470 Y101.130 E-0.16008
G1 X125.000 Y101.089 E-0.12269
G1 X125.134 Y101.099 E-0.03099
G1 E-0.04000 F2100.00000
G1 Z0.800 F10800.000
G1 X159.427 Y70.487
G1 Z0.200
G1 E0.80000 F2100.00000
G1 F1200.000
G1 X159.030 Y70.021 E0.01920
G1 X158.678 Y69.447 E0.02110
G1 X158.420 Y68.826 E0.02110
G1 X158.263 Y68.171 E0.02110
G1 X158.210 Y67.500 E0.02110
G1 X158.263 Y66.829 E0.02110
G1 X158.420 Y66.174 E0.02110
G1 X158.678 Y65.553 E0.02110
G1 X159.030 Y64.979 E0.02110
G1 X159.467 Y64.467 E0.02110
G1 X159.979 Y64.030 E0.02110
G1 X160.553 Y63.678 E0.02110
G1 X161.180 Y63.418 E0.02128
G1 X161.915 Y63.257 E0.02360
G1 X162.500 Y63.210 E0.01841
G1 X163.171 Y63.263 E0.02110
G1 X163.826 Y63.420 E0.02110
G1 X164.447 Y63.678 E0.02110
G1 X165.021 Y64.030 E0.02110
G1 X165.533 Y64.467 E0.02110
G1 X165.970 Y64.979 E0.02110
G1 X166.322 Y65.553 E0.02110
G1 X166.580 Y66.174 E0.02110
G1 X166.737 Y66.829 E0.02110
G1 X166.790 Y67.500 E0.02110
G1 X166.737 Y68.171 E0.02110
G1 X166.580 Y68.826 E0.02110
G1 X166.322 Y69.447 E0.02110
G1 X165.970 Y70.021 E0.02110
G1 X165.533 Y70.533 E0.02110
G1 X165.021 Y70.970 E0.02110
G1 X164.447 Y71.322 E0.02110
G1 X163.826 Y71.580 E0.02110
G1 X163.171 Y71.737 E0.02110
G1 X162.500 Y71.790 E0.02110
G1 X161.829 Y71.737 E0.02110
G1 X161.174 Y71.580 E0.02110
G1 X160.553 Y71.322 E0.02110
G1 X159.979 Y70.970 E0.02110
G1 X159.466 Y70.532 E0.02113
G1 X159.734 Y70.266 F10800.000
G1 F1200.000
G1 X159.336 Y69.799 E0.01924
G1 X159.015 Y69.276 E0.01924
G1 X158.780 Y68.709 E0.01924
G1 X158.637 Y68.112 E0.01924
G1 X158.589 Y67.500 E0.01924
G1 X158.637 Y66.888 E0.01924
G1 X158.780 Y66.291 E0.01924
G1 X159.015 Y65.724 E0.01924
G1 X159.336 Y65.201 E0.01924
G1 X159.734 Y64.734 E0.01924
G1 X160.201 Y64.336 E0.01924
G1 X160.724 Y64.015 E0.01924
G1 X161.293 Y63.779 E0.01931
G1 X161.970 Y63.630 E0.02174
G1 X162.500 Y63.589 E0.01666
G1 X163.112 Y63.637 E0.01924
G1 X163.709 Y63.780 E0.01924
G1 X164.276 Y64.015 E0.01924
G1 X164.799 Y64.336 E0.01924
G1 X165.266 Y64.734 E0.01924
G1 X165.664 Y65.201 E0.01924
G1 X165.985 Y65.724 E0.01924
G1 X166.220 Y66.291 E0.01924
G1 X166.363 Y66.888 E0.01924
G1 X166.411 Y67.500 E0.01924
G1 X166.363 Y68.112 E0.01924
G1 X166.220 Y68.709 E0.01924
G1 X165.985 Y69.276 E0.01924
G1 X165.664 Y69.799 E0.01924
G1 X165.266 Y70.266 E0.01924
G1 X164.799 Y70.664 E0.01924
G1 X164.276 Y70.985 E0.01924
G1 X163.709 Y71.220 E0.01924
G1 X163.112 Y71.363 E0.01924
G1 X162.500 Y71.411 E0.01924
G1 X161.888 Y71.363 E0.01924
G1 X161.291 Y71.220 E0.01924
G1 X160.724 Y70.985 E0.01924
G1 X160.201 Y70.664 E0.01924
G1 X159.780 Y70.305 E0.01736
G1 X159.348 Y70.369 F10800.000
G1 F8640.000
G1 X159.336 Y69.799 E-0.15541
G1 X159.015 Y69.276 E-0.14172
G1 X158.780 Y68.709 E-0.14172
G1 X158.637 Y68.112 E-0.14172
G1 X158.589 Y67.500 E-0.14172
G1 X158.602 Y67.337 E-0.03772
G1 E-0.04000 F2100.00000
G1 Z0.800 F10800.000
G1 X162.500 Y138.210
G1 Z0.200
G1 E0.80000 F2100.00000
G1 F1200.000
G1 X163.171 Y138.263 E0.02110
G1 X163.826 Y138.420 E0.02110
G1 X164.447 Y138.678 E0.02110
G1 X165.021 Y139.030 E0.02110
G1 X165.533 Y139.467 E0.02110
G1 X165.970 Y139.979 E0.02110
G1 X166.322 Y140.553 E0.02110
G1 X166.580 Y141.174 E0.02110
G1 X166.737 Y141.829 E0.02110
G1 X166.790 Y142.500 E0.02110
G1 X166.737 Y143.171 E0.02110
G1 X166.580 Y143.826 E0.02110
G1 X166.322 Y144.447 E0.02110
G1 X165.970 Y145.021 E0.02110
G1 X165.533 Y145.533 E0.02110
G1 X165.021 Y145.970 E0.02110
G1 X164.447 Y146.322 E0.02110
G1 X163.826 Y146.580 E0.02110
G1 X163.171 Y146.737 E0.02110
G1 X162.500 Y146.790 E0.02110
G1 X161.829 Y146.737 E0.02110
G1 X161.174 Y146.580 E0.02110
G1 X160.553 Y146.322 E0.02110
G1 X159.979 Y145.970 E0.02110
G1 X159.467 Y145.533 E0.02110
G1 X159.030 Y145.021 E0.02110
G1 X158.678 Y144.447 E0.02110
G1 X158.420 Y143.826 E0.02110
G1 X158.263 Y143.171 E0.02110
G1 X158.210 Y142.500 E0.02110
G1 X158.263 Y141.829 E0.02110
G1 X158.420 Y141.174 E0.02110
G1 X158.678 Y140.553 E0.02110
G1 X159.030 Y139.979 E0.02110
G1 X159.467 Y139.467 E0.02110
G1 X159.979 Y139.030 E0.02110
G1 X160.553 Y138.678 E0.02110
G1 X161.180 Y138.418 E0.02128
G1 X161.915 Y138.257 E0.02360
G1 X162.440 Y138.215 E0.01653
G1 X162.470 Y138.591 F10800.000
G1 F1200.000
G1 X163.112 Y138.637 E0.02018
G1 X163.709 Y138.780 E0.01924
G1 X164.276 Y139.015 E0.01924
G1 X164.799 Y139.336 E0.01924
G1 X165.266 Y139.734 E0.01924
G1 X165.664 Y140.201 E0.01924
G1 X165.985 Y140.724 E0.01924
G1 X166.220 Y141.291 E0.01924
G1 X166.363 Y141.888 E0.01924
G1 X166.411 Y142.500 E0.01924
G1 X166.363 Y143.112 E0.01924
G1 X166.220 Y143.709 E0.01924
G1 X165.985 Y144.276 E0.01924
G1 X165.664 Y144.799 E0.01924
G1 X165.266 Y145.266 E0.01924
G1 X164.799 Y145.664 E0.01924
G1 X164.276 Y145.985 E0.01924
G1 X163.709 Y146.220 E0.01924
G1 X163.112 Y146.363 E0.01924
G1 X162.500 Y146.411 E0.01924
G1 X161.888 Y146.363 E0.01924
G1 X161.291 Y146.220 E0.01924
G1 X160.724 Y145.985 E0.01924
G1 X160.201 Y145.664 E0.01924
G1 X159.734 Y145.266 E0.01924
G1 X159.336 Y144.799 E0.01924
G1 X159.015 Y144.276 E0.01924
G1 X158.780 Y143.709 E0.01924
G1 X158.637 Y143.112 E0.01924
G1 X158.589 Y142.500 E0.01924
G1 X158.637 Y141.888 E0.01924
G1 X158.780 Y141.291 E0.01924
G1 X159.015 Y140.724 E0.01924
G1 X159.336 Y140.201 E0.01924
G1 X159.734 Y139.734 E0.01924
G1 X160.201 Y139.336 E0.01924
G1 X160.724 Y139.015 E0.01924
G1 X161.293 Y138.779 E0.01931
G1 X161.970 Y138.630 E0.02174
G1 X162.410 Y138.596 E0.01383
G1 X162.668 Y138.244 F10800.000
G1 F8640.000
G1 X163.112 Y138.637 E-0.16235
G1 X163.709 Y138.780 E-0.14172
G1 X164.276 Y139.015 E-0.14172
G1 X164.799 Y139.336 E-0.14172
G1 X165.266 Y139.734 E-0.14172
G1 X165.352 Y139.836 E-0.03079
G1 E-0.04000 F2100.00000
G1 Z0.800 F10800.000
G1 X91.790 Y142.500
G1 Z0.200
G1 E0.80000 F2100.00000
G1 F1200.000
G1 X91.737 Y143.171 E0.02110
G1 X91.580 Y143.826 E0.02110
G1 X91.322 Y144.447 E0.02110
G1 X90.970 Y145.021 E0.02110
G1 X90.533 Y145.533 E0.02110
G1 X90.021 Y145.970 E0.02110
G1 X89.447 Y146.322 E0.02110
G1 X88.826 Y146.580 E0.02110
G1 X88.171 Y146.737 E0.02110
G1 X87.500 Y146.790 E0.02110
G1 X86.829 Y146.737 E0.02110
G1 X86.174 Y146.580 E0.02110
G1 X85.553 Y146.322 E0.02110
G1 X84.979 Y145.970 E0.02110
G1 X84.467 Y145.533 E0.02110
G1 X84.030 Y145.021 E0.02110
G1 X83.678 Y144.447 E0.02110
G1 X83.420 Y143.826 E0.02110
G1 X83.263 Y143.171 E0.02110
G1 X83.210 Y142.500 E0.02110
G1 X83.263 Y141.829 E0.02110
G1 X83.420 Y141.174 E0.02110
G1 X83.678 Y140.553 E0.02110
G1 X84.030 Y139.979 E0.02110
G1 X84.467 Y139.467 E0.02110
G1 X84.979 Y139.030 E0.02110
G1 X85.553 Y138.678 E0.02110
G1 X86.180 Y138.418 E0.02128
G1 X86.915 Y138.257 E0.02360
G1 X87.500 Y138.210 E0.01841
G1 X88.171 Y138.263 E0.02110
G1 X88.826 Y138.420 E0.02110
G1 X89.447 Y138.678 E0.02110
G1 X90.021 Y139.030 E0.02110
G1 X90.533 Y139.467 E0.02110
G1 X90.970 Y139.979 E0.02110
G1 X91.322 Y140.553 E0.02110
G1 X91.580 Y141.174 E0.02110
G1 X91.737 Y141.829 E0.02110
G1 X91.785 Y142.440 E0.01922
G1 X91.409 Y142.470 F10800.000
G1 F1200.000
G1 X91.363 Y143.112 E0.02018
G1 X91.220 Y143.709 E0.01924
G1 X90.985 Y144.276 E0.01924
G1 X90.664 Y144.799 E0.01924
G1 X90.266 Y145.266 E0.01924
G1 X89.799 Y145.664 E0.01924
G1 X89.276 Y145.985 E0.01924
G1 X88.709 Y146.220 E0.01924
G1 X88.112 Y146.363 E0.01924
G1 X87.500 Y146.411 E0.01924
G1 X86.888 Y146.363 E0.01924
G1 X86.291 Y146.220 E0.01924
G1 X85.724 Y145.985 E0.01924
G1 X85.201 Y145.664 E0.01924
G1 X84.734 Y145.266 E0.01924
G1 X84.336 Y144.799 E0.01924
G1 X84.015 Y144.276 E0.01924
G1 X83.780 Y143.709 E0.01924
G1 X83.637 Y143.112 E0.01924
G1 X83.589 Y142.500 E0.01924
G1 X83.637 Y141.888 E0.01924
G1 X83.780 Y141.291 E0.01924
G1 X84.015 Y140.724 E0.01924
G1 X84.336 Y140.201 E0.01924
G1 X84.734 Y139.734 E0.01924
G1 X85.201 Y139.336 E0.01924
G1 X85.724 Y139.015 E0.01924
G1 X86.293 Y138.779 E0.01931
G1 X86.970 Y138.630 E0.02174
G1 X87.500 Y138.589 E0.01666
G1 X88.112 Y138.637 E0.01924
G1 X88.709 Y138.780 E0.01924
G1 X89.276 Y139.015 E0.01924
G1 X89.799 Y139.336 E0.01924
G1 X90.266 Y139.734 E0.01924
G1 X90.664 Y140.201 E0.01924
G1 X90.985 Y140.724 E0.01924
G1 X91.220 Y141.291 E0.01924
G1 X91.363 Y141.888 E0.01924
G1 X91.404 Y142.410 E0.01641
G1 X91.756 Y142.668 F10800.000
G1 F8640.000
G1 X91.363 Y143.112 E-0.16235
G1 X91.220 Y143.709 E-0.14172
G1 X90.985 Y144.276 E-0.14172
G1 X90.664 Y144.799 E-0.14172
G1 X90.266 Y145.266 E-0.14172
G1 X90.164 Y145.352 E-0.03079
G1 E-0.04000 F2100.00000
G1 Z0.800 F10800.000
G1 X87.500 Y71.790
G1 Z0.200
G1 E0.80000 F2100.00000
M73 Q0 S261
G1 F1200.000
G1 X86.829 Y71.737 E0.02110
G1 X86.174 Y71.580 E0.02110
G1 X85.553 Y71.322 E0.02110
G1 X84.979 Y70.970 E0.02110
G1 X84.467 Y70.533 E0.02110
G1 X84.030 Y70.021 E0.02110
G1 X83.678 Y69.447 E0.02110
G1 X83.420 Y68.826 E0.02110
G1 X83.263 Y68.171 E0.02110
G1 X83.210 Y67.500 E0.02110
G1 X83.263 Y66.829 E0.02110
M73 P0 R244
G1 X83.420 Y66.174 E0.02110
G1 X83.678 Y65.553 E0.02110
G1 X84.030 Y64.979 E0.02110
G1 X84.467 Y64.467 E0.02110
G1 X84.979 Y64.030 E0.02110
G1 X85.553 Y63.678 E0.02110
G1 X86.180 Y63.418 E0.02128
G1 X86.915 Y63.257 E0.02360
G1 X87.500 Y63.210 E0.01841
G1 X88.171 Y63.263 E0.02110
G1 X88.826 Y63.420 E0.02110
G1 X89.447 Y63.678 E0.02110
G1 X90.021 Y64.030 E0.02110
G1 X90.533 Y64.467 E0.02110
G1 X90.970 Y64.979 E0.02110
G1 X91.322 Y65.553 E0.02110
G1 X91.580 Y66.174 E0.02110
G1 X91.737 Y66.829 E0.02110
G1 X91.790 Y67.500 E0.02110
G1 X91.737 Y68.171 E0.02110
G1 X91.580 Y68.826 E0.02110
G1 X91.322 Y69.447 E0.02110
G1 X90.970 Y70.021 E0.02110
G1 X90.533 Y70.533 E0.02110
G1 X90.021 Y70.970 E0.02110
G1 X89.447 Y71.322 E0.02110
G1 X88.826 Y71.580 E0.02110
G1 X88.171 Y71.737 E0.02110
G1 X87.560 Y71.785 E0.01922
G1 X87.530 Y71.409 F10800.000
G1 F1200.000
G1 X86.888 Y71.363 E0.02018
G1 X86.291 Y71.220 E0.01924
G1 X85.724 Y70.985 E0.01924
G1 X85.201 Y70.664 E0.01924
G1 X84.734 Y70.266 E0.01924
G1 X84.336 Y69.799 E0.01924
G1 X84.015 Y69.276 E0.01924
G1 X83.780 Y68.709 E0.01924
G1 X83.637 Y68.112 E0.01924
G1 X83.589 Y67.500 E0.01924
G1 X83.637 Y66.888 E0.01924
G1 X83.780 Y66.291 E0.01924
G1 X84.015 Y65.724 E0.01924
G1 X84.336 Y65.201 E0.01924
G1 X84.734 Y64.734 E0.01924
G1 X85.201 Y64.336 E0.01924
G1 X85.724 Y64.015 E0.01924
G1 X86.293 Y63.779 E0.01931
G1 X86.970 Y63.630 E0.02174
G1 X87.500 Y63.589 E0.01666
G1 X88.112 Y63.637 E0.01924
G1 X88.709 Y63.780 E0.01924
G1 X89.276 Y64.015 E0.01924
G1 X89.799 Y64.336 E0.01924
G1 X90.266 Y64.734 E0.01924
G1 X90.664 Y65.201 E0.01924
G1 X90.985 Y65.724 E0.01924
G1 X91.220 Y66.291 E0.01924
G1 X91.363 Y66.888 E0.01924
G1 X91.411 Y67.500 E0.01924
G1 X91.363 Y68.112 E0.01924
G1 X91.220 Y68.709 E0.01924
G1 X90.985 Y69.276 E0.01924
G1 X90.664 Y69.799 E0.01924
G1 X90.266 Y70.266 E0.01924
G1 X89.799 Y70.664 E0.01924
G1 X89.276 Y70.985 E0.01924
G1 X88.709 Y71.220 E0.01924
G1 X88.112 Y71.363 E0.01924
G1 X87.590 Y71.404 E0.01641
G1 X87.332 Y71.756 F10800.000
G1 F8640.000
G1 X86.888 Y71.363 E-0.16235
