; generated by PrusaSlicer 2.3.0+win64 on 2021-05-30 at 14:58:24 UTC

; 

; external perimeters extrusion width = 0.45mm
; perimeters extrusion width = 0.45mm
; infill extrusion width = 0.45mm
; solid infill extrusion width = 0.45mm
; top infill extrusion width = 0.40mm
; first layer extrusion width = 0.42mm

M73 P0 R67
M73 Q0 S68
M201 X1000 Y1000 Z200 E5000 ; sets maximum accelerations, mm/sec^2
M203 X200 Y200 Z12 E120 ; sets maximum feedrates, mm/sec
M204 P1250 R1250 T1250 ; sets acceleration (P, T) and retract acceleration (R), mm/sec^2
M205 X8.00 Y8.00 Z0.40 E4.50 ; sets the jerk limits, mm/sec
M205 S0 T0 ; sets the minimum extruding and travel feed rate, mm/sec
M107
;TYPE:Custom
M862.3 P "MK3SMMU2S" ; printer model check
M862.1 P0.4 ; nozzle diameter check
M115 U3.9.3 ; tell printer latest fw version
G90 ; use absolute coordinates
M83 ; extruder relative mode
M104 S215 ; set extruder temp
M140 S60 ; set bed temp
Tx
M190 S60 ; wait for bed temp
M109 S215 ; wait for extruder temp
G28 W ; home all without mesh bed level
G80 ; mesh bed leveling

;go outside print area
G1 Y-3.0 F1000.0
G1 Z0.4 F1000.0
; select extruder
Tc
; purge line
G1 X55.0 F2000.0
G1 Z0.3 F1000.0
G92 E0.0
G1 X240.0 E25.0 F2200.0
G1 Y-2.0 F1000.0
G1 X55.0 E25 F1400.0
G1 Z0.20 F1000.0
G1 X5.0 E4.0 F1000.0

M221 S95
G92 E0.0

; Don't change E values below. Excessive value can damage the printer.
M907 E430 ; set extruder motor current
G21 ; set units to millimeters
G90 ; use absolute coordinates
M83 ; use relative distances for extrusion
M900 K0.05 ; Filament gcode LA 1.5
M900 K30 ; Filament gcode LA 1.0
;LAYER_CHANGE
;Z:0.2
;HEIGHT:0.2
;BEFORE_LAYER_CHANGE
G92 E0.0
;0.2


M73 Q0 S67
G1 E-0.80000 F2100.000
G1 Z0.400 F10800.000
;AFTER_LAYER_CHANGE
;0.2
G1 X102.894 Y81.674
G1 Z0.200
G1 E0.80000 F2100.000
M204 S1000
;TYPE:Skirt
;WIDTH:0.42
G1 F1200.000
G1 X103.811 Y81.473 E0.02942
G1 X146.154 Y81.473 E1.32763
G1 X147.042 Y81.647 E0.02837
G1 X147.801 Y82.139 E0.02837
G1 X148.320 Y82.880 E0.02837
G1 X148.525 Y83.761 E0.02837
G1 X148.527 Y126.184 E1.33014
G1 X148.352 Y127.045 E0.02755
G1 X147.876 Y127.784 E0.02755
G1 X147.092 Y128.332 E0.03001
G1 X146.155 Y128.527 E0.03001
G1 X103.816 Y128.527 E1.32751
G1 X102.955 Y128.352 E0.02755
G1 X102.216 Y127.876 E0.02755
G1 X101.668 Y127.092 E0.03001
G1 X101.473 Y126.155 E0.03001
G1 X101.473 Y83.816 E1.32751
G1 X101.648 Y82.955 E0.02755
G1 X102.124 Y82.216 E0.02755
G1 X102.845 Y81.708 E0.02766
; printing object BasePlateBearingCover.stl id:0 copy 0
;WIPE_START
G1 F8640.000
G1 X103.811 Y81.473 E-0.22952
G1 X106.108 Y81.473 E-0.53048
;WIPE_END
G1 E-0.04000 F2100.000
G1 Z0.600 F10800.000
G1 X118.920 Y98.142
G1 Z0.200
G1 E0.80000 F2100.000
;TYPE:Perimeter
G1 F1200.000
G1 X119.324 Y97.804 E0.01652
G1 X120.131 Y97.234 E0.03097
G1 X121.007 Y96.750 E0.03139
G1 X121.931 Y96.364 E0.03139
G1 X122.891 Y96.080 E0.03139
G1 X123.875 Y95.904 E0.03136
G1 X124.809 Y95.838 E0.02935
G1 X125.386 Y95.843 E0.01809
G1 X126.372 Y95.938 E0.03106
G1 X127.352 Y96.141 E0.03139
G1 X128.292 Y96.447 E0.03097
G1 X128.778 Y96.650 E0.01652
G1 X129.655 Y97.104 E0.03097
G1 X130.488 Y97.659 E0.03139
G1 X131.246 Y98.293 E0.03097
G1 X131.621 Y98.663 E0.01652
G1 X132.265 Y99.412 E0.03097
G1 X132.831 Y100.238 E0.03139
G1 X133.304 Y101.120 E0.03139
G1 X133.673 Y102.037 E0.03097
G1 X133.829 Y102.540 E0.01652
G1 X134.043 Y103.504 E0.03097
G1 X134.152 Y104.499 E0.03139
G1 X134.152 Y105.501 E0.03139
G1 X134.043 Y106.496 E0.03139
G1 X133.829 Y107.460 E0.03097
G1 X133.673 Y107.963 E0.01652
G1 X133.304 Y108.880 E0.03097
G1 X132.831 Y109.762 E0.03139
G1 X132.265 Y110.588 E0.03139
G1 X131.613 Y111.347 E0.03139
G1 X130.891 Y112.021 E0.03097
G1 X130.477 Y112.348 E0.01652
G1 X129.655 Y112.896 E0.03097
G1 X128.766 Y113.356 E0.03139
G1 X127.845 Y113.712 E0.03097
G1 X127.339 Y113.861 E0.01652
G1 X126.372 Y114.062 E0.03097
G1 X125.375 Y114.158 E0.03139
G1 X124.375 Y114.144 E0.03139
G1 X123.394 Y114.023 E0.03097
G1 X122.878 Y113.916 E0.01652
G1 X121.931 Y113.636 E0.03097
G1 X121.007 Y113.250 E0.03139
G1 X120.143 Y112.772 E0.03097
G1 X119.704 Y112.480 E0.01652
G1 X118.929 Y111.867 E0.03097
G1 X118.226 Y111.173 E0.03097
G1 X117.882 Y110.774 E0.01652
G1 X117.302 Y109.974 E0.03097
G1 X116.805 Y109.105 E0.03139
G1 X116.406 Y108.187 E0.03139
G1 X116.110 Y107.231 E0.03139
G1 X115.920 Y106.248 E0.03139
G1 X115.838 Y105.250 E0.03139
G1 X115.865 Y104.250 E0.03136
G1 X115.991 Y103.323 E0.02935
G1 X116.113 Y102.759 E0.01809
G1 X116.406 Y101.813 E0.03106
G1 X116.805 Y100.895 E0.03139
G1 X117.301 Y100.026 E0.03136
G1 X117.850 Y99.268 E0.02935
G1 X118.224 Y98.829 E0.01809
G1 X118.877 Y98.184 E0.02876
G1 X119.142 Y98.453 F10800.000
G1 F1200.000
G1 X119.554 Y98.103 E0.01695
G1 X120.332 Y97.554 E0.02984
G1 X121.172 Y97.090 E0.03009
G1 X122.057 Y96.719 E0.03009
G1 X122.978 Y96.448 E0.03009
G1 X123.922 Y96.278 E0.03008
G1 X124.821 Y96.215 E0.02825
G1 X125.366 Y96.220 E0.01711
G1 X126.315 Y96.311 E0.02989
G1 X127.255 Y96.506 E0.03009
G1 X128.160 Y96.800 E0.02984
G1 X128.618 Y96.992 E0.01556
G1 X129.463 Y97.430 E0.02984
G1 X130.262 Y97.962 E0.03009
G1 X130.992 Y98.572 E0.02984
G1 X131.345 Y98.921 E0.01556
G1 X131.966 Y99.642 E0.02984
G1 X132.509 Y100.434 E0.03009
G1 X132.962 Y101.280 E0.03009
G1 X133.317 Y102.163 E0.02984
G1 X133.464 Y102.637 E0.01556
G1 X133.670 Y103.566 E0.02984
G1 X133.775 Y104.520 E0.03009
G1 X133.775 Y105.480 E0.03009
G1 X133.670 Y106.434 E0.03009
G1 X133.464 Y107.363 E0.02984
G1 X133.317 Y107.837 E0.01556
G1 X132.962 Y108.720 E0.02984
G1 X132.509 Y109.566 E0.03009
G1 X131.966 Y110.358 E0.03009
G1 X131.340 Y111.085 E0.03009
G1 X130.644 Y111.735 E0.02984
G1 X130.255 Y112.043 E0.01555
G1 X129.463 Y112.570 E0.02984
G1 X128.611 Y113.012 E0.03009
G1 X127.723 Y113.355 E0.02984
G1 X127.247 Y113.495 E0.01555
G1 X126.315 Y113.689 E0.02984
G1 X125.360 Y113.781 E0.03009
G1 X124.400 Y113.768 E0.03009
G1 X123.456 Y113.651 E0.02984
G1 X122.970 Y113.550 E0.01556
G1 X122.057 Y113.281 E0.02984
G1 X121.172 Y112.910 E0.03009
G1 X120.339 Y112.449 E0.02984
G1 X119.926 Y112.175 E0.01555
G1 X119.179 Y111.584 E0.02984
G1 X118.502 Y110.916 E0.02984
G1 X118.178 Y110.540 E0.01556
G1 X117.619 Y109.770 E0.02984
G1 X117.143 Y108.936 E0.03009
G1 X116.760 Y108.056 E0.03009
G1 X116.476 Y107.139 E0.03009
G1 X116.294 Y106.197 E0.03009
G1 X116.215 Y105.240 E0.03009
G1 X116.241 Y104.281 E0.03008
G1 X116.363 Y103.388 E0.02825
G1 X116.478 Y102.855 E0.01711
G1 X116.760 Y101.944 E0.02989
G1 X117.143 Y101.064 E0.03009
G1 X117.619 Y100.231 E0.03008
G1 X118.147 Y99.501 E0.02825
G1 X118.501 Y99.085 E0.01711
G1 X119.099 Y98.495 E0.02636
G1 X119.364 Y98.763 F10800.000
;TYPE:External perimeter
G1 F1200.000
G1 X119.784 Y98.402 E0.01737
G1 X120.532 Y97.874 E0.02871
G1 X121.336 Y97.430 E0.02880
G1 X122.184 Y97.075 E0.02880
G1 X123.065 Y96.815 E0.02880
G1 X123.969 Y96.653 E0.02880
G1 X124.832 Y96.593 E0.02715
G1 X125.347 Y96.597 E0.01613
G1 X126.259 Y96.684 E0.02873
G1 X127.158 Y96.871 E0.02880
G1 X128.029 Y97.154 E0.02871
G1 X128.458 Y97.334 E0.01459
G1 X129.271 Y97.755 E0.02871
G1 X130.036 Y98.264 E0.02880
G1 X130.738 Y98.852 E0.02871
G1 X131.070 Y99.178 E0.01459
G1 X131.667 Y99.872 E0.02871
G1 X132.186 Y100.630 E0.02880
G1 X132.620 Y101.440 E0.02880
G1 X132.961 Y102.289 E0.02871
G1 X133.099 Y102.734 E0.01459
G1 X133.298 Y103.628 E0.02871
G1 X133.398 Y104.541 E0.02880
G1 X133.398 Y105.459 E0.02880
G1 X133.298 Y106.372 E0.02880
G1 X133.099 Y107.266 E0.02871
G1 X132.961 Y107.711 E0.01459
G1 X132.620 Y108.560 E0.02871
G1 X132.186 Y109.370 E0.02880
G1 X131.667 Y110.128 E0.02880
G1 X131.068 Y110.824 E0.02880
G1 X130.398 Y111.449 E0.02871
G1 X130.034 Y111.738 E0.01459
G1 X129.271 Y112.245 E0.02871
G1 X128.456 Y112.668 E0.02880
G1 X127.602 Y112.998 E0.02871
G1 X127.155 Y113.129 E0.01459
G1 X126.259 Y113.316 E0.02871
G1 X125.345 Y113.403 E0.02880
G1 X124.426 Y113.391 E0.02880
G1 X123.517 Y113.278 E0.02871
G1 X123.062 Y113.184 E0.01459
G1 X122.184 Y112.925 E0.02871
G1 X121.336 Y112.570 E0.02880
G1 X120.535 Y112.127 E0.02871
G1 X120.148 Y111.869 E0.01459
G1 X119.429 Y111.301 E0.02871
G1 X118.778 Y110.658 E0.02871
G1 X118.474 Y110.305 E0.01459
G1 X117.936 Y109.565 E0.02871
G1 X117.480 Y108.767 E0.02880
G1 X117.114 Y107.924 E0.02880
G1 X116.843 Y107.047 E0.02880
G1 X116.668 Y106.145 E0.02880
G1 X116.593 Y105.230 E0.02880
G1 X116.618 Y104.312 E0.02880
G1 X116.734 Y103.454 E0.02715
G1 X116.843 Y102.951 E0.01613
G1 X117.114 Y102.076 E0.02873
G1 X117.480 Y101.233 E0.02880
G1 X117.936 Y100.436 E0.02880
G1 X118.444 Y99.734 E0.02715
G1 X118.777 Y99.342 E0.01613
G1 X119.321 Y98.806 E0.02396
G1 X119.277 Y98.373 F10800.000
;WIPE_START
G1 F8640.000
G1 X119.784 Y98.402 E-0.14175
G1 X120.532 Y97.874 E-0.21143
G1 X121.336 Y97.430 E-0.21210
G1 X122.114 Y97.104 E-0.19472
;WIPE_END
G1 E-0.04000 F2100.000
G1 Z0.600 F10800.000
G1 X112.713 Y92.229
G1 Z0.200
G1 E0.80000 F2100.000
;TYPE:Perimeter
G1 F1200.000
G1 X112.229 Y92.713 E0.02147
G1 X111.917 Y92.954 E0.01236
G1 X111.599 Y93.155 E0.01179
G1 X111.249 Y93.336 E0.01237
G1 X110.631 Y93.561 E0.02061
G1 X110.224 Y93.652 E0.01307
G1 X109.873 Y93.699 E0.01111
G1 X109.500 Y93.715 E0.01171
G1 X109.127 Y93.699 E0.01171
G1 X108.776 Y93.652 E0.01111
G1 X108.369 Y93.561 E0.01307
G1 X107.751 Y93.336 E0.02061
G1 X107.401 Y93.155 E0.01237
G1 X107.083 Y92.954 E0.01179
G1 X106.771 Y92.713 E0.01236
G1 X106.287 Y92.229 E0.02147
G1 X106.046 Y91.917 E0.01236
G1 X105.845 Y91.599 E0.01179
G1 X105.664 Y91.249 E0.01237
G1 X105.439 Y90.631 E0.02061
G1 X105.348 Y90.224 E0.01307
G1 X105.301 Y89.873 E0.01111
G1 X105.285 Y89.500 E0.01171
G1 X105.301 Y89.127 E0.01171
G1 X105.348 Y88.776 E0.01111
G1 X105.439 Y88.369 E0.01307
G1 X105.664 Y87.751 E0.02061
G1 X105.845 Y87.401 E0.01237
G1 X106.046 Y87.083 E0.01179
G1 X106.275 Y86.786 E0.01174
G1 X106.530 Y86.509 E0.01182
G1 X106.822 Y86.244 E0.01236
G1 X107.359 Y85.868 E0.02056
G1 X107.708 Y85.685 E0.01237
G1 X108.056 Y85.540 E0.01181
G1 X108.412 Y85.427 E0.01171
G1 X108.781 Y85.347 E0.01183
G1 X109.172 Y85.297 E0.01236
G1 X109.828 Y85.297 E0.02056
G1 X110.219 Y85.347 E0.01236
G1 X110.588 Y85.427 E0.01183
G1 X110.963 Y85.546 E0.01233
G1 X111.583 Y85.835 E0.02146
G1 X111.917 Y86.046 E0.01239
G1 X112.229 Y86.287 E0.01236
G1 X112.713 Y86.771 E0.02147
G1 X112.954 Y87.083 E0.01236
G1 X113.155 Y87.401 E0.01179
G1 X113.336 Y87.751 E0.01237
G1 X113.561 Y88.369 E0.02061
G1 X113.652 Y88.776 E0.01307
G1 X113.699 Y89.127 E0.01111
G1 X113.715 Y89.500 E0.01171
G1 X113.699 Y89.873 E0.01171
G1 X113.652 Y90.224 E0.01111
G1 X113.561 Y90.631 E0.01307
G1 X113.336 Y91.249 E0.02061
G1 X113.155 Y91.599 E0.01237
G1 X112.954 Y91.917 E0.01179
G1 X112.750 Y92.182 E0.01048
G1 X112.451 Y91.952 F10800.000
G1 F1200.000
G1 X111.980 Y92.429 E0.02103
G1 X111.701 Y92.644 E0.01106
G1 X111.412 Y92.828 E0.01072
G1 X111.097 Y92.990 E0.01110
G1 X110.525 Y93.198 E0.01910
G1 X110.158 Y93.281 E0.01178
G1 X109.840 Y93.323 E0.01007
G1 X109.500 Y93.338 E0.01067
G1 X109.160 Y93.323 E0.01067
G1 X108.842 Y93.281 E0.01006
G1 X108.475 Y93.198 E0.01178
G1 X107.903 Y92.990 E0.01910
G1 X107.588 Y92.828 E0.01110
G1 X107.300 Y92.644 E0.01072
G1 X107.020 Y92.429 E0.01106
G1 X106.571 Y91.980 E0.01993
G1 X106.356 Y91.700 E0.01106
G1 X106.172 Y91.412 E0.01072
G1 X106.010 Y91.097 E0.01110
G1 X105.802 Y90.525 E0.01910
G1 X105.719 Y90.158 E0.01178
G1 X105.677 Y89.840 E0.01006
G1 X105.662 Y89.500 E0.01067
G1 X105.677 Y89.160 E0.01067
G1 X105.719 Y88.842 E0.01006
G1 X105.802 Y88.475 E0.01178
G1 X106.010 Y87.903 E0.01910
G1 X106.172 Y87.588 E0.01110
G1 X106.356 Y87.300 E0.01072
G1 X106.563 Y87.029 E0.01068
G1 X106.796 Y86.777 E0.01076
G1 X107.058 Y86.540 E0.01108
G1 X107.556 Y86.191 E0.01908
G1 X107.869 Y86.026 E0.01109
G1 X108.186 Y85.894 E0.01075
G1 X108.510 Y85.792 E0.01065
G1 X108.845 Y85.719 E0.01077
G1 X109.196 Y85.674 E0.01109
G1 X109.804 Y85.674 E0.01908
G1 X110.155 Y85.719 E0.01109
G1 X110.490 Y85.792 E0.01077
G1 X110.826 Y85.898 E0.01103
G1 X111.402 Y86.166 E0.01992
G1 X111.701 Y86.356 E0.01109
G1 X111.980 Y86.571 E0.01106
G1 X112.429 Y87.020 E0.01993
G1 X112.644 Y87.300 E0.01106
G1 X112.828 Y87.588 E0.01072
G1 X112.990 Y87.903 E0.01109
G1 X113.198 Y88.475 E0.01910
G1 X113.281 Y88.842 E0.01178
G1 X113.323 Y89.160 E0.01006
G1 X113.338 Y89.500 E0.01067
G1 X113.323 Y89.840 E0.01067
G1 X113.281 Y90.158 E0.01006
G1 X113.198 Y90.525 E0.01178
G1 X112.990 Y91.097 E0.01910
G1 X112.828 Y91.412 E0.01109
G1 X112.644 Y91.701 E0.01072
G1 X112.488 Y91.904 E0.00806
G1 X112.189 Y91.675 F10800.000
;TYPE:External perimeter
G1 F1200.000
G1 X111.731 Y92.145 E0.02059
M73 Q1 S67
G1 X111.484 Y92.335 E0.00975
M73 P1 R67
G1 X111.224 Y92.500 E0.00966
G1 X110.946 Y92.644 E0.00982
G1 X110.418 Y92.836 E0.01760
G1 X110.092 Y92.909 E0.01049
G1 X109.807 Y92.947 E0.00902
G1 X109.500 Y92.960 E0.00963
G1 X109.193 Y92.947 E0.00963
G1 X108.908 Y92.909 E0.00902
G1 X108.582 Y92.836 E0.01049
G1 X108.054 Y92.644 E0.01760
G1 X107.776 Y92.500 E0.00982
G1 X107.516 Y92.335 E0.00966
G1 X107.269 Y92.145 E0.00975
G1 X106.855 Y91.731 E0.01839
G1 X106.665 Y91.484 E0.00975
G1 X106.500 Y91.224 E0.00966
G1 X106.356 Y90.946 E0.00982
G1 X106.164 Y90.418 E0.01760
G1 X106.091 Y90.092 E0.01049
G1 X106.053 Y89.807 E0.00902
G1 X106.040 Y89.500 E0.00963
G1 X106.053 Y89.193 E0.00963
G1 X106.091 Y88.908 E0.00902
G1 X106.164 Y88.582 E0.01049
G1 X106.356 Y88.054 E0.01760
G1 X106.500 Y87.776 E0.00982
G1 X106.665 Y87.516 E0.00966
G1 X106.852 Y87.273 E0.00962
G1 X107.062 Y87.045 E0.00969
G1 X107.293 Y86.835 E0.00981
G1 X107.753 Y86.513 E0.01759
G1 X108.030 Y86.368 E0.00981
G1 X108.315 Y86.249 E0.00968
G1 X108.607 Y86.157 E0.00959
G1 X108.909 Y86.091 E0.00970
G1 X109.220 Y86.051 E0.00981
G1 X109.780 Y86.051 E0.01759
G1 X110.091 Y86.091 E0.00981
G1 X110.393 Y86.157 E0.00970
G1 X110.689 Y86.250 E0.00973
G1 X111.220 Y86.498 E0.01837
G1 X111.484 Y86.665 E0.00980
G1 X111.731 Y86.855 E0.00975
G1 X112.145 Y87.269 E0.01839
G1 X112.335 Y87.516 E0.00976
G1 X112.500 Y87.776 E0.00966
G1 X112.644 Y88.054 E0.00982
G1 X112.836 Y88.582 E0.01760
G1 X112.909 Y88.908 E0.01049
G1 X112.947 Y89.193 E0.00902
G1 X112.960 Y89.500 E0.00963
G1 X112.947 Y89.807 E0.00963
G1 X112.909 Y90.092 E0.00902
G1 X112.836 Y90.418 E0.01049
G1 X112.644 Y90.946 E0.01760
G1 X112.500 Y91.224 E0.00982
G1 X112.225 Y91.627 E0.01530
G1 X112.325 Y92.051 F10800.000
;WIPE_START
G1 F8640.000
G1 X111.731 Y92.145 E-0.16540
G1 X111.484 Y92.335 E-0.07184
G1 X111.224 Y92.500 E-0.07116
G1 X110.946 Y92.644 E-0.07228
G1 X110.418 Y92.836 E-0.12959
G1 X110.092 Y92.909 E-0.07722
G1 X109.807 Y92.947 E-0.06643
G1 X109.500 Y92.960 E-0.07092
G1 X109.348 Y92.954 E-0.03516
;WIPE_END
G1 E-0.04000 F2100.000
G1 Z0.600 F10800.000
G1 X109.828 Y116.297
G1 Z0.200
G1 E0.80000 F2100.000
;TYPE:Perimeter
G1 F1200.000
G1 X110.219 Y116.347 E0.01236
G1 X110.588 Y116.427 E0.01183
G1 X110.963 Y116.546 E0.01233
G1 X111.583 Y116.835 E0.02146
G1 X111.917 Y117.046 E0.01239
G1 X112.229 Y117.287 E0.01236
G1 X112.713 Y117.771 E0.02147
G1 X112.954 Y118.083 E0.01236
G1 X113.155 Y118.401 E0.01179
G1 X113.336 Y118.751 E0.01237
G1 X113.561 Y119.369 E0.02061
G1 X113.652 Y119.776 E0.01307
G1 X113.699 Y120.127 E0.01111
G1 X113.715 Y120.500 E0.01171
G1 X113.699 Y120.873 E0.01171
G1 X113.652 Y121.224 E0.01111
G1 X113.561 Y121.631 E0.01307
G1 X113.336 Y122.249 E0.02061
G1 X113.155 Y122.599 E0.01237
G1 X112.954 Y122.917 E0.01179
G1 X112.713 Y123.229 E0.01236
G1 X112.229 Y123.713 E0.02147
G1 X111.917 Y123.954 E0.01236
G1 X111.599 Y124.155 E0.01179
G1 X111.249 Y124.336 E0.01237
G1 X110.631 Y124.561 E0.02061
G1 X110.224 Y124.652 E0.01307
G1 X109.873 Y124.699 E0.01111
G1 X109.500 Y124.715 E0.01171
G1 X109.127 Y124.699 E0.01171
G1 X108.776 Y124.652 E0.01111
G1 X108.369 Y124.561 E0.01307
G1 X107.751 Y124.336 E0.02061
G1 X107.401 Y124.155 E0.01237
G1 X107.083 Y123.954 E0.01179
G1 X106.771 Y123.713 E0.01236
G1 X106.287 Y123.229 E0.02147
G1 X106.046 Y122.917 E0.01236
G1 X105.845 Y122.599 E0.01179
G1 X105.664 Y122.249 E0.01238
G1 X105.439 Y121.631 E0.02061
G1 X105.348 Y121.224 E0.01307
G1 X105.301 Y120.873 E0.01111
G1 X105.285 Y120.500 E0.01171
G1 X105.301 Y120.127 E0.01171
