; generated by PrusaSlicer 2.3.0+win64 on 2021-05-30 at 22:44:08 UTC

; 

; external perimeters extrusion width = 0.45mm
; perimeters extrusion width = 0.45mm
; infill extrusion width = 0.45mm
; solid infill extrusion width = 0.45mm
; top infill extrusion width = 0.40mm
; first layer extrusion width = 0.42mm

M73 P0 R53
M73 Q0 S54
M201 X1000 Y1000 Z200 E5000 ; sets maximum accelerations, mm/sec^2
M203 X200 Y200 Z12 E120 ; sets maximum feedrates, mm/sec
M204 P1250 R1250 T1250 ; sets acceleration (P, T) and retract acceleration (R), mm/sec^2
M205 X8.00 Y8.00 Z0.40 E4.50 ; sets the jerk limits, mm/sec
M205 S0 T0 ; sets the minimum extruding and travel feed rate, mm/sec
M107
;TYPE:Custom
M862.3 P "MK3SMMU2S" ; printer model check
M862.1 P0.4 ; nozzle diameter check
M115 U3.9.3 ; tell printer latest fw version
G90 ; use absolute coordinates
M83 ; extruder relative mode
M104 S215 ; set extruder temp
M140 S60 ; set bed temp
Tx
M190 S60 ; wait for bed temp
M109 S215 ; wait for extruder temp
G28 W ; home all without mesh bed level
G80 ; mesh bed leveling

;go outside print area
G1 Y-3.0 F1000.0
G1 Z0.4 F1000.0
; select extruder
Tc
; purge line
G1 X55.0 F2000.0
G1 Z0.3 F1000.0
G92 E0.0
G1 X240.0 E25.0 F2200.0
G1 Y-2.0 F1000.0
G1 X55.0 E25 F1400.0
M73 Q0 S53
G1 Z0.20 F1000.0
G1 X5.0 E4.0 F1000.0

M221 S95
G92 E0.0

; Don't change E values below. Excessive value can damage the printer.
M907 E430 ; set extruder motor current
G21 ; set units to millimeters
G90 ; use absolute coordinates
M83 ; use relative distances for extrusion
M900 K0.05 ; Filament gcode LA 1.5
M900 K30 ; Filament gcode LA 1.0
;LAYER_CHANGE
;Z:0.2
;HEIGHT:0.2
;BEFORE_LAYER_CHANGE
G92 E0.0
;0.2


G1 E-0.80000 F2100.000
G1 Z0.400 F10800.000
;AFTER_LAYER_CHANGE
;0.2
G1 X93.546 Y102.633
G1 Z0.200
G1 E0.80000 F2100.000
M204 S1000
;TYPE:Skirt
;WIDTH:0.42
G1 F1200.000
G1 X94.032 Y102.011 E0.02474
G1 X120.504 Y75.824 E1.16752
G1 X122.050 Y74.457 E0.06468
G1 X123.704 Y73.251 E0.06419
G1 X124.942 Y72.491 E0.04554
G1 X126.751 Y71.570 E0.06364
G1 X128.668 Y70.810 E0.06467
G1 X130.623 Y70.240 E0.06384
G1 X132.039 Y69.947 E0.04535
G1 X134.055 Y69.693 E0.06372
G1 X136.086 Y69.628 E0.06372
G1 X138.145 Y69.754 E0.06467
G1 X139.581 Y69.959 E0.04547
G1 X141.564 Y70.404 E0.06372
G1 X143.493 Y71.030 E0.06360
G1 X144.832 Y71.585 E0.04547
G1 X146.642 Y72.510 E0.06372
G1 X148.358 Y73.599 E0.06372
G1 X149.514 Y74.468 E0.04535
G1 X151.036 Y75.814 E0.06372
G1 X152.427 Y77.296 E0.06372
G1 X153.332 Y78.427 E0.04543
G1 X154.472 Y80.111 E0.06376
G1 X155.463 Y81.920 E0.06467
G1 X156.273 Y83.796 E0.06407
G1 X156.917 Y85.784 E0.06551
G1 X157.152 Y87.025 E0.03962
G1 X155.979 Y123.128 E1.13257
G1 X155.648 Y124.524 E0.04499
G1 X154.968 Y126.420 E0.06316
G1 X154.277 Y127.914 E0.05161
G1 X153.448 Y129.387 E0.05299
G1 X152.683 Y130.538 E0.04335
G1 X151.694 Y131.815 E0.05061
G1 X150.771 Y132.844 E0.04334
G1 X149.553 Y134.013 E0.05294
G1 X148.292 Y135.047 E0.05115
G1 X147.176 Y135.833 E0.04281
G1 X145.762 Y136.681 E0.05168
G1 X144.251 Y137.433 E0.05293
G1 X142.970 Y137.955 E0.04335
G1 X141.437 Y138.454 E0.05055
G1 X140.096 Y138.786 E0.04334
G1 X138.429 Y139.069 E0.05299
G1 X136.802 Y139.215 E0.05122
G1 X135.455 Y139.238 E0.04226
G1 X133.792 Y139.144 E0.05222
G1 X132.080 Y138.909 E0.05417
G1 X130.151 Y138.464 E0.06209
G1 X128.586 Y137.957 E0.05157
G1 X126.990 Y137.291 E0.05423
G1 X125.522 Y136.534 E0.05177
G1 X124.069 Y135.626 E0.05373
G1 X122.742 Y134.645 E0.05174
G1 X121.718 Y133.762 E0.04240
G1 X94.182 Y108.155 E1.17899
G1 X93.579 Y107.431 E0.02955
G1 X93.147 Y106.601 E0.02935
G1 X92.920 Y105.809 E0.02581
G1 X92.848 Y104.906 E0.02842
G1 X92.930 Y104.152 E0.02379
G1 X93.145 Y103.420 E0.02391
G1 X93.519 Y102.687 E0.02580
; printing object CarriagePlate.stl id:2 copy 0
;WIPE_START
G1 F8640.000
G1 X94.032 Y102.011 E-0.19585
G1 X95.769 Y100.293 E-0.56415
;WIPE_END
G1 E-0.04000 F2100.000
G1 Z0.600 F10800.000
G1 X132.253 Y120.936
G1 Z0.200
G1 E0.80000 F2100.000
;TYPE:Perimeter
G1 F1200.000
G1 X132.456 Y120.555 E0.01355
G1 X132.697 Y120.200 E0.01345
G1 X132.985 Y119.856 E0.01407
G1 X133.201 Y119.642 E0.00953
G1 X133.555 Y119.350 E0.01438
G1 X133.810 Y119.175 E0.00969
G1 X134.306 Y118.905 E0.01773
G1 X134.757 Y118.728 E0.01517
G1 X135.048 Y118.642 E0.00954
G1 X135.521 Y118.548 E0.01510
G1 X135.893 Y118.510 E0.01174
G1 X136.381 Y118.508 E0.01530
G1 X136.741 Y118.540 E0.01133
G1 X137.099 Y118.602 E0.01138
G1 X137.595 Y118.737 E0.01610
G1 X137.969 Y118.880 E0.01258
G1 X138.450 Y119.120 E0.01685
G1 X138.822 Y119.372 E0.01410
G1 X139.098 Y119.603 E0.01126
G1 X139.509 Y120.039 E0.01880
G1 X139.755 Y120.364 E0.01277
G1 X139.938 Y120.656 E0.01081
G1 X140.188 Y121.139 E0.01706
G1 X140.386 Y121.729 E0.01949
G1 X140.467 Y122.081 E0.01133
G1 X140.534 Y122.740 E0.02079
G1 X140.525 Y123.104 E0.01141
G1 X140.454 Y123.644 E0.01707
G1 X140.339 Y124.068 E0.01376
G1 X140.214 Y124.410 E0.01144
G1 X140.018 Y124.825 E0.01438
G1 X139.795 Y125.201 E0.01369
G1 X139.594 Y125.481 E0.01080
G1 X139.236 Y125.889 E0.01702
G1 X138.989 Y126.121 E0.01064
G1 X138.615 Y126.410 E0.01484
G1 X138.279 Y126.624 E0.01247
G1 X137.988 Y126.775 E0.01029
G1 X137.537 Y126.958 E0.01524
G1 X137.168 Y127.067 E0.01206
G1 X136.798 Y127.140 E0.01182
G1 X136.291 Y127.189 E0.01597
G1 X135.626 Y127.157 E0.02088
G1 X135.117 Y127.059 E0.01626
G1 X134.749 Y126.945 E0.01208
G1 X134.219 Y126.708 E0.01819
G1 X133.915 Y126.528 E0.01108
G1 X133.642 Y126.332 E0.01054
G1 X133.237 Y125.966 E0.01710
G1 X132.870 Y125.570 E0.01695
G1 X132.681 Y125.326 E0.00967
G1 X132.405 Y124.880 E0.01646
G1 X132.207 Y124.472 E0.01422
G1 X132.107 Y124.194 E0.00925
G1 X131.976 Y123.679 E0.01667
G1 X131.926 Y123.383 E0.00941
G1 X131.884 Y122.835 E0.01722
G1 X131.882 Y122.429 E0.01275
G1 X131.915 Y122.075 E0.01112
G1 X132.014 Y121.598 E0.01527
G1 X132.135 Y121.216 E0.01256
G1 X132.229 Y120.992 E0.00765
G1 X132.577 Y121.138 F10800.000
;TYPE:External perimeter
G1 F1200.000
G1 X132.779 Y120.750 E0.01373
G1 X132.998 Y120.428 E0.01222
G1 X133.263 Y120.112 E0.01292
G1 X133.454 Y119.922 E0.00845
G1 X133.782 Y119.652 E0.01332
G1 X134.007 Y119.497 E0.00856
G1 X134.466 Y119.248 E0.01639
G1 X134.879 Y119.085 E0.01392
G1 X135.139 Y119.008 E0.00847
G1 X135.577 Y118.922 E0.01400
M73 Q1 S53
G1 X135.914 Y118.887 E0.01062
G1 X136.365 Y118.885 E0.01416
G1 X136.692 Y118.915 E0.01030
G1 X137.018 Y118.970 E0.01034
G1 X137.477 Y119.095 E0.01494
G1 X137.817 Y119.225 E0.01141
G1 X138.259 Y119.446 E0.01549
G1 X138.595 Y119.674 E0.01272
M73 P1 R53
G1 X138.838 Y119.878 E0.00997
G1 X139.221 Y120.283 E0.01747
G1 X139.444 Y120.579 E0.01162
G1 X139.611 Y120.843 E0.00980
G1 X139.840 Y121.287 E0.01566
G1 X140.023 Y121.831 E0.01799
G1 X140.094 Y122.142 E0.01001
G1 X140.157 Y122.755 E0.01932
G1 X140.149 Y123.075 E0.01003
G1 X140.083 Y123.570 E0.01565
G1 X139.979 Y123.953 E0.01246
G1 X139.865 Y124.265 E0.01040
G1 X139.684 Y124.648 E0.01329
G1 X139.479 Y124.994 E0.01262
G1 X139.299 Y125.246 E0.00971
G1 X138.965 Y125.626 E0.01586
G1 X138.744 Y125.833 E0.00951
G1 X138.398 Y126.101 E0.01373
G1 X138.090 Y126.297 E0.01142
G1 X137.829 Y126.433 E0.00922
G1 X137.412 Y126.602 E0.01410
G1 X137.078 Y126.701 E0.01094
G1 X136.744 Y126.767 E0.01068
G1 X136.282 Y126.811 E0.01453
G1 X135.671 Y126.782 E0.01918
G1 X135.209 Y126.692 E0.01478
G1 X134.882 Y126.592 E0.01073
G1 X134.393 Y126.373 E0.01678
G1 X134.122 Y126.212 E0.00988
G1 X133.879 Y126.038 E0.00937
G1 X133.503 Y125.698 E0.01592
G1 X133.158 Y125.326 E0.01589
G1 X132.992 Y125.111 E0.00852
G1 X132.736 Y124.698 E0.01524
G1 X132.555 Y124.325 E0.01298
G1 X132.468 Y124.084 E0.00804
G1 X132.346 Y123.601 E0.01562
G1 X132.301 Y123.337 E0.00841
G1 X132.261 Y122.820 E0.01626
G1 X132.259 Y122.445 E0.01174
G1 X132.288 Y122.131 E0.00989
G1 X132.379 Y121.694 E0.01400
G1 X132.553 Y121.193 E0.01661
G1 X132.340 Y120.816 F10800.000
;WIPE_START
G1 F8640.000
G1 X132.779 Y120.750 E-0.11492
G1 X132.998 Y120.428 E-0.08996
G1 X133.263 Y120.112 E-0.09516
G1 X133.454 Y119.922 E-0.06220
G1 X133.782 Y119.652 E-0.09811
G1 X134.007 Y119.497 E-0.06303
G1 X134.466 Y119.248 E-0.12073
G1 X134.879 Y119.085 E-0.10253
G1 X134.935 Y119.068 E-0.01338
;WIPE_END
G1 E-0.04000 F2100.000
G1 Z0.600 F10800.000
G1 X119.480 Y122.998
G1 Z0.200
G1 E0.80000 F2100.000
;TYPE:Perimeter
G1 F1200.000
G1 X119.759 Y122.078 E0.03015
G1 X119.944 Y121.561 E0.01720
G1 X120.374 Y120.527 E0.03513
G1 X120.893 Y119.483 E0.03655
G1 X121.432 Y118.557 E0.03360
G1 X121.731 Y118.097 E0.01719
G1 X122.417 Y117.148 E0.03670
G1 X123.101 Y116.324 E0.03359
G1 X123.508 Y115.879 E0.01890
G1 X123.895 Y115.484 E0.01734
G1 X124.682 Y114.757 E0.03360
G1 X125.587 Y114.023 E0.03653
G1 X126.542 Y113.354 E0.03654
G1 X127.457 Y112.798 E0.03360
G1 X127.943 Y112.534 E0.01734
G1 X128.483 Y112.264 E0.01890
G1 X129.463 Y111.833 E0.03359
G1 X130.564 Y111.434 E0.03670
G1 X131.088 Y111.274 E0.01720
G1 X132.127 Y111.010 E0.03360
G1 X133.278 Y110.797 E0.03670
G1 X133.821 Y110.725 E0.01719
G1 X134.889 Y110.636 E0.03358
G1 X136.104 Y110.616 E0.03811
G1 X137.174 Y110.670 E0.03359
G1 X137.720 Y110.724 E0.01720
G1 X138.833 Y110.890 E0.03528
G1 X139.419 Y111.009 E0.01875
G1 X140.457 Y111.273 E0.03359
G1 X141.570 Y111.635 E0.03670
G1 X142.082 Y111.831 E0.01719
G1 X143.063 Y112.262 E0.03360
G1 X144.102 Y112.802 E0.03670
G1 X144.575 Y113.080 E0.01719
G1 X145.472 Y113.667 E0.03360
G1 X146.403 Y114.367 E0.03654
G1 X147.284 Y115.130 E0.03653
G1 X148.046 Y115.883 E0.03360
G1 X148.418 Y116.287 E0.01721
G1 X149.134 Y117.148 E0.03514
G1 X149.820 Y118.097 E0.03669
G1 X150.118 Y118.557 E0.01719
G1 X150.657 Y119.483 E0.03360
G1 X151.176 Y120.527 E0.03655
G1 X151.607 Y121.561 E0.03514
G1 X151.792 Y122.078 E0.01719
G1 X152.071 Y122.998 E0.03015
G1 X151.792 Y123.918 E0.03015
G1 X151.607 Y124.433 E0.01718
G1 X151.155 Y125.514 E0.03670
G1 X150.679 Y126.473 E0.03360
G1 X150.097 Y127.472 E0.03624
G1 X149.498 Y128.360 E0.03359
G1 X148.784 Y129.282 E0.03656
G1 X148.073 Y130.084 E0.03359
G1 X147.652 Y130.515 E0.01890
G1 X147.252 Y130.896 E0.01734
G1 X146.441 Y131.597 E0.03360
G1 X145.512 Y132.301 E0.03654
G1 X144.536 Y132.938 E0.03654
G1 X143.603 Y133.464 E0.03360
G1 X143.108 Y133.712 E0.01734
G1 X142.560 Y133.963 E0.01890
G1 X141.566 Y134.361 E0.03359
G1 X140.453 Y134.724 E0.03670
G1 X139.924 Y134.867 E0.01720
G1 X138.877 Y135.096 E0.03360
G1 X137.724 Y135.271 E0.03655
G1 X136.608 Y135.363 E0.03513
G1 X136.059 Y135.381 E0.01720
G1 X134.939 Y135.363 E0.03513
G1 X133.777 Y135.265 E0.03655
G1 X132.718 Y135.105 E0.03360
G1 X132.179 Y134.997 E0.01721
G1 X131.093 Y134.722 E0.03514
G1 X129.980 Y134.360 E0.03669
G1 X129.468 Y134.164 E0.01719
G1 X128.487 Y133.733 E0.03360
G1 X127.449 Y133.193 E0.03670
G1 X126.976 Y132.915 E0.01719
G1 X126.079 Y132.328 E0.03360
G1 X125.147 Y131.629 E0.03654
G1 X124.267 Y130.866 E0.03653
G1 X123.504 Y130.113 E0.03360
G1 X123.133 Y129.708 E0.01721
G1 X122.417 Y128.847 E0.03514
G1 X121.731 Y127.899 E0.03669
G1 X121.432 Y127.439 E0.01719
G1 X120.893 Y126.512 E0.03360
G1 X120.374 Y125.469 E0.03655
G1 X119.944 Y124.434 E0.03514
G1 X119.759 Y123.918 E0.01719
G1 X119.497 Y123.055 E0.02827
G1 X119.085 Y122.998 F10800.000
;TYPE:External perimeter
G1 F1200.000
G1 X119.401 Y121.959 E0.03403
G1 X119.592 Y121.425 E0.01778
G1 X120.031 Y120.370 E0.03583
G1 X120.561 Y119.304 E0.03734
G1 X121.111 Y118.359 E0.03427
G1 X121.420 Y117.883 E0.01778
G1 X122.119 Y116.917 E0.03739
G1 X122.816 Y116.076 E0.03427
G1 X123.234 Y115.620 E0.01940
G1 X123.632 Y115.214 E0.01783
G1 X124.435 Y114.472 E0.03427
G1 X125.360 Y113.722 E0.03733
G1 X126.335 Y113.039 E0.03734
G1 X127.269 Y112.471 E0.03427
G1 X127.769 Y112.199 E0.01783
G1 X128.323 Y111.923 E0.01940
G1 X129.323 Y111.483 E0.03427
G1 X130.444 Y111.077 E0.03739
G1 X130.987 Y110.911 E0.01778
G1 X132.046 Y110.642 E0.03427
G1 X133.219 Y110.424 E0.03739
G1 X133.781 Y110.350 E0.01778
G1 X134.870 Y110.259 E0.03427
G1 X136.110 Y110.238 E0.03890
G1 X137.202 Y110.293 E0.03427
G1 X137.766 Y110.349 E0.01779
G1 X138.898 Y110.519 E0.03588
G1 X139.503 Y110.641 E0.01934
G1 X140.562 Y110.910 E0.03427
G1 X141.696 Y111.280 E0.03739
G1 X142.226 Y111.482 E0.01778
G1 X143.226 Y111.922 E0.03427
G1 X144.284 Y112.472 E0.03739
G1 X144.774 Y112.759 E0.01778
G1 X145.688 Y113.358 E0.03427
G1 X146.640 Y114.073 E0.03734
G1 X147.540 Y114.853 E0.03733
G1 X148.318 Y115.621 E0.03427
G1 X148.702 Y116.039 E0.01779
G1 X149.432 Y116.917 E0.03583
G1 X150.131 Y117.883 E0.03739
G1 X150.440 Y118.359 E0.01778
G1 X150.989 Y119.304 E0.03427
G1 X151.520 Y120.370 E0.03734
G1 X151.958 Y121.425 E0.03583
G1 X152.150 Y121.959 E0.01778
G1 X152.465 Y122.998 E0.03403
G1 X152.150 Y124.036 E0.03403
G1 X151.958 Y124.570 E0.01778
G1 X151.499 Y125.670 E0.03739
G1 X151.012 Y126.649 E0.03427
G1 X150.415 Y127.675 E0.03723
G1 X149.804 Y128.581 E0.03427
G1 X149.075 Y129.523 E0.03734
G1 X148.349 Y130.341 E0.03427
G1 X147.917 Y130.783 E0.01940
G1 X147.505 Y131.175 E0.01783
G1 X146.679 Y131.891 E0.03427
G1 X145.729 Y132.609 E0.03733
G1 X144.732 Y133.260 E0.03733
G1 X143.780 Y133.797 E0.03427
G1 X143.271 Y134.052 E0.01783
G1 X142.709 Y134.310 E0.01940
G1 X141.695 Y134.716 E0.03427
G1 X140.561 Y135.085 E0.03739
G1 X140.013 Y135.233 E0.01778
G1 X138.945 Y135.467 E0.03427
G1 X137.768 Y135.645 E0.03734
G1 X136.629 Y135.740 E0.03583
G1 X136.062 Y135.758 E0.01779
G1 X134.920 Y135.739 E0.03583
G1 X133.733 Y135.639 E0.03734
G1 X132.652 Y135.476 E0.03427
G1 X132.096 Y135.365 E0.01779
G1 X130.988 Y135.085 E0.03583
G1 X129.855 Y134.716 E0.03739
G1 X129.325 Y134.513 E0.01778
G1 X128.324 Y134.073 E0.03427
G1 X127.266 Y133.523 E0.03739
G1 X126.777 Y133.236 E0.01778
G1 X125.862 Y132.637 E0.03427
G1 X124.910 Y131.922 E0.03734
G1 X124.010 Y131.143 E0.03733
G1 X123.233 Y130.374 E0.03427
G1 X122.849 Y129.957 E0.01779
G1 X122.118 Y129.078 E0.03583
G1 X121.420 Y128.112 E0.03739
G1 X121.111 Y127.636 E0.01778
G1 X120.561 Y126.691 E0.03427
G1 X120.031 Y125.625 E0.03734
G1 X119.592 Y124.570 E0.03583
G1 X119.401 Y124.036 E0.01778
G1 X119.103 Y123.055 E0.03215
G1 X119.449 Y122.830 F10800.000
;WIPE_START
G1 F8640.000
G1 X119.401 Y121.959 E-0.26225
G1 X119.592 Y121.425 E-0.13096
G1 X120.031 Y120.370 E-0.26383
G1 X120.229 Y119.971 E-0.10295
;WIPE_END
G1 E-0.04000 F2100.000
G1 Z0.600 F10800.000
G1 X145.871 Y114.108
G1 Z0.200
G1 E0.80000 F2100.000
;TYPE:Solid infill
;WIDTH:0.421077
G1 F1200.000
G1 X147.852 Y116.089 E0.08806
G1 X148.205 Y116.473 E0.01640
G1 X148.911 Y117.322 E0.03472
G1 X149.587 Y118.256 E0.03627
G1 X149.775 Y118.547 E0.01088
G1 X144.781 Y113.553 E0.22208
G1 X143.965 Y113.050 E0.03013
G1 X143.503 Y112.810 E0.01637
G1 X150.505 Y119.812 E0.31136
G1 X151.002 Y120.843 E0.03601
G1 X142.468 Y112.310 E0.37948
G1 X141.556 Y111.933 E0.03103
G1 X151.374 Y121.750 E0.43656
G1 X151.640 Y122.551 E0.02654
G1 X140.756 Y111.667 E0.48397
G1 X140.379 Y111.544 E0.01249
G1 X140.003 Y111.449 E0.01218
G1 X151.723 Y123.169 E0.52118
G1 X151.599 Y123.579 E0.01348
G1 X139.291 Y111.272 E0.54731
G1 X138.630 Y111.146 E0.02114
G1 X151.468 Y123.983 E0.57085
G1 X151.325 Y124.375 E0.01311
G1 X138.002 Y111.052 E0.59245
G1 X137.390 Y110.975 E0.01938
G1 X151.167 Y124.752 E0.61263
G1 X151.009 Y125.129 E0.01285
G1 X136.815 Y110.935 E0.63121
G1 X136.252 Y110.906 E0.01773
G1 X150.846 Y125.501 E0.64899
G1 X150.669 Y125.858 E0.01255
G1 X135.715 Y110.905 E0.66494
G1 X135.189 Y110.914 E0.01655
G1 X150.491 Y126.215 E0.68045
G1 X150.305 Y126.564 E0.01242
G1 X134.678 Y110.937 E0.69489
M73 P1 R52
G1 X134.184 Y110.978 E0.01557
G1 X150.110 Y126.904 E0.70819
G1 X149.909 Y127.237 E0.01225
G1 X133.698 Y111.027 E0.72086
G1 X133.230 Y111.093 E0.01486
G1 X149.697 Y127.560 E0.73224
G1 X149.481 Y127.880 E0.01211
G1 X132.779 Y111.177 E0.74273
G1 X132.328 Y111.261 E0.01443
G1 X149.266 Y128.199 E0.75321
G1 X149.032 Y128.500 E0.01199
G1 X131.893 Y111.361 E0.76214
G1 X131.467 Y111.470 E0.01384
G1 X148.799 Y128.801 E0.77072
M73 P2 R52
M73 Q2 S53
G1 X148.565 Y129.103 E0.01199
G1 X140.404 Y120.942 E0.36290
G1 X140.184 Y120.516 E0.01509
G1 X139.988 Y120.203 E0.01160
G1 X139.725 Y119.856 E0.01368
G1 X139.292 Y119.397 E0.01986
G1 X138.993 Y119.146 E0.01227
G1 X138.593 Y118.876 E0.01518
