; generated by PrusaSlicer 2.2.0+win64 on 2020-12-30 at 22:20:41 UTC

; 

; external perimeters extrusion width = 0.45mm
; perimeters extrusion width = 0.45mm
; infill extrusion width = 0.45mm
; solid infill extrusion width = 0.45mm
; top infill extrusion width = 0.40mm
; first layer extrusion width = 0.42mm

M73 P0 R40
M73 Q0 S40
M201 X1000 Y1000 Z200 E5000 ; sets maximum accelerations, mm/sec^2
M203 X200 Y200 Z12 E120 ; sets maximum feedrates, mm/sec
M204 P1250 R1250 T1250 ; sets acceleration (P, T) and retract acceleration (R), mm/sec^2
M205 X8.00 Y8.00 Z0.40 E4.50 ; sets the jerk limits, mm/sec
M205 S0 T0 ; sets the minimum extruding and travel feed rate, mm/sec
M107
M862.3 P "MK3SMMU2S" ; printer model check
M862.1 P0.4 ; nozzle diameter check
M115 U3.9.1 ; tell printer latest fw version
G90 ; use absolute coordinates
M83 ; extruder relative mode
M104 S215 ; set extruder temp
M140 S60 ; set bed temp
Tx
M190 S60 ; wait for bed temp
M109 S215 ; wait for extruder temp
G28 W ; home all without mesh bed level
G80 ; mesh bed leveling

;go outside print area
G1 Y-3.0 F1000.0
G1 Z0.4 F1000.0
; select extruder
Tc
; purge line
G1 X55.0 F2000.0
G1 Z0.3 F1000.0
G92 E0.0
G1 X240.0 E25.0 F2200.0
M73 Q0 S40
M73 P0 R40
G1 Y-2.0 F1000.0
G1 X55.0 E25 F1400.0
G1 Z0.20 F1000.0
G1 X5.0 E4.0 F1000.0

M221 S95
G92 E0.0

; Don't change E values below. Excessive value can damage the printer.
M907 E430 ; set extruder motor current
G21 ; set units to millimeters
G90 ; use absolute coordinates
M83 ; use relative distances for extrusion
M900 K0.06 ; Filament gcode LA 1.5
M900 K30 ; Filament gcode LA 1.0
;BEFORE_LAYER_CHANGE
G92 E0.0
;0.2


G1 E-0.80000 F2100.00000
G1 Z0.600 F10800.000
;AFTER_LAYER_CHANGE
;0.2
G1 X104.684 Y104.946
G1 Z0.200
G1 E0.80000 F2100.00000
M204 S1000
G1 F1200.000
G1 X104.747 Y104.414 E0.01681
G1 X105.005 Y103.471 E0.03066
G1 X105.686 Y101.563 E0.06350
G1 X106.366 Y100.085 E0.05102
G1 X107.252 Y98.508 E0.05672
G1 X108.156 Y97.172 E0.05059
G1 X109.414 Y95.619 E0.06266
G1 X110.689 Y94.312 E0.05724
G1 X111.907 Y93.251 E0.05066
G1 X113.516 Y92.079 E0.06240
G1 X114.904 Y91.242 E0.05084
G1 X116.537 Y90.431 E0.05715
G1 X118.400 Y89.710 E0.06263
G1 X119.968 Y89.255 E0.05121
G1 X121.926 Y88.867 E0.06258
G1 X123.341 Y88.706 E0.04466
G1 X125.300 Y88.642 E0.06144
G1 X126.929 Y88.730 E0.05117
G1 X128.737 Y88.977 E0.05720
G1 X130.687 Y89.429 E0.06276
G1 X132.200 Y89.920 E0.04987
G1 X133.884 Y90.623 E0.05722
G1 X135.298 Y91.354 E0.04991
G1 X136.835 Y92.317 E0.05687
G1 X138.130 Y93.280 E0.05060
G1 X139.314 Y94.315 E0.04929
G1 X140.589 Y95.623 E0.05729
G1 X141.846 Y97.175 E0.06263
G1 X142.756 Y98.521 E0.05094
G1 X143.737 Y100.288 E0.06335
G1 X144.538 Y102.129 E0.06296
G1 X145.178 Y104.111 E0.06530
G1 X145.316 Y105.054 E0.02988
G1 X145.253 Y105.586 E0.01681
G1 X144.995 Y106.529 E0.03066
G1 X144.314 Y108.437 E0.06350
G1 X143.634 Y109.915 E0.05102
G1 X142.748 Y111.492 E0.05672
G1 X141.844 Y112.828 E0.05059
G1 X140.586 Y114.381 E0.06266
G1 X139.311 Y115.688 E0.05724
G1 X138.090 Y116.752 E0.05078
G1 X136.484 Y117.921 E0.06227
G1 X135.096 Y118.758 E0.05084
G1 X133.463 Y119.569 E0.05715
G1 X131.596 Y120.291 E0.06276
G1 X130.028 Y120.746 E0.05121
G1 X128.070 Y121.133 E0.06258
G1 X126.251 Y121.321 E0.05735
G1 X124.651 Y121.357 E0.05016
G1 X123.071 Y121.270 E0.04963
G1 X121.263 Y121.023 E0.05720
G1 X119.313 Y120.571 E0.06276
G1 X117.800 Y120.080 E0.04987
G1 X116.116 Y119.377 E0.05722
G1 X114.698 Y118.644 E0.05004
G1 X113.011 Y117.578 E0.06258
G1 X111.867 Y116.717 E0.04490
G1 X110.686 Y115.685 E0.04916
G1 X109.411 Y114.377 E0.05729
G1 X108.154 Y112.825 E0.06263
G1 X107.244 Y111.479 E0.05094
G1 X106.263 Y109.712 E0.06335
G1 X105.462 Y107.871 E0.06296
G1 X104.822 Y105.889 E0.06530
G1 X104.693 Y105.006 E0.02800
G1 X105.061 Y104.950 F10800.000
G1 F1200.000
G1 X105.370 Y103.566 E0.04449
G1 X106.040 Y101.696 E0.06227
G1 X106.704 Y100.253 E0.04980
G1 X107.576 Y98.702 E0.05580
G1 X108.458 Y97.398 E0.04935
G1 X109.697 Y95.868 E0.06171
G1 X110.949 Y94.585 E0.05622
G1 X112.144 Y93.544 E0.04970
G1 X113.727 Y92.392 E0.06137
G1 X115.082 Y91.575 E0.04962
G1 X116.688 Y90.776 E0.05621
G1 X118.522 Y90.067 E0.06168
G1 X120.059 Y89.621 E0.05016
G1 X121.984 Y89.240 E0.06154
G1 X123.366 Y89.082 E0.04360
G1 X125.299 Y89.019 E0.06065
G1 X126.893 Y89.106 E0.05005
G1 X128.668 Y89.347 E0.05615
G1 X130.584 Y89.792 E0.06168
G1 X132.072 Y90.274 E0.04904
G1 X133.726 Y90.966 E0.05620
G1 X135.114 Y91.683 E0.04900
G1 X136.623 Y92.629 E0.05583
G1 X137.888 Y93.570 E0.04944
G1 X139.054 Y94.588 E0.04855
G1 X140.306 Y95.872 E0.05621
G1 X141.542 Y97.398 E0.06156
G1 X142.432 Y98.714 E0.04981
G1 X143.393 Y100.443 E0.06202
G1 X144.114 Y102.083 E0.05617
G1 X144.806 Y104.182 E0.06930
G1 X144.939 Y105.050 E0.02753
G1 X144.630 Y106.434 E0.04449
G1 X143.960 Y108.304 E0.06227
G1 X143.296 Y109.747 E0.04980
G1 X142.424 Y111.298 E0.05580
G1 X141.542 Y112.602 E0.04935
G1 X140.303 Y114.132 E0.06171
G1 X139.051 Y115.415 E0.05622
G1 X137.853 Y116.458 E0.04982
G1 X136.273 Y117.608 E0.06125
G1 X134.914 Y118.427 E0.04974
G1 X133.312 Y119.224 E0.05610
G1 X131.474 Y119.934 E0.06180
G1 X129.941 Y120.379 E0.05004
G1 X128.012 Y120.761 E0.06166
G1 X126.226 Y120.945 E0.05629
G1 X124.655 Y120.980 E0.04927
G1 X123.102 Y120.894 E0.04876
G1 X121.329 Y120.652 E0.05613
G1 X119.412 Y120.207 E0.06168
G1 X117.928 Y119.726 E0.04892
G1 X116.274 Y119.034 E0.05620
G1 X114.886 Y118.317 E0.04900
G1 X113.377 Y117.371 E0.05583
G1 X112.112 Y116.430 E0.04944
G1 X110.946 Y115.412 E0.04855
G1 X109.694 Y114.128 E0.05621
G1 X108.458 Y112.602 E0.06156
G1 X107.568 Y111.286 E0.04981
G1 X106.607 Y109.557 E0.06202
G1 X105.886 Y107.917 E0.05617
G1 X105.194 Y105.818 E0.06930
G1 X105.070 Y105.010 E0.02565
G1 F8640.000
G1 X105.370 Y103.566 E-0.34058
G1 X105.982 Y101.855 E-0.41942
G1 E-0.04000 F2100.00000
G1 Z0.800 F10800.000
G1 X121.108 Y104.837
G1 Z0.200
G1 E0.80000 F2100.00000
G1 F1200.000
G1 X121.107 Y104.431 E0.01275
G1 X121.139 Y104.078 E0.01112
G1 X121.238 Y103.601 E0.01527
G1 X121.359 Y103.219 E0.01256
G1 X121.477 Y102.939 E0.00953
G1 X121.680 Y102.557 E0.01355
G1 X121.922 Y102.202 E0.01345
G1 X122.210 Y101.858 E0.01407
G1 X122.426 Y101.645 E0.00953
G1 X122.779 Y101.353 E0.01438
G1 X123.034 Y101.178 E0.00969
G1 X123.531 Y100.908 E0.01773
G1 X123.981 Y100.730 E0.01517
G1 X124.273 Y100.644 E0.00954
G1 X124.746 Y100.551 E0.01510
G1 X125.118 Y100.513 E0.01174
G1 X125.606 Y100.510 E0.01530
G1 X125.966 Y100.543 E0.01133
G1 X126.324 Y100.604 E0.01138
G1 X126.819 Y100.739 E0.01610
G1 X127.194 Y100.882 E0.01258
G1 X127.675 Y101.123 E0.01685
G1 X128.047 Y101.375 E0.01410
G1 X128.322 Y101.606 E0.01126
G1 X128.734 Y102.042 E0.01880
G1 X128.980 Y102.367 E0.01277
G1 X129.163 Y102.658 E0.01081
G1 X129.413 Y103.142 E0.01706
G1 X129.611 Y103.731 E0.01949
G1 X129.691 Y104.083 E0.01133
G1 X129.759 Y104.743 E0.02079
G1 X129.750 Y105.107 E0.01141
G1 X129.678 Y105.647 E0.01707
G1 X129.563 Y106.070 E0.01376
G1 X129.438 Y106.413 E0.01144
G1 X129.242 Y106.827 E0.01438
G1 X129.020 Y107.203 E0.01369
G1 X128.819 Y107.483 E0.01080
G1 X128.461 Y107.891 E0.01702
G1 X128.213 Y108.123 E0.01064
G1 X127.839 Y108.413 E0.01484
G1 X127.503 Y108.626 E0.01247
G1 X127.212 Y108.778 E0.01029
G1 X126.762 Y108.960 E0.01524
G1 X126.393 Y109.070 E0.01206
G1 X126.023 Y109.143 E0.01182
G1 X125.516 Y109.192 E0.01597
G1 X124.851 Y109.160 E0.02088
G1 X124.342 Y109.061 E0.01626
G1 X123.973 Y108.948 E0.01208
G1 X123.444 Y108.711 E0.01819
G1 X123.140 Y108.531 E0.01108
G1 X122.867 Y108.334 E0.01054
G1 X122.462 Y107.969 E0.01710
G1 X122.094 Y107.572 E0.01695
G1 X121.906 Y107.328 E0.00967
G1 X121.630 Y106.882 E0.01646
G1 X121.431 Y106.474 E0.01422
G1 X121.332 Y106.197 E0.00925
G1 X121.201 Y105.681 E0.01667
G1 X121.151 Y105.385 E0.00941
G1 X121.113 Y104.897 E0.01534
G1 X121.489 Y104.868 F10800.000
G1 F1200.000
G1 X121.484 Y104.448 E0.01318
G1 X121.513 Y104.133 E0.00989
G1 X121.604 Y103.696 E0.01400
G1 X121.713 Y103.349 E0.01141
G1 X121.818 Y103.101 E0.00845
G1 X122.004 Y102.752 E0.01238
G1 X122.223 Y102.430 E0.01222
G1 X122.487 Y102.114 E0.01292
G1 X122.679 Y101.925 E0.00845
G1 X123.007 Y101.654 E0.01332
G1 X123.232 Y101.500 E0.00856
G1 X123.691 Y101.250 E0.01639
G1 X124.104 Y101.087 E0.01392
G1 X124.363 Y101.011 E0.00847
G1 X124.801 Y100.924 E0.01400
G1 X125.138 Y100.890 E0.01062
G1 X125.590 Y100.887 E0.01416
G1 X125.917 Y100.917 E0.01030
G1 X126.242 Y100.973 E0.01034
G1 X126.702 Y101.098 E0.01494
G1 X127.042 Y101.228 E0.01141
G1 X127.484 Y101.449 E0.01549
G1 X127.820 Y101.676 E0.01272
G1 X128.063 Y101.880 E0.00997
G1 X128.445 Y102.286 E0.01747
G1 X128.669 Y102.581 E0.01162
G1 X128.835 Y102.846 E0.00980
G1 X129.065 Y103.289 E0.01566
G1 X129.248 Y103.833 E0.01799
G1 X129.319 Y104.145 E0.01001
G1 X129.381 Y104.758 E0.01932
G1 X129.374 Y105.077 E0.01003
G1 X129.308 Y105.572 E0.01565
G1 X129.204 Y105.956 E0.01246
G1 X129.090 Y106.267 E0.01040
G1 X128.909 Y106.650 E0.01329
G1 X128.704 Y106.997 E0.01262
G1 X128.523 Y107.248 E0.00971
G1 X128.190 Y107.628 E0.01586
G1 X127.968 Y107.836 E0.00951
G1 X127.622 Y108.104 E0.01373
G1 X127.315 Y108.299 E0.01142
G1 X127.054 Y108.435 E0.00922
G1 X126.637 Y108.604 E0.01410
G1 X126.303 Y108.703 E0.01094
G1 X125.968 Y108.769 E0.01068
G1 X125.507 Y108.814 E0.01453
G1 X124.896 Y108.785 E0.01918
G1 X124.433 Y108.695 E0.01478
G1 X124.106 Y108.594 E0.01073
G1 X123.618 Y108.376 E0.01678
G1 X123.347 Y108.215 E0.00988
G1 X123.104 Y108.040 E0.00937
G1 X122.727 Y107.700 E0.01592
G1 X122.382 Y107.328 E0.01589
G1 X122.216 Y107.113 E0.00852
G1 X121.960 Y106.700 E0.01524
G1 X121.779 Y106.328 E0.01298
G1 X121.693 Y106.086 E0.00804
G1 X121.570 Y105.603 E0.01562
G1 X121.526 Y105.339 E0.00841
G1 X121.494 Y104.928 E0.01293
G1 X121.134 Y104.684 F10800.000
G1 F8640.000
G1 X121.484 Y104.448 E-0.11092
G1 X121.513 Y104.133 E-0.07284
G1 X121.604 Y103.696 E-0.10312
G1 X121.713 Y103.349 E-0.08402
G1 X121.818 Y103.101 E-0.06225
G1 X122.004 Y102.752 E-0.09119
G1 X122.223 Y102.430 E-0.08996
G1 X122.487 Y102.114 E-0.09516
G1 X122.643 Y101.960 E-0.05055
G1 E-0.04000 F2100.00000
G1 Z0.800 F10800.000
G1 X108.704 Y105.000
G1 Z0.200
G1 E0.80000 F2100.00000
G1 F1200.000
G1 X108.984 Y104.080 E0.03015
G1 X109.169 Y103.564 E0.01720
G1 X109.599 Y102.529 E0.03513
G1 X110.118 Y101.485 E0.03655
G1 X110.657 Y100.559 E0.03360
G1 X110.955 Y100.099 E0.01719
G1 X111.641 Y99.151 E0.03670
G1 X112.325 Y98.326 E0.03359
G1 X112.732 Y97.881 E0.01890
G1 X113.120 Y97.487 E0.01734
G1 X113.907 Y96.759 E0.03360
G1 X114.812 Y96.026 E0.03653
G1 X115.766 Y95.357 E0.03654
G1 X116.682 Y94.800 E0.03360
G1 X117.168 Y94.536 E0.01734
G1 X117.707 Y94.267 E0.01890
G1 X118.688 Y93.836 E0.03359
G1 X119.789 Y93.437 E0.03670
G1 X120.313 Y93.276 E0.01720
G1 X121.352 Y93.013 E0.03360
G1 X122.503 Y92.799 E0.03670
G1 X123.046 Y92.727 E0.01719
G1 X124.113 Y92.638 E0.03358
G1 X125.329 Y92.618 E0.03811
G1 X126.399 Y92.672 E0.03359
G1 X126.945 Y92.726 E0.01720
G1 X128.058 Y92.893 E0.03528
G1 X128.644 Y93.011 E0.01875
G1 X129.682 Y93.275 E0.03359
G1 X130.795 Y93.638 E0.03670
G1 X131.307 Y93.834 E0.01719
G1 X132.288 Y94.265 E0.03360
G1 X133.327 Y94.805 E0.03670
G1 X133.799 Y95.082 E0.01719
G1 X134.696 Y95.669 E0.03360
G1 X135.628 Y96.369 E0.03654
G1 X136.509 Y97.132 E0.03653
G1 X137.271 Y97.885 E0.03360
G1 X137.642 Y98.289 E0.01721
G1 X138.359 Y99.151 E0.03514
G1 X139.045 Y100.099 E0.03669
G1 X139.343 Y100.559 E0.01719
G1 X139.882 Y101.485 E0.03360
G1 X140.401 Y102.529 E0.03655
G1 X140.831 Y103.564 E0.03514
G1 X141.016 Y104.080 E0.01719
G1 X141.296 Y105.000 E0.03015
G1 X141.016 Y105.920 E0.03015
G1 X140.831 Y106.436 E0.01718
G1 X140.380 Y107.516 E0.03670
G1 X139.904 Y108.476 E0.03360
G1 X139.322 Y109.474 E0.03624
G1 X138.723 Y110.363 E0.03359
G1 X138.009 Y111.284 E0.03656
G1 X137.298 Y112.086 E0.03359
G1 X136.877 Y112.517 E0.01890
G1 X136.476 Y112.899 E0.01734
G1 X135.666 Y113.600 E0.03360
G1 X134.737 Y114.303 E0.03654
G1 X133.761 Y114.940 E0.03654
G1 X132.827 Y115.466 E0.03360
G1 X132.333 Y115.714 E0.01734
G1 X131.785 Y115.966 E0.01890
G1 X130.791 Y116.364 E0.03359
G1 X129.678 Y116.726 E0.03670
G1 X129.148 Y116.869 E0.01720
G1 X128.101 Y117.099 E0.03360
G1 X126.949 Y117.273 E0.03655
G1 X125.832 Y117.365 E0.03513
G1 X125.284 Y117.384 E0.01720
G1 X124.163 Y117.365 E0.03513
G1 X123.002 Y117.267 E0.03655
G1 X121.942 Y117.107 E0.03360
G1 X121.404 Y116.999 E0.01721
G1 X120.318 Y116.725 E0.03514
G1 X119.205 Y116.362 E0.03669
G1 X118.693 Y116.166 E0.01719
G1 X117.712 Y115.735 E0.03360
G1 X116.673 Y115.195 E0.03670
G1 X116.201 Y114.918 E0.01719
G1 X115.304 Y114.331 E0.03360
G1 X114.372 Y113.631 E0.03654
G1 X113.491 Y112.868 E0.03653
G1 X112.729 Y112.115 E0.03360
G1 X112.358 Y111.711 E0.01721
G1 X111.641 Y110.849 E0.03514
G1 X110.955 Y109.901 E0.03669
G1 X110.657 Y109.441 E0.01719
G1 X110.118 Y108.515 E0.03360
G1 X109.599 Y107.471 E0.03655
G1 X109.169 Y106.436 E0.03514
G1 X108.984 Y105.920 E0.01719
G1 X108.722 Y105.057 E0.02827
G1 X108.310 Y105.000 F10800.000
G1 F1200.000
G1 X108.626 Y103.961 E0.03403
G1 X108.817 Y103.428 E0.01778
G1 X109.256 Y102.372 E0.03583
G1 X109.786 Y101.306 E0.03734
G1 X110.336 Y100.361 E0.03427
G1 X110.644 Y99.886 E0.01778
G1 X111.343 Y98.919 E0.03739
G1 X112.041 Y98.078 E0.03427
G1 X112.459 Y97.622 E0.01940
G1 X112.857 Y97.216 E0.01783
G1 X113.660 Y96.474 E0.03427
G1 X114.585 Y95.724 E0.03733
G1 X115.560 Y95.041 E0.03734
G1 X116.494 Y94.473 E0.03427
G1 X116.994 Y94.201 E0.01783
G1 X117.547 Y93.925 E0.01940
G1 X118.548 Y93.486 E0.03427
G1 X119.669 Y93.079 E0.03739
G1 X120.211 Y92.913 E0.01778
G1 X121.271 Y92.644 E0.03427
G1 X122.443 Y92.427 E0.03739
G1 X123.005 Y92.352 E0.01778
G1 X124.095 Y92.261 E0.03427
G1 X125.335 Y92.241 E0.03890
G1 X126.427 Y92.296 E0.03427
G1 X126.991 Y92.352 E0.01779
G1 X128.123 Y92.521 E0.03588
G1 X128.728 Y92.644 E0.01934
G1 X129.787 Y92.913 E0.03427
G1 X130.921 Y93.282 E0.03739
G1 X131.450 Y93.485 E0.01778
G1 X132.451 Y93.925 E0.03427
G1 X133.509 Y94.475 E0.03739
G1 X133.998 Y94.762 E0.01778
G1 X134.913 Y95.360 E0.03427
G1 X135.865 Y96.075 E0.03734
G1 X136.765 Y96.855 E0.03733
G1 X137.543 Y97.623 E0.03427
G1 X137.926 Y98.041 E0.01779
G1 X138.657 Y98.920 E0.03583
G1 X139.356 Y99.886 E0.03739
G1 X139.664 Y100.361 E0.01778
G1 X140.214 Y101.306 E0.03427
G1 X140.744 Y102.372 E0.03734
G1 X141.183 Y103.428 E0.03583
G1 X141.374 Y103.961 E0.01778
G1 X141.690 Y105.000 E0.03403
G1 X141.374 Y106.039 E0.03403
G1 X141.183 Y106.572 E0.01778
G1 X140.723 Y107.673 E0.03739
G1 X140.237 Y108.652 E0.03427
G1 X139.640 Y109.678 E0.03723
G1 X139.029 Y110.584 E0.03427
G1 X138.299 Y111.525 E0.03734
G1 X137.574 Y112.343 E0.03427
G1 X137.142 Y112.785 E0.01940
G1 X136.730 Y113.178 E0.01783
G1 X135.903 Y113.893 E0.03427
G1 X134.954 Y114.612 E0.03733
G1 X133.957 Y115.263 E0.03733
G1 X133.005 Y115.799 E0.03427
G1 X132.496 Y116.054 E0.01783
G1 X131.934 Y116.312 E0.01940
G1 X130.919 Y116.719 E0.03427
G1 X129.785 Y117.088 E0.03739
G1 X129.238 Y117.236 E0.01778
G1 X128.170 Y117.470 E0.03427
G1 X126.993 Y117.648 E0.03734
G1 X125.854 Y117.742 E0.03583
G1 X125.287 Y117.761 E0.01779
G1 X124.144 Y117.742 E0.03583
G1 X122.958 Y117.642 E0.03734
G1 X121.877 Y117.479 E0.03427
G1 X121.321 Y117.367 E0.01779
G1 X120.213 Y117.087 E0.03583
G1 X119.079 Y116.718 E0.03739
G1 X118.550 Y116.515 E0.01778
G1 X117.549 Y116.075 E0.03427
G1 X116.491 Y115.525 E0.03739
G1 X116.002 Y115.238 E0.01778
G1 X115.087 Y114.640 E0.03427
G1 X114.135 Y113.925 E0.03734
G1 X113.235 Y113.145 E0.03733
G1 X112.457 Y112.377 E0.03427
G1 X112.074 Y111.959 E0.01779
G1 X111.343 Y111.080 E0.03583
G1 X110.644 Y110.114 E0.03739
G1 X110.336 Y109.639 E0.01778
G1 X109.786 Y108.694 E0.03427
G1 X109.256 Y107.628 E0.03734
G1 X108.817 Y106.572 E0.03583
G1 X108.626 Y106.039 E0.01778
G1 X108.328 Y105.057 E0.03215
G1 X108.674 Y104.833 F10800.000
G1 F8640.000
G1 X108.626 Y103.961 E-0.26225
G1 X108.817 Y103.428 E-0.13096
G1 X109.256 Y102.372 E-0.26383
G1 X109.454 Y101.973 E-0.10295
G1 E-0.04000 F2100.00000
G1 Z0.800 F10800.000
G1 X114.903 Y113.889
G1 Z0.200
G1 E0.80000 F2100.00000
G1 F1200.000
G1 X112.925 Y111.910 E0.08799
G1 X112.571 Y111.525 E0.01646
