; generated by PrusaSlicer 2.2.0+win64 on 2021-01-04 at 15:37:37 UTC

; 

; external perimeters extrusion width = 0.45mm
; perimeters extrusion width = 0.45mm
; infill extrusion width = 0.45mm
; solid infill extrusion width = 0.45mm
; top infill extrusion width = 0.40mm
; first layer extrusion width = 0.42mm

M73 P0 R41
M73 Q0 S41
M201 X1000 Y1000 Z200 E5000 ; sets maximum accelerations, mm/sec^2
M203 X200 Y200 Z12 E120 ; sets maximum feedrates, mm/sec
M204 P1250 R1250 T1250 ; sets acceleration (P, T) and retract acceleration (R), mm/sec^2
M205 X8.00 Y8.00 Z0.40 E4.50 ; sets the jerk limits, mm/sec
M205 S0 T0 ; sets the minimum extruding and travel feed rate, mm/sec
M107
M862.3 P "MK3SMMU2S" ; printer model check
M862.1 P0.4 ; nozzle diameter check
M115 U3.9.1 ; tell printer latest fw version
G90 ; use absolute coordinates
M83 ; extruder relative mode
M104 S215 ; set extruder temp
M140 S60 ; set bed temp
Tx
M190 S60 ; wait for bed temp
M109 S215 ; wait for extruder temp
G28 W ; home all without mesh bed level
G80 ; mesh bed leveling

;go outside print area
G1 Y-3.0 F1000.0
G1 Z0.4 F1000.0
; select extruder
Tc
; purge line
G1 X55.0 F2000.0
G1 Z0.3 F1000.0
G92 E0.0
G1 X240.0 E25.0 F2200.0
M73 Q0 S41
M73 P0 R41
G1 Y-2.0 F1000.0
G1 X55.0 E25 F1400.0
G1 Z0.20 F1000.0
G1 X5.0 E4.0 F1000.0

M221 S95
G92 E0.0

; Don't change E values below. Excessive value can damage the printer.

M907 E538 ; set extruder motor current
G21 ; set units to millimeters
G90 ; use absolute coordinates
M83 ; use relative distances for extrusion
M900 K0.06 ; Filament gcode LA 1.5
M900 K30 ; Filament gcode LA 1.0
;BEFORE_LAYER_CHANGE
G92 E0.0
;0.2


G1 E-0.80000 F2100.00000
G1 Z0.600 F10800.000
;AFTER_LAYER_CHANGE
;0.2
G1 X117.859 Y94.453
G1 Z0.200
G1 E0.80000 F2100.00000
M204 S1000
G1 F1200.000
G1 X118.771 Y93.870 E0.03394
G1 X119.958 Y93.296 E0.04135
G1 X120.864 Y93.143 E0.02879
G1 X129.878 Y93.385 E0.28273
G1 X130.697 Y93.596 E0.02651
G1 X131.807 Y94.215 E0.03987
G1 X132.646 Y94.809 E0.03223
G1 X133.158 Y95.419 E0.02498
G1 X137.552 Y103.545 E0.28965
G1 X137.731 Y104.297 E0.02422
G1 X137.742 Y105.556 E0.03949
G1 X137.641 Y106.562 E0.03171
G1 X137.350 Y107.321 E0.02549
G1 X132.561 Y115.111 E0.28670
G1 X131.873 Y115.743 E0.02930
G1 X130.149 Y116.665 E0.06129
G1 X129.128 Y116.857 E0.03258
G1 X120.232 Y116.623 E0.27901
G1 X119.433 Y116.456 E0.02562
G1 X118.529 Y115.990 E0.03188
G1 X117.431 Y115.258 E0.04136
G1 X116.864 Y114.615 E0.02689
G1 X112.448 Y106.455 E0.29093
G1 X112.278 Y105.785 E0.02167
G1 X112.247 Y104.842 E0.02959
G1 X112.321 Y103.647 E0.03752
G1 X112.514 Y102.954 E0.02256
G1 X117.291 Y95.101 E0.28822
G1 X117.820 Y94.499 E0.02513
G1 X118.101 Y94.747 F10800.000
G1 F1200.000
G1 X118.962 Y94.196 E0.03205
G1 X120.065 Y93.658 E0.03848
G1 X120.865 Y93.520 E0.02543
G1 X129.831 Y93.760 E0.28125
G1 X130.559 Y93.947 E0.02355
G1 X131.605 Y94.533 E0.03761
G1 X132.387 Y95.083 E0.02996
G1 X132.841 Y95.623 E0.02213
G1 X137.195 Y103.669 E0.28684
G1 X137.357 Y104.341 E0.02166
G1 X137.365 Y105.540 E0.03762
G1 X137.276 Y106.468 E0.02924
G1 X137.021 Y107.139 E0.02249
G1 X132.269 Y114.872 E0.28458
G1 X131.661 Y115.431 E0.02590
G1 X130.024 Y116.309 E0.05824
G1 X129.124 Y116.480 E0.02872
G1 X120.256 Y116.247 E0.27814
G1 X119.547 Y116.096 E0.02272
G1 X118.714 Y115.662 E0.02947
G1 X117.683 Y114.977 E0.03881
G1 X117.177 Y114.406 E0.02390
G1 X112.805 Y106.331 E0.28792
G1 X112.651 Y105.731 E0.01941
G1 X112.624 Y104.834 E0.02814
G1 X112.693 Y103.704 E0.03551
G1 X112.869 Y103.083 E0.02024
G1 X117.607 Y95.307 E0.28552
G1 X118.062 Y94.792 E0.02153
G1 F8640.000
G1 X118.962 Y94.196 E-0.24936
G1 X120.065 Y93.658 E-0.28336
G1 X120.865 Y93.520 E-0.18729
G1 X121.038 Y93.525 E-0.03998
G1 E-0.04000 F2100.00000
G1 Z0.800 F10800.000
G1 X126.789 Y107.787
G1 Z0.200
G1 E0.80000 F2100.00000
G1 F1200.000
G1 X123.211 Y107.787 E0.11219
G1 X122.668 Y107.319 E0.02247
G1 X122.353 Y106.952 E0.01518
G1 X122.096 Y106.543 E0.01514
G1 X121.905 Y106.110 E0.01483
G1 X121.823 Y105.847 E0.00865
G1 X121.735 Y105.396 E0.01440
G1 X121.713 Y104.924 E0.01481
G1 X121.731 Y104.649 E0.00865
G1 X121.811 Y104.196 E0.01440
G1 X121.960 Y103.748 E0.01481
G1 X122.076 Y103.498 E0.00865
G1 X122.308 Y103.113 E0.01409
G1 X122.475 Y102.894 E0.00863
G1 X122.785 Y102.570 E0.01409
G1 X122.997 Y102.393 E0.00863
G1 X123.373 Y102.143 E0.01416
G1 X123.616 Y102.018 E0.00857
G1 X124.046 Y101.853 E0.01446
G1 X124.507 Y101.749 E0.01482
G1 X124.779 Y101.720 E0.00858
G1 X125.229 Y101.720 E0.01411
G1 X125.491 Y101.749 E0.00824
G1 X125.951 Y101.852 E0.01480
G1 X126.402 Y102.025 E0.01514
G1 X126.823 Y102.262 E0.01514
G1 X127.205 Y102.559 E0.01517
G1 X127.545 Y102.917 E0.01549
G1 X127.811 Y103.294 E0.01444
G1 X127.938 Y103.523 E0.00824
G1 X128.116 Y103.949 E0.01446
G1 X128.190 Y104.202 E0.00825
G1 X128.272 Y104.667 E0.01480
G1 X128.285 Y105.149 E0.01514
G1 X128.228 Y105.629 E0.01514
G1 X128.101 Y106.095 E0.01514
G1 X127.908 Y106.537 E0.01514
G1 X127.651 Y106.946 E0.01514
G1 X127.337 Y107.315 E0.01519
G1 X126.834 Y107.748 E0.02079
G1 X126.649 Y107.410 F10800.000
G1 F1200.000
G1 X123.351 Y107.410 E0.10340
G1 X122.936 Y107.052 E0.01719
G1 X122.657 Y106.727 E0.01342
G1 X122.430 Y106.365 E0.01340
G1 X122.259 Y105.978 E0.01329
G1 X122.189 Y105.754 E0.00733
G1 X122.111 Y105.351 E0.01290
G1 X122.091 Y104.927 E0.01328
G1 X122.106 Y104.694 E0.00733
G1 X122.178 Y104.289 E0.01290
G1 X122.311 Y103.887 E0.01328
G1 X122.409 Y103.675 E0.00733
G1 X122.620 Y103.326 E0.01278
G1 X122.762 Y103.140 E0.00732
G1 X123.043 Y102.845 E0.01278
G1 X123.223 Y102.696 E0.00732
G1 X123.564 Y102.469 E0.01285
G1 X123.770 Y102.363 E0.00726
G1 X124.156 Y102.215 E0.01295
G1 X124.569 Y102.122 E0.01329
G1 X124.800 Y102.097 E0.00727
G1 X125.209 Y102.097 E0.01283
G1 X125.429 Y102.121 E0.00694
G1 X125.842 Y102.214 E0.01328
G1 X126.241 Y102.367 E0.01340
G1 X126.613 Y102.577 E0.01340
G1 X126.951 Y102.840 E0.01341
G1 X127.253 Y103.157 E0.01374
G1 X127.491 Y103.494 E0.01293
G1 X127.598 Y103.688 E0.00694
G1 X127.760 Y104.075 E0.01316
G1 X127.822 Y104.288 E0.00695
G1 X127.896 Y104.705 E0.01328
G1 X127.908 Y105.132 E0.01340
G1 X127.857 Y105.556 E0.01340
G1 X127.745 Y105.969 E0.01340
G1 X127.573 Y106.360 E0.01340
G1 X127.346 Y106.723 E0.01340
G1 X127.068 Y107.048 E0.01342
G1 X126.694 Y107.371 E0.01549
G1 X126.544 Y107.796 F10800.000
G1 F8640.000
G1 X123.403 Y107.409 E-0.76000
G1 E-0.04000 F2100.00000
G1 Z0.800 F10800.000
G1 X129.666 Y112.941
G1 Z0.200
G1 E0.80000 F2100.00000
G1 F1200.000
G1 X129.292 Y113.147 E0.01338
G1 X128.987 Y113.018 E0.01041
G1 X128.436 Y112.707 E0.01984
G1 X127.976 Y112.362 E0.01801
G1 X127.786 Y112.181 E0.00824
G1 X127.617 Y111.988 E0.00805
G1 X127.453 Y111.747 E0.00915
G1 X127.393 Y111.616 E0.00451
G1 X126.929 Y109.653 E0.06326
G1 X126.846 Y109.407 E0.00812
G1 X126.637 Y109.074 E0.01233
G1 X126.359 Y108.816 E0.01189
G1 X125.996 Y108.625 E0.01286
G1 X125.620 Y108.543 E0.01208
G1 X124.962 Y108.567 E0.02064
G1 X124.257 Y108.523 E0.02215
G1 X123.876 Y108.599 E0.01219
G1 X123.640 Y108.703 E0.00806
G1 X123.406 Y108.858 E0.00881
G1 X123.137 Y109.144 E0.01232
G1 X122.960 Y109.476 E0.01180
G1 X122.389 Y111.567 E0.06795
G1 X122.294 Y111.731 E0.00596
G1 X122.084 Y111.993 E0.01053
G1 X121.758 Y112.295 E0.01394
G1 X121.501 Y112.483 E0.00999
G1 X121.085 Y112.731 E0.01516
G1 X120.663 Y112.933 E0.01467
G1 X120.456 Y113.011 E0.00694
G1 X120.082 Y112.786 E0.01369
G1 X120.041 Y112.295 E0.01545
G1 X120.053 Y111.682 E0.01921
G1 X120.110 Y111.270 E0.01303
G1 X120.217 Y110.869 E0.01302
G1 X120.338 Y110.581 E0.00981
G1 X120.441 Y110.411 E0.00622
G1 X122.023 Y108.908 E0.06841
G1 X122.240 Y108.578 E0.01240
G1 X122.361 Y108.191 E0.01270
G1 X122.376 Y107.799 E0.01230
G1 X122.293 Y107.435 E0.01171
G1 X122.183 Y107.204 E0.00803
G1 X121.891 Y106.748 E0.01698
G1 X121.580 Y106.121 E0.02194
G1 X121.333 Y105.834 E0.01188
G1 X121.006 Y105.611 E0.01239
G1 X120.718 Y105.503 E0.00966
G1 X120.342 Y105.451 E0.01189
G1 X119.956 Y105.506 E0.01224
G1 X118.004 Y106.023 E0.06330
G1 X117.619 Y105.998 E0.01209
G1 X117.180 Y105.883 E0.01424
G1 X116.634 Y105.641 E0.01872
G1 X116.071 Y105.290 E0.02078
G1 X115.790 Y105.066 E0.01127
G1 X115.788 Y104.901 E0.00516
G1 X115.798 Y104.638 E0.00826
G1 X116.337 Y104.270 E0.02046
G1 X116.735 Y104.059 E0.01414
G1 X117.131 Y103.898 E0.01339
G1 X117.388 Y103.822 E0.00839
G1 X117.654 Y103.770 E0.00852
G1 X118.030 Y103.756 E0.01178
G1 X120.021 Y104.348 E0.06513
G1 X120.381 Y104.403 E0.01143
G1 X120.759 Y104.359 E0.01194
G1 X121.132 Y104.211 E0.01257
G1 X121.458 Y103.963 E0.01283
G1 X121.677 Y103.674 E0.01139
G1 X121.930 Y103.184 E0.01729
G1 X122.256 Y102.705 E0.01815
G1 X122.371 Y102.476 E0.00804
G1 X122.441 Y102.240 E0.00772
G1 X122.475 Y101.959 E0.00888
G1 X122.429 Y101.556 E0.01272
G1 X122.288 Y101.209 E0.01176
G1 X122.135 Y100.987 E0.00844
G1 X120.595 Y99.421 E0.06887
G1 X120.499 Y99.240 E0.00641
G1 X120.403 Y98.982 E0.00864
G1 X120.304 Y98.544 E0.01406
G1 X120.270 Y98.233 E0.00983
G1 X120.271 Y97.572 E0.02072
G1 X120.334 Y97.059 E0.01619
G1 X120.479 Y96.973 E0.00529
G1 X120.709 Y96.852 E0.00814
G1 X121.152 Y97.052 E0.01524
G1 X121.691 Y97.378 E0.01974
G1 X121.915 Y97.545 E0.00875
G1 X122.118 Y97.723 E0.00849
G1 X122.387 Y98.018 E0.01250
G1 X122.547 Y98.253 E0.00893
G1 X122.607 Y98.384 E0.00451
G1 X123.074 Y100.358 E0.06361
G1 X123.195 Y100.677 E0.01069
G1 X123.432 Y101.004 E0.01267
G1 X123.749 Y101.256 E0.01269
G1 X124.127 Y101.414 E0.01283
G1 X124.487 Y101.459 E0.01139
G1 X125.038 Y101.433 E0.01729
G1 X125.612 Y101.476 E0.01807
G1 X125.858 Y101.464 E0.00770
G1 X126.236 Y101.361 E0.01227
G1 X126.585 Y101.152 E0.01276
G1 X126.863 Y100.856 E0.01274
G1 X127.040 Y100.524 E0.01180
G1 X127.611 Y98.433 E0.06795
G1 X127.706 Y98.269 E0.00596
G1 X127.916 Y98.007 E0.01053
G1 X128.242 Y97.705 E0.01394
G1 X128.499 Y97.517 E0.00999
G1 X128.915 Y97.269 E0.01516
G1 X129.337 Y97.067 E0.01467
G1 X129.544 Y96.989 E0.00694
G1 X129.918 Y97.214 E0.01369
G1 X129.959 Y97.705 E0.01545
G1 X129.947 Y98.318 E0.01921
G1 X129.890 Y98.730 E0.01303
G1 X129.783 Y99.131 E0.01302
G1 X129.662 Y99.419 E0.00981
G1 X129.559 Y99.589 E0.00622
G1 X127.977 Y101.092 E0.06841
G1 X127.760 Y101.422 E0.01240
G1 X127.639 Y101.809 E0.01270
G1 X127.624 Y102.201 E0.01230
G1 X127.707 Y102.565 E0.01171
G1 X127.817 Y102.796 E0.00803
G1 X128.109 Y103.252 E0.01698
G1 X128.420 Y103.879 E0.02194
G1 X128.667 Y104.166 E0.01188
G1 X128.994 Y104.389 E0.01239
G1 X129.282 Y104.497 E0.00966
G1 X129.658 Y104.549 E0.01189
G1 X130.044 Y104.494 E0.01224
G1 X131.996 Y103.977 E0.06330
G1 X132.381 Y104.002 E0.01209
G1 X132.820 Y104.117 E0.01424
G1 X133.366 Y104.359 E0.01872
G1 X133.929 Y104.710 E0.02078
G1 X134.210 Y104.934 E0.01127
G1 X134.212 Y105.099 E0.00516
G1 X134.202 Y105.362 E0.00826
G1 X133.814 Y105.637 E0.01492
G1 X133.260 Y105.943 E0.01983
G1 X132.869 Y106.102 E0.01322
G1 X132.608 Y106.179 E0.00853
G1 X132.220 Y106.243 E0.01233
G1 X131.942 Y106.240 E0.00872
G1 X129.887 Y105.628 E0.06724
G1 X129.605 Y105.599 E0.00889
G1 X129.238 Y105.642 E0.01159
G1 X128.859 Y105.796 E0.01282
G1 X128.637 Y105.954 E0.00855
G1 X128.455 Y106.138 E0.00810
G1 X128.317 Y106.338 E0.00762
G1 X128.070 Y106.816 E0.01688
G1 X127.737 Y107.306 E0.01858
G1 X127.582 Y107.653 E0.01189
G1 X127.524 Y108.028 E0.01190
G1 X127.564 Y108.417 E0.01228
G1 X127.717 Y108.806 E0.01309
G1 X127.960 Y109.115 E0.01231
G1 X129.409 Y110.583 E0.06468
G1 X129.577 Y110.955 E0.01279
G1 X129.696 Y111.448 E0.01592
G1 X129.731 Y111.772 E0.01021
G1 X129.738 Y112.256 E0.01516
G1 X129.675 Y112.881 E0.01972
G1 X130.010 Y113.174 F10800.000
G1 F1200.000
G1 X129.310 Y113.564 E0.02513
G1 X128.820 Y113.356 E0.01667
G1 X128.229 Y113.023 E0.02127
G1 X127.732 Y112.651 E0.01947
G1 X127.513 Y112.442 E0.00949
G1 X127.318 Y112.219 E0.00931
G1 X127.123 Y111.932 E0.01085
G1 X127.035 Y111.739 E0.00667
G1 X126.566 Y109.756 E0.06388
G1 X126.503 Y109.570 E0.00618
G1 X126.344 Y109.316 E0.00938
G1 X126.140 Y109.126 E0.00876
G1 X125.867 Y108.982 E0.00967
G1 X125.586 Y108.922 E0.00899
G1 X124.957 Y108.944 E0.01974
G1 X124.283 Y108.902 E0.02118
G1 X123.990 Y108.961 E0.00936
G1 X123.822 Y109.035 E0.00577
G1 X123.651 Y109.148 E0.00644
G1 X123.446 Y109.365 E0.00935
G1 X123.313 Y109.616 E0.00889
G1 X122.740 Y111.713 E0.06816
G1 X122.607 Y111.945 E0.00840
G1 X122.360 Y112.251 E0.01231
G1 X121.998 Y112.586 E0.01549
G1 X121.709 Y112.798 E0.01122
G1 X121.264 Y113.064 E0.01626
G1 X120.811 Y113.280 E0.01571
G1 X120.426 Y113.426 E0.01293
G1 X119.735 Y113.012 E0.02525
G1 X119.663 Y112.307 E0.02223
G1 X119.676 Y111.653 E0.02052
G1 X119.739 Y111.196 E0.01446
G1 X119.859 Y110.747 E0.01457
G1 X120.002 Y110.409 E0.01149
G1 X120.145 Y110.173 E0.00867
G1 X121.732 Y108.665 E0.06863
G1 X121.896 Y108.415 E0.00939
G1 X121.986 Y108.126 E0.00947
G1 X121.997 Y107.835 E0.00915
G1 X121.934 Y107.559 E0.00886
G1 X121.852 Y107.387 E0.00598
G1 X121.562 Y106.934 E0.01687
G1 X121.263 Y106.331 E0.02111
G1 X121.079 Y106.117 E0.00883
G1 X120.831 Y105.948 E0.00942
G1 X120.624 Y105.870 E0.00693
G1 X120.343 Y105.832 E0.00890
G1 X120.031 Y105.876 E0.00989
G1 X118.055 Y106.400 E0.06408
G1 X117.826 Y106.402 E0.00719
G1 X117.549 Y106.369 E0.00875
G1 X117.063 Y106.242 E0.01574
G1 X116.776 Y106.130 E0.00965
G1 X116.450 Y105.971 E0.01137
G1 X115.853 Y105.598 E0.02208
G1 X115.416 Y105.250 E0.01753
G1 X115.411 Y104.897 E0.01107
G1 X115.428 Y104.448 E0.01407
G1 X115.703 Y104.234 E0.01093
G1 X116.145 Y103.945 E0.01655
G1 X116.575 Y103.717 E0.01528
G1 X117.006 Y103.541 E0.01459
G1 X117.298 Y103.455 E0.00954
G1 X117.602 Y103.396 E0.00972
G1 X117.876 Y103.373 E0.00859
G1 X118.091 Y103.381 E0.00676
G1 X120.103 Y103.979 E0.06581
G1 X120.387 Y104.022 E0.00902
G1 X120.666 Y103.990 E0.00880
G1 X120.945 Y103.880 E0.00939
G1 X121.188 Y103.694 E0.00959
G1 X121.357 Y103.472 E0.00876
G1 X121.606 Y102.991 E0.01698
G1 X121.930 Y102.514 E0.01808
G1 X122.019 Y102.336 E0.00623
G1 X122.071 Y102.163 E0.00567
G1 X122.096 Y101.958 E0.00648
G1 X122.060 Y101.650 E0.00971
G1 X121.954 Y101.389 E0.00885
G1 X121.843 Y101.228 E0.00612
G1 X120.288 Y99.646 E0.06957
G1 X120.154 Y99.395 E0.00891
G1 X120.041 Y99.090 E0.01021
G1 X119.931 Y98.607 E0.01553
G1 X119.892 Y98.253 E0.01117
G1 X119.894 Y97.554 E0.02191
G1 X119.990 Y96.826 E0.02303
G1 X120.696 Y96.433 E0.02532
G1 X121.328 Y96.718 E0.02173
G1 X121.902 Y97.064 E0.02103
G1 X122.383 Y97.454 E0.01939
G1 X122.683 Y97.784 E0.01400
G1 X122.877 Y98.068 E0.01077
G1 X122.965 Y98.261 E0.00667
G1 X123.435 Y100.247 E0.06400
G1 X123.530 Y100.496 E0.00834
G1 X123.707 Y100.741 E0.00948
G1 X123.943 Y100.928 E0.00944
G1 X124.225 Y101.046 E0.00959
G1 X124.502 Y101.081 E0.00876
G1 X125.043 Y101.056 E0.01698
G1 X125.617 Y101.098 E0.01805
G1 X125.799 Y101.089 E0.00570
G1 X126.086 Y101.011 E0.00935
G1 X126.346 Y100.855 E0.00949
G1 X126.554 Y100.635 E0.00950
G1 X126.687 Y100.384 E0.00889
G1 X127.260 Y98.287 E0.06816
G1 X127.393 Y98.055 E0.00840
G1 X127.640 Y97.749 E0.01231
G1 X128.002 Y97.414 E0.01549
G1 X128.291 Y97.202 E0.01122
G1 X128.736 Y96.936 E0.01626
G1 X129.189 Y96.720 E0.01571
G1 X129.574 Y96.574 E0.01293
G1 X130.265 Y96.988 E0.02525
G1 X130.337 Y97.693 E0.02223
G1 X130.324 Y98.347 E0.02052
G1 X130.261 Y98.804 E0.01446
G1 X130.141 Y99.253 E0.01457
G1 X129.998 Y99.591 E0.01149
G1 X129.855 Y99.827 E0.00867
G1 X128.268 Y101.335 E0.06863
G1 X128.104 Y101.585 E0.00939
G1 X128.014 Y101.874 E0.00947
G1 X128.003 Y102.165 E0.00915
G1 X128.066 Y102.441 E0.00886
G1 X128.148 Y102.613 E0.00598
G1 X128.438 Y103.066 E0.01687
G1 X128.737 Y103.669 E0.02111
G1 X128.921 Y103.883 E0.00883
G1 X129.169 Y104.052 E0.00942
G1 X129.376 Y104.130 E0.00693
G1 X129.657 Y104.168 E0.00890
G1 X129.969 Y104.124 E0.00989
G1 X131.945 Y103.600 E0.06408
G1 X132.174 Y103.598 E0.00719
G1 X132.451 Y103.631 E0.00875
G1 X132.937 Y103.758 E0.01574
G1 X133.224 Y103.870 E0.00965
G1 X133.550 Y104.029 E0.01137
G1 X134.147 Y104.402 E0.02208
G1 X134.584 Y104.750 E0.01753
G1 X134.589 Y105.103 E0.01107
G1 X134.572 Y105.552 E0.01407
G1 X134.295 Y105.767 E0.01098
G1 X134.011 Y105.959 E0.01076
G1 X133.423 Y106.284 E0.02107
G1 X132.994 Y106.459 E0.01452
G1 X132.693 Y106.547 E0.00985
