; generated by PrusaSlicer 2.3.0+win64 on 2021-03-08 at 19:46:49 UTC

; 

; external perimeters extrusion width = 0.45mm
; perimeters extrusion width = 0.45mm
; infill extrusion width = 0.45mm
; solid infill extrusion width = 0.45mm
; top infill extrusion width = 0.40mm
; support material extrusion width = 0.35mm
; first layer extrusion width = 0.42mm

M73 P0 R181
M73 Q0 S184
M201 X1000 Y1000 Z200 E5000 ; sets maximum accelerations, mm/sec^2
M203 X200 Y200 Z12 E120 ; sets maximum feedrates, mm/sec
M204 P1250 R1250 T1250 ; sets acceleration (P, T) and retract acceleration (R), mm/sec^2
M205 X8.00 Y8.00 Z0.40 E4.50 ; sets the jerk limits, mm/sec
M205 S0 T0 ; sets the minimum extruding and travel feed rate, mm/sec
M107
;TYPE:Custom
M862.3 P "MK3S" ; printer model check
M862.1 P0.4 ; nozzle diameter check
M115 U3.9.0 ; tell printer latest fw version
G90 ; use absolute coordinates
M83 ; extruder relative mode
M104 S230 ; set extruder temp
M140 S85 ; set bed temp
M190 S85 ; wait for bed temp
M109 S230 ; wait for extruder temp
G28 W ; home all without mesh bed level
G80 ; mesh bed leveling
G1 Y-3.0 F1000.0 ; go outside print area
G92 E0.0
G1 X60.0 E9.0 F1000.0 ; intro line
G1 X100.0 E12.5 F1000.0 ; intro line
G92 E0.0
M221 S95

; Don't change E values below. Excessive value can damage the printer.

M907 E538 ; set extruder motor current
G21 ; set units to millimeters
G90 ; use absolute coordinates
M83 ; use relative distances for extrusion
M900 K0.08 ; Filament gcode LA 1.5
M900 K45 ; Filament gcode LA 1.0
;LAYER_CHANGE
;Z:0.2
;HEIGHT:0.2
;BEFORE_LAYER_CHANGE
G92 E0.0
;0.2


G1 E-1.40000 F2100.000
G1 Z0.200 F10800.000
;AFTER_LAYER_CHANGE
;0.2
G1 Z0.400
G1 X35.099 Y25.623
G1 Z0.200
G1 E1.40000 F2100.000
M204 S1000
;TYPE:Skirt
;WIDTH:0.42
G1 F1200.000
G1 X35.872 Y24.730 E0.03704
G1 X36.537 Y24.152 E0.02763
G1 X37.223 Y23.687 E0.02596
G1 X38.218 Y23.181 E0.03502
M73 Q0 S183
G1 X39.273 Y22.839 E0.03477
G1 X40.087 Y22.684 E0.02596
G1 X41.004 Y22.623 E0.02883
G1 X208.970 Y22.623 E5.26646
G1 X209.911 Y22.684 E0.02956
G1 X210.724 Y22.839 E0.02596
G1 X211.786 Y23.183 E0.03501
G1 X212.785 Y23.692 E0.03513
G1 X213.473 Y24.159 E0.02608
G1 X214.175 Y24.776 E0.02930
G1 X214.908 Y25.633 E0.03537
G1 X215.363 Y26.325 E0.02596
G1 X215.776 Y27.163 E0.02930
G1 X216.125 Y28.229 E0.03514
G1 X216.281 Y29.045 E0.02607
G1 X216.342 Y29.924 E0.02763
G1 X216.343 Y180.034 E4.70659
G1 X216.282 Y180.948 E0.02873
G1 X216.126 Y181.765 E0.02608
G1 X215.774 Y182.841 E0.03549
G1 X215.362 Y183.676 E0.02919
G1 X214.901 Y184.377 E0.02632
G1 X214.127 Y185.270 E0.03704
G1 X213.463 Y185.848 E0.02763
G1 X212.777 Y186.313 E0.02596
G1 X211.782 Y186.819 E0.03502
G1 X210.727 Y187.161 E0.03477
G1 X209.913 Y187.316 E0.02596
G1 X208.996 Y187.377 E0.02882
G1 X41.034 Y187.377 E5.26634
G1 X40.089 Y187.316 E0.02968
G1 X39.272 Y187.160 E0.02608
G1 X38.199 Y186.811 E0.03537
G1 X37.361 Y186.398 E0.02930
G1 X36.657 Y185.935 E0.02644
G1 X35.764 Y185.161 E0.03703
G1 X35.185 Y184.496 E0.02763
G1 X34.721 Y183.811 E0.02596
G1 X34.215 Y182.816 E0.03501
G1 X33.873 Y181.760 E0.03478
G1 X33.718 Y180.947 E0.02596
G1 X33.657 Y180.034 E0.02871
G1 X33.657 Y30.000 E4.70420
G1 X33.717 Y29.055 E0.02968
G1 X33.873 Y28.238 E0.02608
G1 X34.223 Y27.166 E0.03537
G1 X34.636 Y26.327 E0.02931
G1 X35.066 Y25.673 E0.02455
;WIPE_START
G1 F8640.000
G1 X35.872 Y24.730 E-0.28648
G1 X36.537 Y24.152 E-0.20350
G1 X37.223 Y23.687 E-0.19118
G1 X38.218 Y23.181 E-0.25787
G1 X39.273 Y22.839 E-0.25607
G1 X39.847 Y22.730 E-0.13491
;WIPE_END
G1 E-0.07000 F2100.000
G1 Z0.400 F10800.000
G1 X85.818 Y129.972
G1 Z0.200
G1 E1.40000 F2100.000
;TYPE:Perimeter
G1 F1200.000
G1 X86.535 Y129.728 E0.02374
G1 X87.278 Y129.581 E0.02374
G1 X88.008 Y129.533 E0.02293
G1 X104.787 Y129.533 E0.52608
G1 X104.787 Y129.424 E0.00343
G1 X138.708 Y128.531 E1.06394
M73 P0 R180
G1 X139.451 Y128.561 E0.02332
G1 X140.209 Y128.694 E0.02414
G1 X140.943 Y128.926 E0.02414
G1 X141.640 Y129.253 E0.02414
G1 X142.287 Y129.670 E0.02414
G1 X142.873 Y130.170 E0.02414
G1 X143.387 Y130.742 E0.02414
G1 X143.822 Y131.380 E0.02418
G1 X144.176 Y132.093 E0.02497
G1 X144.419 Y132.794 E0.02326
G1 X144.571 Y133.548 E0.02414
G1 X144.621 Y134.290 E0.02332
G1 X144.621 Y170.026 E1.12046
G1 X144.573 Y170.756 E0.02293
G1 X144.425 Y171.498 E0.02374
G1 X144.182 Y172.215 E0.02374
G1 X143.847 Y172.894 E0.02374
G1 X143.426 Y173.524 E0.02374
G1 X142.927 Y174.093 E0.02374
G1 X142.358 Y174.593 E0.02374
G1 X141.728 Y175.013 E0.02374
G1 X141.049 Y175.348 E0.02374
G1 X140.332 Y175.592 E0.02374
G1 X139.589 Y175.739 E0.02374
G1 X138.860 Y175.787 E0.02293
G1 X88.008 Y175.787 E1.59441
G1 X87.278 Y175.739 E0.02293
G1 X86.535 Y175.592 E0.02374
G1 X85.818 Y175.348 E0.02374
G1 X85.139 Y175.013 E0.02374
G1 X84.510 Y174.593 E0.02374
G1 X83.940 Y174.093 E0.02374
G1 X83.441 Y173.524 E0.02374
G1 X83.021 Y172.894 E0.02374
G1 X82.686 Y172.215 E0.02374
G1 X82.442 Y171.498 E0.02374
G1 X82.294 Y170.756 E0.02374
G1 X82.247 Y170.026 E0.02293
G1 X82.247 Y135.294 E1.08898
G1 X82.294 Y134.564 E0.02293
G1 X82.442 Y133.822 E0.02374
G1 X82.686 Y133.105 E0.02374
G1 X83.021 Y132.426 E0.02374
G1 X83.441 Y131.796 E0.02374
G1 X83.940 Y131.227 E0.02374
G1 X84.510 Y130.727 E0.02374
G1 X85.139 Y130.307 E0.02374
G1 X85.765 Y129.998 E0.02186
G1 X85.931 Y130.337 F10800.000
;TYPE:External perimeter
G1 F1200.000
G1 X86.633 Y130.093 E0.02329
G1 X87.327 Y129.955 E0.02219
G1 X88.020 Y129.910 E0.02177
G1 X105.164 Y129.910 E0.53752
G1 X105.164 Y129.791 E0.00374
G1 X138.705 Y128.908 E1.05203
G1 X139.410 Y128.937 E0.02213
G1 X140.119 Y129.061 E0.02256
G1 X140.805 Y129.278 E0.02256
G1 X141.457 Y129.584 E0.02256
G1 X142.061 Y129.974 E0.02256
G1 X142.609 Y130.441 E0.02256
G1 X143.090 Y130.976 E0.02256
G1 X143.496 Y131.571 E0.02258
G1 X143.828 Y132.239 E0.02339
G1 X144.054 Y132.893 E0.02171
G1 X144.197 Y133.599 E0.02256
G1 X144.244 Y134.303 E0.02213
G1 X144.244 Y170.013 E1.11968
G1 X144.198 Y170.706 E0.02177
G1 X144.060 Y171.400 E0.02219
G1 X143.833 Y172.071 E0.02219
G1 X143.520 Y172.705 E0.02219
G1 X143.126 Y173.294 E0.02219
G1 X142.660 Y173.826 E0.02219
G1 X142.128 Y174.293 E0.02219
G1 X141.539 Y174.686 E0.02219
G1 X140.904 Y174.999 E0.02219
G1 X140.234 Y175.227 E0.02219
G1 X139.540 Y175.365 E0.02219
G1 X138.847 Y175.410 E0.02177
G1 X88.020 Y175.410 E1.59364
G1 X87.327 Y175.365 E0.02177
G1 X86.633 Y175.227 E0.02219
G1 X85.963 Y174.999 E0.02219
G1 X85.328 Y174.686 E0.02219
G1 X84.740 Y174.293 E0.02219
G1 X84.208 Y173.826 E0.02219
G1 X83.741 Y173.294 E0.02219
G1 X83.348 Y172.705 E0.02219
G1 X83.035 Y172.071 E0.02219
G1 X82.807 Y171.400 E0.02219
G1 X82.669 Y170.706 E0.02219
G1 X82.624 Y170.013 E0.02177
G1 X82.624 Y135.307 E1.08821
G1 X82.669 Y134.614 E0.02177
G1 X82.807 Y133.920 E0.02219
G1 X83.035 Y133.249 E0.02219
G1 X83.348 Y132.615 E0.02219
G1 X83.741 Y132.026 E0.02219
G1 X84.208 Y131.494 E0.02219
G1 X84.740 Y131.027 E0.02219
G1 X85.328 Y130.634 E0.02219
G1 X85.878 Y130.363 E0.01920
G1 X85.982 Y129.940 F10800.000
;WIPE_START
G1 F8640.000
G1 X86.633 Y130.093 E-0.18526
G1 X87.327 Y129.955 E-0.16343
G1 X88.020 Y129.910 E-0.16032
G1 X91.576 Y129.910 E-0.82099
;WIPE_END
G1 E-0.07000 F2100.000
G1 Z0.400 F10800.000
G1 X96.987 Y127.391
G1 Z0.200
G1 E1.40000 F2100.000
;TYPE:Perimeter
G1 F1200.000
G1 X96.987 Y123.249 E0.12987
G1 X99.790 Y121.630 E0.10150
G1 X100.574 Y121.178 E0.02837
G1 X104.161 Y123.249 E0.12987
G1 X104.161 Y127.391 E0.12987
G1 X100.574 Y129.462 E0.12987
G1 X97.039 Y127.421 E0.12799
G1 X97.364 Y127.173 F10800.000
;TYPE:External perimeter
G1 F1200.000
G1 X97.364 Y123.467 E0.11622
G1 X99.979 Y121.957 E0.09468
G1 X100.574 Y121.613 E0.02154
G1 X103.784 Y123.467 E0.11622
G1 X103.784 Y127.173 E0.11622
G1 X100.574 Y129.027 E0.11622
G1 X97.416 Y127.203 E0.11434
G1 X96.964 Y127.173 F10800.000
;WIPE_START
G1 F8640.000
G1 X97.364 Y123.467 E-0.86287
G1 X99.116 Y122.455 E-0.46713
;WIPE_END
G1 E-0.07000 F2100.000
G1 Z0.400 F10800.000
G1 X78.034 Y122.358
G1 Z0.200
G1 E1.40000 F2100.000
;TYPE:Perimeter
G1 F1200.000
G1 X81.621 Y124.429 E0.12987
M73 Q0 S182
G1 X81.621 Y128.571 E0.12987
G1 X78.034 Y130.642 E0.12987
G1 X74.447 Y128.571 E0.12987
G1 X74.447 Y124.429 E0.12987
G1 X77.982 Y122.388 E0.12799
G1 X78.034 Y122.793 F10800.000
;TYPE:External perimeter
G1 F1200.000
G1 X81.244 Y124.647 E0.11622
G1 X81.244 Y128.353 E0.11622
G1 X78.034 Y130.207 E0.11622
G1 X74.824 Y128.353 E0.11622
G1 X74.824 Y124.647 E0.11622
G1 X77.982 Y122.823 E0.11434
G1 X78.234 Y122.447 F10800.000
;WIPE_START
G1 F8640.000
G1 X81.244 Y124.647 E-0.86287
G1 X81.244 Y126.670 E-0.46713
;WIPE_END
G1 E-0.07000 F2100.000
G1 Z0.400 F10800.000
G1 X44.621 Y124.429
G1 Z0.200
G1 E1.40000 F2100.000
;TYPE:Perimeter
G1 F1200.000
G1 X44.621 Y128.571 E0.12987
G1 X41.034 Y130.642 E0.12987
G1 X37.447 Y128.571 E0.12987
G1 X37.447 Y124.429 E0.12987
G1 X41.034 Y122.358 E0.12987
G1 X44.569 Y124.399 E0.12799
G1 X44.244 Y124.647 F10800.000
;TYPE:External perimeter
G1 F1200.000
G1 X44.244 Y128.353 E0.11622
G1 X41.034 Y130.207 E0.11622
G1 X37.824 Y128.353 E0.11622
G1 X37.824 Y124.647 E0.11622
G1 X41.034 Y122.793 E0.11622
G1 X44.192 Y124.617 E0.11434
G1 X44.644 Y124.647 F10800.000
;WIPE_START
G1 F8640.000
G1 X44.244 Y128.353 E-0.86287
G1 X42.492 Y129.365 E-0.46713
;WIPE_END
G1 E-0.07000 F2100.000
G1 Z0.400 F10800.000
G1 X41.034 Y87.642
G1 Z0.200
G1 E1.40000 F2100.000
;TYPE:Perimeter
G1 F1200.000
G1 X37.447 Y85.571 E0.12987
G1 X37.447 Y81.429 E0.12987
G1 X41.034 Y79.358 E0.12987
G1 X44.621 Y81.429 E0.12987
G1 X44.621 Y85.571 E0.12987
G1 X41.086 Y87.612 E0.12799
G1 X41.034 Y87.207 F10800.000
;TYPE:External perimeter
G1 F1200.000
G1 X37.824 Y85.353 E0.11622
G1 X37.824 Y81.647 E0.11622
G1 X41.034 Y79.793 E0.11622
G1 X44.244 Y81.647 E0.11622
G1 X44.244 Y85.353 E0.11622
G1 X41.086 Y87.177 E0.11434
G1 X40.834 Y87.553 F10800.000
;WIPE_START
G1 F8640.000
G1 X37.824 Y85.353 E-0.86287
G1 X37.824 Y83.330 E-0.46713
;WIPE_END
G1 E-0.07000 F2100.000
G1 Z0.400 F10800.000
G1 X41.034 Y50.642
G1 Z0.200
G1 E1.40000 F2100.000
;TYPE:Perimeter
G1 F1200.000
G1 X37.447 Y48.571 E0.12987
G1 X37.447 Y44.429 E0.12987
G1 X41.034 Y42.358 E0.12987
G1 X44.621 Y44.429 E0.12987
G1 X44.621 Y48.571 E0.12987
G1 X41.086 Y50.612 E0.12799
G1 X41.034 Y50.207 F10800.000
;TYPE:External perimeter
G1 F1200.000
G1 X37.824 Y48.353 E0.11622
G1 X37.824 Y44.647 E0.11622
G1 X41.034 Y42.793 E0.11622
G1 X44.244 Y44.647 E0.11622
G1 X44.244 Y48.353 E0.11622
G1 X41.086 Y50.177 E0.11434
G1 X40.834 Y50.553 F10800.000
;WIPE_START
G1 F8640.000
G1 X37.824 Y48.353 E-0.86287
G1 X37.824 Y46.330 E-0.46713
;WIPE_END
G1 E-0.07000 F2100.000
G1 Z0.400 F10800.000
G1 X45.294 Y39.244
G1 Z0.200
G1 E1.40000 F2100.000
;TYPE:Perimeter
G1 F1200.000
G1 X45.442 Y38.502 E0.02374
G1 X45.686 Y37.785 E0.02374
G1 X46.021 Y37.106 E0.02374
G1 X46.441 Y36.476 E0.02374
G1 X46.940 Y35.907 E0.02374
G1 X47.510 Y35.407 E0.02374
G1 X48.139 Y34.987 E0.02374
G1 X48.818 Y34.652 E0.02374
G1 X49.535 Y34.408 E0.02374
G1 X50.278 Y34.261 E0.02374
G1 X51.008 Y34.213 E0.02293
G1 X68.059 Y34.213 E0.53464
G1 X68.789 Y34.261 E0.02293
G1 X69.532 Y34.408 E0.02374
G1 X70.249 Y34.652 E0.02374
G1 X70.928 Y34.987 E0.02374
G1 X71.558 Y35.407 E0.02374
G1 X72.127 Y35.907 E0.02374
G1 X72.626 Y36.476 E0.02374
G1 X73.047 Y37.106 E0.02374
G1 X73.382 Y37.785 E0.02374
G1 X73.625 Y38.502 E0.02374
G1 X73.773 Y39.244 E0.02374
G1 X73.821 Y39.974 E0.02293
G1 X73.821 Y170.026 E4.07767
G1 X73.773 Y170.756 E0.02293
G1 X73.625 Y171.498 E0.02374
G1 X73.382 Y172.215 E0.02374
G1 X73.047 Y172.894 E0.02374
G1 X72.626 Y173.524 E0.02374
G1 X72.127 Y174.093 E0.02374
G1 X71.558 Y174.593 E0.02374
G1 X70.928 Y175.013 E0.02374
G1 X70.249 Y175.348 E0.02374
G1 X69.532 Y175.592 E0.02374
G1 X68.789 Y175.739 E0.02374
G1 X68.060 Y175.787 E0.02293
G1 X51.008 Y175.787 E0.53464
G1 X50.278 Y175.739 E0.02293
G1 X49.534 Y175.591 E0.02379
G1 X48.794 Y175.336 E0.02456
G1 X48.139 Y175.013 E0.02288
G1 X47.510 Y174.593 E0.02374
G1 X46.940 Y174.093 E0.02374
G1 X46.441 Y173.524 E0.02374
G1 X46.021 Y172.894 E0.02374
G1 X45.686 Y172.215 E0.02374
G1 X45.442 Y171.498 E0.02374
G1 X45.294 Y170.756 E0.02374
G1 X45.247 Y170.026 E0.02293
G1 X45.247 Y39.974 E4.07767
G1 X45.291 Y39.304 E0.02105
G1 X45.667 Y39.329 F10800.000
;TYPE:External perimeter
G1 F1200.000
G1 X45.807 Y38.600 E0.02329
G1 X46.035 Y37.929 E0.02219
G1 X46.348 Y37.295 E0.02219
G1 X46.741 Y36.706 E0.02219
G1 X47.208 Y36.174 E0.02219
G1 X47.740 Y35.707 E0.02219
G1 X48.328 Y35.314 E0.02219
G1 X48.963 Y35.001 E0.02219
G1 X49.633 Y34.773 E0.02219
G1 X50.327 Y34.635 E0.02219
G1 X51.020 Y34.590 E0.02177
G1 X68.047 Y34.590 E0.53386
G1 X68.740 Y34.635 E0.02177
G1 X69.434 Y34.773 E0.02219
G1 X70.104 Y35.001 E0.02219
G1 X70.739 Y35.314 E0.02219
G1 X71.328 Y35.707 E0.02219
G1 X71.860 Y36.174 E0.02219
G1 X72.326 Y36.706 E0.02219
G1 X72.720 Y37.295 E0.02219
G1 X73.033 Y37.929 E0.02219
G1 X73.260 Y38.600 E0.02219
G1 X73.398 Y39.294 E0.02219
G1 X73.444 Y39.987 E0.02177
G1 X73.444 Y170.013 E4.07690
M73 P0 R179
G1 X73.398 Y170.706 E0.02177
G1 X73.260 Y171.400 E0.02219
G1 X73.033 Y172.071 E0.02219
G1 X72.720 Y172.705 E0.02219
G1 X72.326 Y173.294 E0.02219
G1 X71.860 Y173.826 E0.02219
G1 X71.328 Y174.293 E0.02219
G1 X70.739 Y174.686 E0.02219
G1 X70.104 Y174.999 E0.02219
G1 X69.434 Y175.227 E0.02219
G1 X68.740 Y175.365 E0.02219
G1 X68.047 Y175.410 E0.02177
G1 X51.020 Y175.410 E0.53386
G1 X50.327 Y175.365 E0.02177
G1 X49.633 Y175.226 E0.02221
G1 X48.939 Y174.987 E0.02301
G1 X48.328 Y174.686 E0.02135
G1 X47.740 Y174.293 E0.02219
G1 X47.208 Y173.826 E0.02219
G1 X46.741 Y173.294 E0.02219
G1 X46.348 Y172.705 E0.02219
G1 X46.035 Y172.071 E0.02219
G1 X45.807 Y171.400 E0.02219
G1 X45.669 Y170.706 E0.02219
G1 X45.624 Y170.013 E0.02177
G1 X45.624 Y39.987 E4.07690
M73 P1 R179
M73 Q1 S182
G1 X45.663 Y39.389 E0.01878
G1 X45.349 Y39.087 F10800.000
;WIPE_START
G1 F8640.000
G1 X45.807 Y38.600 E-0.18526
G1 X46.035 Y37.929 E-0.16343
G1 X46.348 Y37.295 E-0.16343
G1 X46.741 Y36.706 E-0.16343
G1 X47.208 Y36.174 E-0.16343
G1 X47.740 Y35.707 E-0.16343
G1 X48.328 Y35.314 E-0.16343
G1 X48.963 Y35.001 E-0.16343
G1 X48.966 Y35.000 E-0.00074
;WIPE_END
G1 E-0.07000 F2100.000
G1 Z0.400 F10800.000
G1 X43.057 Y33.293
G1 Z0.200
G1 E1.40000 F2100.000
;TYPE:Perimeter
G1 F1200.000
G1 X42.467 Y33.589 E0.02068
G1 X41.839 Y33.780 E0.02059
G1 X41.187 Y33.861 E0.02059
G1 X40.531 Y33.832 E0.02059
G1 X39.890 Y33.691 E0.02059
G1 X39.281 Y33.444 E0.02059
G1 X38.725 Y33.098 E0.02055
G1 X38.261 Y32.690 E0.01936
G1 X37.823 Y32.151 E0.02178
G1 X37.505 Y31.574 E0.02065
G1 X37.289 Y30.954 E0.02059
G1 X37.182 Y30.308 E0.02053
G1 X37.182 Y29.692 E0.01932
G1 X37.289 Y29.046 E0.02053
G1 X37.505 Y28.426 E0.02059
G1 X37.822 Y27.851 E0.02059
G1 X38.233 Y27.338 E0.02059
G1 X38.725 Y26.901 E0.02066
G1 X39.320 Y26.538 E0.02185
G1 X39.930 Y26.298 E0.02054
G1 X40.531 Y26.169 E0.01929
G1 X41.188 Y26.139 E0.02061
G1 X41.839 Y26.220 E0.02056
G1 X42.467 Y26.411 E0.02059
G1 X43.054 Y26.705 E0.02059
G1 X43.583 Y27.095 E0.02059
G1 X44.040 Y27.571 E0.02068
G1 X44.423 Y28.149 E0.02175
G1 X44.677 Y28.711 E0.01933
G1 X44.843 Y29.346 E0.02059
G1 X44.899 Y30.000 E0.02058
G1 X44.843 Y30.654 E0.02058
G1 X44.677 Y31.290 E0.02060
G1 X44.406 Y31.888 E0.02059
G1 X44.038 Y32.431 E0.02058
G1 X43.611 Y32.876 E0.01934
G1 X43.105 Y33.257 E0.01987
G1 X42.878 Y32.956 F10800.000
;TYPE:External perimeter
G1 F1200.000
G1 X42.327 Y33.238 E0.01941
G1 X41.760 Y33.410 E0.01857
G1 X41.172 Y33.483 E0.01857
G1 X40.580 Y33.456 E0.01857
G1 X40.002 Y33.330 E0.01857
G1 X39.453 Y33.107 E0.01857
G1 X38.950 Y32.795 E0.01856
G1 X38.534 Y32.428 E0.01739
G1 X38.137 Y31.939 E0.01974
G1 X37.851 Y31.420 E0.01859
G1 X37.656 Y30.861 E0.01857
G1 X37.559 Y30.277 E0.01855
G1 X37.559 Y29.723 E0.01737
G1 X37.656 Y29.139 E0.01855
G1 X37.851 Y28.580 E0.01857
G1 X38.137 Y28.061 E0.01857
G1 X38.507 Y27.599 E0.01857
G1 X38.950 Y27.205 E0.01860
G1 X39.488 Y26.877 E0.01977
G1 X40.039 Y26.660 E0.01855
G1 X40.581 Y26.544 E0.01736
G1 X41.172 Y26.517 E0.01858
G1 X41.760 Y26.590 E0.01856
G1 X42.327 Y26.762 E0.01857
G1 X42.856 Y27.028 E0.01857
G1 X43.333 Y27.380 E0.01857
G1 X43.744 Y27.807 E0.01861
G1 X44.092 Y28.332 E0.01973
