; generated by PrusaSlicer 2.3.0+win64 on 2021-03-28 at 16:34:41 UTC

; 

; external perimeters extrusion width = 0.45mm
; perimeters extrusion width = 0.45mm
; infill extrusion width = 0.45mm
; solid infill extrusion width = 0.45mm
; top infill extrusion width = 0.40mm
; first layer extrusion width = 0.42mm

M73 P0 R44
M73 Q0 S44
M201 X1000 Y1000 Z200 E5000 ; sets maximum accelerations, mm/sec^2
M203 X200 Y200 Z12 E120 ; sets maximum feedrates, mm/sec
M204 P1250 R1250 T1250 ; sets acceleration (P, T) and retract acceleration (R), mm/sec^2
M205 X8.00 Y8.00 Z0.40 E4.50 ; sets the jerk limits, mm/sec
M205 S0 T0 ; sets the minimum extruding and travel feed rate, mm/sec
M107
;TYPE:Custom
M862.3 P "MK3SMMU2S" ; printer model check
M862.1 P0.4 ; nozzle diameter check
M115 U3.9.3 ; tell printer latest fw version
G90 ; use absolute coordinates
M83 ; extruder relative mode
M104 S215 ; set extruder temp
M140 S60 ; set bed temp
Tx
M190 S60 ; wait for bed temp
M109 S215 ; wait for extruder temp
G28 W ; home all without mesh bed level
G80 ; mesh bed leveling

;go outside print area
G1 Y-3.0 F1000.0
G1 Z0.4 F1000.0
; select extruder
Tc
; purge line
G1 X55.0 F2000.0
G1 Z0.3 F1000.0
G92 E0.0
G1 X240.0 E25.0 F2200.0
G1 Y-2.0 F1000.0
G1 X55.0 E25 F1400.0
G1 Z0.20 F1000.0
G1 X5.0 E4.0 F1000.0

M221 S95
G92 E0.0

; Don't change E values below. Excessive value can damage the printer.

M907 E538 ; set extruder motor current
G21 ; set units to millimeters
G90 ; use absolute coordinates
M83 ; use relative distances for extrusion
M900 K0.06 ; Filament gcode LA 1.5
M900 K30 ; Filament gcode LA 1.0
;LAYER_CHANGE
;Z:0.2
;HEIGHT:0.2
;BEFORE_LAYER_CHANGE
G92 E0.0
;0.2


G1 E-0.80000 F2100.000
G1 Z0.400 F10800.000
;AFTER_LAYER_CHANGE
;0.2
G1 X116.484 Y67.806
G1 Z0.200
G1 E0.80000 F2100.000
M204 S1000
;TYPE:Skirt
;WIDTH:0.42
G1 F1200.000
G1 X117.973 Y67.623 E0.04702
G1 X132.004 Y67.623 E0.43993
G1 X133.122 Y67.722 E0.03519
G1 X134.238 Y68.029 E0.03628
G1 X135.446 Y68.635 E0.04239
G1 X136.334 Y69.322 E0.03521
G1 X137.108 Y70.182 E0.03628
G1 X137.700 Y71.141 E0.03533
G1 X138.113 Y72.185 E0.03521
G1 X138.341 Y73.323 E0.03640
G1 X138.377 Y136.004 E1.96530
G1 X138.269 Y137.167 E0.03662
G1 X138.012 Y138.127 E0.03116
G1 X137.692 Y138.875 E0.02552
G1 X137.153 Y139.755 E0.03235
G1 X136.631 Y140.384 E0.02564
G1 X135.860 Y141.075 E0.03247
G1 X135.189 Y141.522 E0.02528
G1 X134.462 Y141.882 E0.02543
G1 X133.475 Y142.204 E0.03255
G1 X132.008 Y142.377 E0.04631
G1 X117.981 Y142.377 E0.43981
G1 X116.833 Y142.269 E0.03614
G1 X115.809 Y141.989 E0.03330
G1 X114.812 Y141.523 E0.03450
G1 X113.910 Y140.893 E0.03450
G1 X113.158 Y140.149 E0.03319
G1 X112.637 Y139.450 E0.02730
G1 X112.126 Y138.481 E0.03438
G1 X111.794 Y137.468 E0.03342
G1 X111.636 Y136.406 E0.03366
G1 X111.623 Y73.996 E1.95680
M73 P1 R44
M73 Q1 S44
G1 X111.731 Y72.833 E0.03662
G1 X111.988 Y71.873 E0.03116
G1 X112.306 Y71.128 E0.02540
G1 X112.847 Y70.245 E0.03247
G1 X113.364 Y69.621 E0.02540
G1 X113.954 Y69.071 E0.02531
G1 X114.804 Y68.481 E0.03244
G1 X115.530 Y68.121 E0.02540
G1 X116.427 Y67.825 E0.02964
; printing object GearLock.stl id:0 copy 2
;WIPE_START
G1 F8640.000
G1 X117.973 Y67.623 E-0.35985
G1 X119.706 Y67.623 E-0.40015
;WIPE_END
G1 E-0.04000 F2100.000
G1 Z0.600 F10800.000
G1 X131.264 Y133.184
G1 Z0.200
G1 E0.80000 F2100.000
;TYPE:External perimeter
G1 F1200.000
G1 X131.678 Y133.107 E0.01320
G1 X131.894 Y133.092 E0.00679
G1 X132.110 Y133.092 E0.00679
G1 X132.525 Y133.137 E0.01308
G1 X132.740 Y133.185 E0.00690
G1 X133.127 Y133.317 E0.01282
G1 X133.516 Y133.515 E0.01370
G1 X133.859 Y133.760 E0.01321
G1 X134.170 Y134.061 E0.01356
G1 X134.428 Y134.394 E0.01320
G1 X134.635 Y134.765 E0.01332
G1 X134.787 Y135.161 E0.01332
G1 X134.879 Y135.572 E0.01320
G1 X134.903 Y135.791 E0.00691
G1 X134.903 Y136.209 E0.01308
G1 X134.879 Y136.428 E0.00691
G1 X134.787 Y136.839 E0.01320
G1 X134.637 Y137.232 E0.01320
G1 X134.538 Y137.424 E0.00679
G1 X134.425 Y137.609 E0.00679
G1 X134.170 Y137.939 E0.01308
G1 X134.017 Y138.098 E0.00691
G1 X133.697 Y138.365 E0.01308
G1 X133.513 Y138.486 E0.00691
G1 X133.138 Y138.679 E0.01320
G1 X132.736 Y138.816 E0.01332
G1 X132.322 Y138.893 E0.01320
G1 X132.102 Y138.909 E0.00691
G1 X131.682 Y138.893 E0.01320
G1 X131.280 Y138.819 E0.01282
G1 X131.061 Y138.755 E0.00716
G1 X130.858 Y138.677 E0.00680
G1 X130.484 Y138.485 E0.01320
G1 X130.138 Y138.237 E0.01332
G1 X129.844 Y137.954 E0.01282
G1 X129.697 Y137.779 E0.00716
G1 X129.571 Y137.603 E0.00680
G1 X129.370 Y137.246 E0.01282
G1 X129.213 Y136.839 E0.01369
G1 X129.123 Y136.440 E0.01283
G1 X129.097 Y136.209 E0.00728
G1 X129.097 Y135.791 E0.01310
G1 X129.121 Y135.573 E0.00690
G1 X129.209 Y135.177 E0.01270
G1 X129.366 Y134.761 E0.01395
G1 X129.566 Y134.404 E0.01282
G1 X129.830 Y134.061 E0.01358
G1 X129.983 Y133.902 E0.00692
G1 X130.303 Y133.635 E0.01308
G1 X130.487 Y133.514 E0.00691
G1 X130.862 Y133.321 E0.01320
G1 X131.207 Y133.203 E0.01144
G1 X131.370 Y132.798 F10800.000
;WIPE_START
G1 F8640.000
G1 X131.678 Y133.107 E-0.11095
G1 X131.894 Y133.092 E-0.04997
G1 X132.110 Y133.092 E-0.04997
G1 X132.525 Y133.137 E-0.09634
G1 X132.740 Y133.185 E-0.05083
G1 X133.127 Y133.317 E-0.09441
G1 X133.516 Y133.515 E-0.10087
G1 X133.859 Y133.760 E-0.09731
G1 X134.170 Y134.061 E-0.09988
G1 X134.195 Y134.093 E-0.00946
;WIPE_END
G1 E-0.04000 F2100.000
G1 Z0.600 F10800.000
G1 X128.787 Y135.337
G1 Z0.200
G1 E0.80000 F2100.000
;TYPE:Perimeter
G1 F1200.000
G1 X128.787 Y112.687 E0.71018
G1 X128.925 Y113.165 E0.01560
G1 X129.028 Y113.406 E0.00822
G1 X129.265 Y113.825 E0.01510
G1 X129.544 Y114.186 E0.01432
G1 X129.905 Y114.534 E0.01571
G1 X130.288 Y114.808 E0.01475
G1 X130.726 Y115.032 E0.01543
G1 X131.158 Y115.178 E0.01432
G1 X131.413 Y115.235 E0.00819
G1 X131.869 Y115.285 E0.01438
G1 X132.120 Y115.285 E0.00787
G1 X132.370 Y115.267 E0.00787
G1 X132.832 Y115.182 E0.01472
G1 X133.286 Y115.027 E0.01505
G1 X133.704 Y114.812 E0.01472
G1 X133.922 Y114.668 E0.00820
G1 X134.274 Y114.374 E0.01438
G1 X134.456 Y114.186 E0.00820
G1 X134.736 Y113.823 E0.01438
G1 X134.867 Y113.609 E0.00787
G1 X134.982 Y113.386 E0.00787
G1 X135.149 Y112.947 E0.01472
G1 X135.213 Y112.662 E0.00917
G1 X135.213 Y135.338 E0.71099
G1 X135.149 Y135.053 E0.00917
G1 X134.978 Y134.604 E0.01505
G1 X134.743 Y134.185 E0.01505
G1 X134.456 Y133.814 E0.01472
G1 X134.095 Y133.466 E0.01572
G1 X133.712 Y133.192 E0.01475
G1 X133.274 Y132.968 E0.01543
G1 X132.842 Y132.822 E0.01432
G1 X132.587 Y132.765 E0.00819
G1 X132.131 Y132.715 E0.01438
G1 X131.630 Y132.733 E0.01572
G1 X131.168 Y132.818 E0.01472
G1 X130.714 Y132.973 E0.01505
G1 X130.296 Y133.188 E0.01472
G1 X130.078 Y133.332 E0.00820
G1 X129.726 Y133.626 E0.01438
G1 X129.543 Y133.815 E0.00823
G1 X129.250 Y134.197 E0.01510
G1 X129.027 Y134.595 E0.01432
G1 X128.929 Y134.827 E0.00789
G1 X128.800 Y135.279 E0.01473
;WIPE_START
G1 F8640.000
G1 X128.798 Y131.987 E-0.76000
;WIPE_END
G1 E-0.04000 F2100.000
G1 Z0.600 F10800.000
G1 X131.475 Y114.863
G1 Z0.200
G1 E0.80000 F2100.000
;TYPE:External perimeter
G1 F1200.000
G1 X131.260 Y114.815 E0.00690
G1 X130.873 Y114.683 E0.01282
G1 X130.484 Y114.485 E0.01370
G1 X130.141 Y114.240 E0.01321
G1 X129.980 Y114.095 E0.00679
G1 X129.830 Y113.939 E0.00678
G1 X129.580 Y113.616 E0.01282
G1 X129.367 Y113.239 E0.01358
G1 X129.280 Y113.036 E0.00691
G1 X129.162 Y112.645 E0.01282
G1 X129.097 Y112.213 E0.01370
G1 X129.097 Y111.791 E0.01321
G1 X129.121 Y111.573 E0.00690
G1 X129.209 Y111.177 E0.01270
G1 X129.282 Y110.961 E0.00716
G1 X129.366 Y110.761 E0.00680
G1 X129.566 Y110.404 E0.01282
G1 X129.832 Y110.058 E0.01370
G1 X130.135 Y109.765 E0.01321
G1 X130.307 Y109.633 E0.00679
G1 X130.487 Y109.514 E0.00679
G1 X130.862 Y109.321 E0.01320
G1 X131.264 Y109.184 E0.01332
G1 X131.678 Y109.107 E0.01320
G1 X131.898 Y109.091 E0.00691
G1 X132.314 Y109.107 E0.01308
G1 X132.529 Y109.138 E0.00679
G1 X132.740 Y109.185 E0.00678
G1 X133.127 Y109.317 E0.01282
G1 X133.516 Y109.515 E0.01370
G1 X133.859 Y109.760 E0.01321
G1 X134.020 Y109.905 E0.00679
G1 X134.170 Y110.061 E0.00679
G1 X134.428 Y110.394 E0.01320
G1 X134.635 Y110.765 E0.01332
G1 X134.787 Y111.161 E0.01332
G1 X134.879 Y111.572 E0.01320
G1 X134.903 Y111.791 E0.00691
G1 X134.903 Y112.209 E0.01308
G1 X134.879 Y112.428 E0.00691
G1 X134.787 Y112.839 E0.01320
G1 X134.637 Y113.232 E0.01320
G1 X134.425 Y113.609 E0.01356
G1 X134.170 Y113.939 E0.01308
G1 X134.017 Y114.098 E0.00691
G1 X133.697 Y114.365 E0.01308
G1 X133.513 Y114.486 E0.00691
G1 X133.138 Y114.679 E0.01320
G1 X132.736 Y114.816 E0.01332
G1 X132.322 Y114.893 E0.01320
G1 X132.106 Y114.908 E0.00679
G1 X131.890 Y114.908 E0.00679
G1 X131.535 Y114.869 E0.01120
G1 X131.334 Y115.032 F10800.000
;WIPE_START
G1 F8640.000
G1 X131.260 Y114.815 E-0.06462
G1 X130.873 Y114.683 E-0.09441
G1 X130.484 Y114.485 E-0.10087
G1 X130.141 Y114.240 E-0.09731
G1 X129.980 Y114.095 E-0.04997
G1 X129.830 Y113.939 E-0.04994
G1 X129.580 Y113.616 E-0.09441
G1 X129.367 Y113.239 E-0.09998
G1 X129.280 Y113.036 E-0.05091
G1 X129.208 Y112.798 E-0.05757
;WIPE_END
G1 E-0.04000 F2100.000
G1 Z0.600 F10800.000
G1 X128.410 Y114.869
G1 Z0.200
G1 E0.80000 F2100.000
G1 F1200.000
G1 X128.410 Y112.006 E0.08978
G1 X128.465 Y111.377 E0.01981
G1 X128.561 Y110.971 E0.01309
G1 X128.704 Y110.578 E0.01309
G1 X128.891 Y110.205 E0.01309
G1 X129.121 Y109.856 E0.01309
G1 X129.391 Y109.534 E0.01318
G1 X129.690 Y109.252 E0.01290
G1 X130.028 Y109.001 E0.01318
G1 X130.389 Y108.792 E0.01309
G1 X130.772 Y108.627 E0.01309
G1 X131.172 Y108.507 E0.01309
G1 X131.586 Y108.434 E0.01318
G1 X131.788 Y108.417 E0.00636
G1 X132.414 Y108.434 E0.01962
G1 X132.828 Y108.507 E0.01318
G1 X133.231 Y108.628 E0.01318
G1 X133.608 Y108.791 E0.01290
G1 X133.975 Y109.002 E0.01328
G1 X134.466 Y109.391 E0.01962
G1 X134.881 Y109.859 E0.01962
G1 X135.209 Y110.392 E0.01962
G1 X135.440 Y110.973 E0.01962
G1 X135.565 Y111.583 E0.01952
G1 X135.590 Y112.009 E0.01337
G1 X135.584 Y136.206 E0.75867
G1 X135.494 Y136.825 E0.01962
G1 X135.297 Y137.419 E0.01962
G1 X135.109 Y137.795 E0.01318
G1 X134.879 Y138.144 E0.01309
G1 X134.611 Y138.463 E0.01309
G1 X134.307 Y138.750 E0.01309
G1 X133.972 Y138.999 E0.01309
G1 X133.608 Y139.209 E0.01318
G1 X133.231 Y139.372 E0.01290
G1 X132.828 Y139.493 E0.01318
G1 X132.417 Y139.565 E0.01309
G1 X131.794 Y139.584 E0.01952
G1 X131.374 Y139.535 E0.01328
G1 X130.772 Y139.373 E0.01952
G1 X130.205 Y139.109 E0.01962
G1 X129.693 Y138.750 E0.01962
G1 X129.389 Y138.463 E0.01309
G1 X129.121 Y138.144 E0.01309
G1 X128.890 Y137.792 E0.01318
G1 X128.705 Y137.425 E0.01290
G1 X128.561 Y137.029 E0.01318
G1 X128.464 Y136.620 E0.01318
G1 X128.410 Y135.991 E0.01981
G1 X128.410 Y114.929 E0.66038
G1 X128.756 Y114.669 F10800.000
;WIPE_START
G1 F8640.000
G1 X128.410 Y112.006 E-0.67500
G1 X128.442 Y111.639 E-0.08500
;WIPE_END
G1 E-0.04000 F2100.000
G1 Z0.600 F10800.000
G1 X129.098 Y114.135
G1 Z0.200
G1 E0.80000 F2100.000
;TYPE:Gap fill
;WIDTH:0.190082
G1 F1200.000
G1 X128.987 Y113.770 E0.00466
;WIPE_START
G1 F8640.000
G1 X129.098 Y114.135 E-0.08797
;WIPE_END
G1 E-0.71203 F2100.000
G1 Z0.600 F10800.000
G1 X128.773 Y112.499
G1 Z0.200
G1 E0.80000 F2100.000
;WIDTH:0.33911
G1 F1200.000
G1 X128.754 Y112.227 E0.00672
G1 X128.759 Y111.781 E0.01098
G1 X128.802 Y111.436 E0.00856
G1 X128.880 Y111.094 E0.00864
G1 X129.067 Y110.606 E0.01288
G1 X129.189 Y110.377 E0.00638
G1 X129.396 Y110.062 E0.00930
G1 X129.588 Y109.825 E0.00750
G1 X129.905 Y109.516 E0.01091
G1 X130.324 Y109.219 E0.01265
G1 X130.543 Y109.099 E0.00615
G1 X130.890 Y108.949 E0.00930
G1 X131.251 Y108.840 E0.00930
G1 X131.631 Y108.771 E0.00950
G1 X131.900 Y108.754 E0.00664
G1 X132.337 Y108.768 E0.01079
G1 X132.839 Y108.863 E0.01257
G1 X133.249 Y109.000 E0.01066
G1 X133.450 Y109.096 E0.00548
G1 X133.791 Y109.291 E0.00969
G1 X134.076 Y109.503 E0.00873
G1 X134.358 Y109.765 E0.00948
G1 X134.609 Y110.068 E0.00970
G1 X134.711 Y110.207 E0.00426
G1 X134.938 Y110.611 E0.01140
G1 X135.116 Y111.076 E0.01226
G1 X135.210 Y111.509 E0.01093
G1 X135.240 Y111.781 E0.00673
;WIDTH:0.353843
G1 X135.246 Y112.236 E0.01176
;WIDTH:0.362493
G1 X135.233 Y112.475 E0.00635
;WIPE_START
G1 F8640.000
G1 X135.246 Y112.236 E-0.05518
;WIPE_END
G1 E-0.74482 F2100.000
G1 Z0.600 F10800.000
G1 X135.011 Y113.780
G1 Z0.200
G1 E0.80000 F2100.000
;WIDTH:0.190924
G1 F1200.000
G1 X134.901 Y114.134 E0.00457
G1 X134.412 Y114.395 F10800.000
;TYPE:Solid infill
;WIDTH:0.420621
G1 F1200.000
G1 X134.930 Y114.913 E0.02302
G1 X134.930 Y115.448 E0.01678
G1 X134.247 Y114.765 E0.03032
G1 X133.942 Y114.994 E0.01198
G1 X134.930 Y115.982 E0.04389
G1 X134.930 Y116.516 E0.01678
G1 X133.599 Y115.184 E0.05914
G1 X133.397 Y115.288 E0.00711
G1 X133.226 Y115.346 E0.00567
G1 X134.930 Y117.050 E0.07568
G1 X134.930 Y117.584 E0.01678
G1 X132.818 Y115.472 E0.09381
G1 X132.363 Y115.551 E0.01450
G1 X134.930 Y118.118 E0.11402
G1 X134.930 Y118.652 E0.01678
G1 X131.845 Y115.567 E0.13703
G1 X131.227 Y115.483 E0.01958
G1 X134.930 Y119.187 E0.16447
G1 X134.930 Y119.721 E0.01678
G1 X130.384 Y115.174 E0.20192
G1 X130.140 Y115.050 E0.00859
G1 X129.724 Y114.752 E0.01608
G1 X129.323 Y114.362 E0.01756
G1 X129.104 Y114.428 E0.00719
G1 X134.930 Y120.255 E0.25878
G1 X134.930 Y120.789 E0.01678
G1 X129.070 Y114.929 E0.26028
G1 X129.070 Y115.463 E0.01678
G1 X134.930 Y121.323 E0.26028
G1 X134.930 Y121.857 E0.01678
G1 X129.070 Y115.997 E0.26028
G1 X129.070 Y116.531 E0.01678
G1 X134.930 Y122.391 E0.26028
G1 X134.930 Y122.926 E0.01678
G1 X129.070 Y117.065 E0.26028
G1 X129.070 Y117.600 E0.01678
G1 X134.930 Y123.460 E0.26028
G1 X134.930 Y123.994 E0.01678
G1 X129.070 Y118.134 E0.26028
G1 X129.070 Y118.668 E0.01678
G1 X134.930 Y124.528 E0.26028
G1 X134.930 Y125.062 E0.01678
G1 X129.070 Y119.202 E0.26028
G1 X129.070 Y119.736 E0.01678
G1 X134.930 Y125.596 E0.26028
G1 X134.930 Y126.131 E0.01678
G1 X129.070 Y120.270 E0.26028
M73 P1 R43
G1 X129.070 Y120.804 E0.01678
G1 X134.930 Y126.665 E0.26028
G1 X134.930 Y127.199 E0.01678
G1 X129.070 Y121.339 E0.26028
G1 X129.070 Y121.873 E0.01678
G1 X134.930 Y127.733 E0.26028
G1 X134.930 Y128.267 E0.01678
M73 Q1 S43
G1 X129.070 Y122.407 E0.26028
G1 X129.070 Y122.941 E0.01678
G1 X134.930 Y128.801 E0.26028
G1 X134.930 Y129.335 E0.01678
G1 X129.070 Y123.475 E0.26028
G1 X129.070 Y124.009 E0.01678
G1 X134.930 Y129.870 E0.26028
G1 X134.930 Y130.404 E0.01678
G1 X129.070 Y124.543 E0.26028
G1 X129.070 Y125.078 E0.01678
G1 X134.930 Y130.938 E0.26028
M73 Q2 S43
G1 X134.930 Y131.472 E0.01678
G1 X129.070 Y125.612 E0.26028
M73 P2 R43
G1 X129.070 Y126.146 E0.01678
G1 X134.930 Y132.006 E0.26028
G1 X134.930 Y132.540 E0.01678
G1 X129.070 Y126.680 E0.26028
G1 X129.070 Y127.214 E0.01678
G1 X134.930 Y133.074 E0.26028
G1 X134.930 Y133.562 E0.01530
G1 X134.894 Y133.572 E0.00118
G1 X129.070 Y127.748 E0.25868
G1 X129.070 Y128.283 E0.01678
G1 X133.610 Y132.822 E0.20163
G1 X133.384 Y132.707 E0.00794
G1 X132.918 Y132.549 E0.01546
G1 X132.769 Y132.516 E0.00481
G1 X129.070 Y128.817 E0.16429
G1 X129.070 Y129.351 E0.01678
G1 X132.151 Y132.432 E0.13687
G1 X131.635 Y132.450 E0.01624
G1 X129.070 Y129.885 E0.11391
G1 X129.070 Y130.419 E0.01678
G1 X131.179 Y132.529 E0.09369
G1 X130.771 Y132.655 E0.01341
G1 X129.070 Y130.953 E0.07557
G1 X129.070 Y131.487 E0.01678
G1 X130.399 Y132.817 E0.05905
G1 X130.056 Y133.008 E0.01234
G1 X129.070 Y132.022 E0.04380
G1 X129.070 Y132.556 E0.01678
G1 X129.751 Y133.237 E0.03024
G1 X129.467 Y133.487 E0.01189
G1 X128.900 Y132.920 E0.02516
G1 X129.097 Y133.866 F10800.000
;TYPE:Gap fill
;WIDTH:0.173202
G1 F1200.000
G1 X128.988 Y134.228 E0.00409
;WIPE_START
G1 F8640.000
G1 X129.097 Y133.866 E-0.08723
;WIPE_END
G1 E-0.71277 F2100.000
G1 Z0.600 F10800.000
G1 X128.767 Y135.525
G1 Z0.200
G1 E0.80000 F2100.000
;WIDTH:0.362571
G1 F1200.000
G1 X128.754 Y135.764 E0.00637
;WIDTH:0.353844
G1 X128.760 Y136.220 E0.01178
;WIDTH:0.339062
G1 X128.790 Y136.504 E0.00704
G1 X128.886 Y136.932 E0.01080
G1 X129.068 Y137.401 E0.01238
G1 X129.394 Y137.940 E0.01552
G1 X129.638 Y138.229 E0.00930
G1 X129.913 Y138.491 E0.00937
G1 X130.376 Y138.813 E0.01388
G1 X130.713 Y138.981 E0.00929
G1 X130.958 Y139.076 E0.00646
G1 X131.259 Y139.163 E0.00771
G1 X131.656 Y139.229 E0.00991
