; generated by PrusaSlicer 2.2.0+win64 on 2021-02-24 at 01:02:17 UTC

; 

; external perimeters extrusion width = 0.45mm
; perimeters extrusion width = 0.45mm
; infill extrusion width = 0.45mm
; solid infill extrusion width = 0.45mm
; top infill extrusion width = 0.40mm
; first layer extrusion width = 0.42mm

M73 P0 R32
M73 Q0 S33
M201 X1000 Y1000 Z200 E5000 ; sets maximum accelerations, mm/sec^2
M203 X200 Y200 Z12 E120 ; sets maximum feedrates, mm/sec
M204 P1250 R1250 T1250 ; sets acceleration (P, T) and retract acceleration (R), mm/sec^2
M205 X8.00 Y8.00 Z0.40 E4.50 ; sets the jerk limits, mm/sec
M205 S0 T0 ; sets the minimum extruding and travel feed rate, mm/sec
M107
M862.3 P "MK3SMMU2S" ; printer model check
M862.1 P0.4 ; nozzle diameter check
M115 U3.9.3 ; tell printer latest fw version
G90 ; use absolute coordinates
M83 ; extruder relative mode
M104 S215 ; set extruder temp
M140 S60 ; set bed temp
Tx
M190 S60 ; wait for bed temp
M109 S215 ; wait for extruder temp
G28 W ; home all without mesh bed level
G80 ; mesh bed leveling

;go outside print area
G1 Y-3.0 F1000.0
G1 Z0.4 F1000.0
; select extruder
Tc
; purge line
G1 X55.0 F2000.0
G1 Z0.3 F1000.0
G92 E0.0
G1 X240.0 E25.0 F2200.0
M73 Q0 S33
M73 P0 R32
G1 Y-2.0 F1000.0
G1 X55.0 E25 F1400.0
G1 Z0.20 F1000.0
G1 X5.0 E4.0 F1000.0

M221 S95
G92 E0.0

; Don't change E values below. Excessive value can damage the printer.

M907 E538 ; set extruder motor current
G21 ; set units to millimeters
G90 ; use absolute coordinates
M83 ; use relative distances for extrusion
M900 K0.05 ; Filament gcode LA 1.5
M900 K30 ; Filament gcode LA 1.0
;BEFORE_LAYER_CHANGE
G92 E0.0
;0.2


G1 E-0.80000 F2100.00000
G1 Z0.400 F10800.000
;AFTER_LAYER_CHANGE
;0.2
G1 X101.317 Y90.136
G1 Z0.200
G1 E0.80000 F2100.00000
M204 S1000
G1 F1200.000
G1 X101.649 Y89.471 E0.02331
G1 X102.019 Y89.062 E0.01728
G1 X102.470 Y88.752 E0.01716
G1 X102.984 Y88.552 E0.01728
G1 X103.530 Y88.476 E0.01728
G1 X146.421 Y88.475 E1.34482
G1 X147.319 Y88.653 E0.02872
G1 X148.086 Y89.160 E0.02884
G1 X148.604 Y89.921 E0.02884
G1 X148.794 Y90.821 E0.02884
G1 X148.663 Y95.442 E0.14495
G1 X148.270 Y100.016 E0.14395
G1 X147.616 Y104.560 E0.14395
G1 X146.705 Y109.060 E0.14395
G1 X145.955 Y112.028 E0.09598
G1 X145.095 Y114.958 E0.09574
G1 X144.120 Y117.863 E0.09610
G1 X143.279 Y120.075 E0.07420
G1 X142.238 Y122.165 E0.07320
G1 X136.139 Y132.741 E0.38280
G1 X135.772 Y133.147 E0.01716
G1 X135.318 Y133.460 E0.01728
G1 X134.809 Y133.659 E0.01716
G1 X134.267 Y133.736 E0.01716
G1 X115.743 Y133.736 E0.58080
G1 X115.047 Y133.616 E0.02213
G1 X114.415 Y133.294 E0.02225
G1 X114.047 Y132.970 E0.01538
G1 X113.754 Y132.576 E0.01538
G1 X107.370 Y121.449 E0.40223
G1 X106.700 Y120.028 E0.04927
G1 X105.888 Y117.884 E0.07186
G1 X104.462 Y113.496 E0.14467
G1 X103.651 Y110.525 E0.09656
G1 X102.664 Y106.088 E0.14253
G1 X102.137 Y103.049 E0.09669
G1 X101.731 Y100.019 E0.09586
G1 X101.338 Y95.441 E0.14407
G1 X101.207 Y90.871 E0.14336
G1 X101.308 Y90.195 E0.02143
; printing object GuidePlateV1Tip1.stl id:0 copy 0
G1 F8640.000
G1 X101.649 Y89.471 E-0.18490
G1 X102.019 Y89.062 E-0.12724
G1 X102.470 Y88.752 E-0.12637
G1 X102.984 Y88.552 E-0.12724
G1 X103.530 Y88.476 E-0.12724
G1 X103.820 Y88.476 E-0.06700
G1 E-0.04000 F2100.00000
G1 Z0.600 F10800.000
G1 X121.456 Y109.408
G1 Z0.200
G1 E0.80000 F2100.00000
G1 F1200.000
G1 X121.812 Y109.075 E0.01531
G1 X122.169 Y108.802 E0.01409
G1 X122.594 Y108.546 E0.01556
G1 X122.904 Y108.397 E0.01078
G1 X123.223 Y108.272 E0.01074
G1 X123.707 Y108.137 E0.01575
G1 X124.042 Y108.077 E0.01066
G1 X124.436 Y108.042 E0.01242
G1 X124.947 Y108.050 E0.01602
G1 X125.225 Y108.082 E0.00875
G1 X125.595 Y108.153 E0.01182
G1 X125.915 Y108.243 E0.01044
G1 X126.436 Y108.454 E0.01760
G1 X126.763 Y108.632 E0.01168
G1 X127.086 Y108.850 E0.01223
G1 X127.379 Y109.092 E0.01191
G1 X127.763 Y109.496 E0.01749
G1 X128.093 Y109.918 E0.01677
G1 X128.437 Y110.508 E0.02142
G1 X128.644 Y111.000 E0.01673
G1 X128.750 Y111.361 E0.01181
G1 X128.837 Y111.853 E0.01567
G1 X128.869 Y112.201 E0.01094
G1 X128.875 Y112.555 E0.01111
G1 X128.821 Y113.202 E0.02035
G1 X128.747 Y113.580 E0.01209
G1 X128.653 Y113.903 E0.01055
G1 X128.536 Y114.208 E0.01023
G1 X128.338 Y114.604 E0.01388
G1 X128.078 Y115.002 E0.01489
G1 X127.787 Y115.358 E0.01444
G1 X127.447 Y115.687 E0.01481
G1 X127.199 Y115.884 E0.00994
G1 X126.795 Y116.149 E0.01515
G1 X126.356 Y116.367 E0.01536
G1 X125.969 Y116.514 E0.01298
G1 X125.489 Y116.640 E0.01555
G1 X124.995 Y116.709 E0.01564
G1 X124.685 Y116.725 E0.00974
G1 X124.191 Y116.704 E0.01550
G1 X123.889 Y116.665 E0.00956
G1 X123.493 Y116.582 E0.01266
G1 X122.951 Y116.405 E0.01790
G1 X122.568 Y116.232 E0.01317
G1 X122.188 Y116.017 E0.01367
G1 X121.816 Y115.757 E0.01425
G1 X121.455 Y115.424 E0.01538
G1 X121.181 Y115.107 E0.01317
G1 X120.944 Y114.772 E0.01286
G1 X120.738 Y114.417 E0.01285
G1 X120.562 Y114.037 E0.01315
G1 X120.420 Y113.662 E0.01257
G1 X120.309 Y113.191 E0.01514
G1 X120.249 Y112.787 E0.01282
G1 X120.227 Y112.374 E0.01298
G1 X120.247 Y111.957 E0.01308
G1 X120.310 Y111.546 E0.01304
G1 X120.405 Y111.173 E0.01205
G1 X120.549 Y110.788 E0.01288
G1 X120.740 Y110.392 E0.01379
G1 X120.936 Y110.063 E0.01200
G1 X121.212 Y109.686 E0.01464
G1 X121.416 Y109.453 E0.00972
G1 X121.699 Y109.702 F10800.000
G1 F1200.000
G1 X122.056 Y109.363 E0.01543
G1 X122.382 Y109.114 E0.01286
G1 X122.774 Y108.878 E0.01436
G1 X123.055 Y108.743 E0.00976
G1 X123.343 Y108.630 E0.00969
G1 X123.791 Y108.505 E0.01460
G1 X124.092 Y108.452 E0.00958
G1 X124.450 Y108.420 E0.01128
G1 X124.923 Y108.427 E0.01482
G1 X125.168 Y108.455 E0.00774
G1 X125.508 Y108.520 E0.01086
G1 X125.793 Y108.600 E0.00927
G1 X126.274 Y108.795 E0.01627
G1 X126.566 Y108.955 E0.01045
G1 X126.860 Y109.153 E0.01110
G1 X127.121 Y109.368 E0.01062
G1 X127.477 Y109.743 E0.01621
G1 X127.780 Y110.130 E0.01540
G1 X128.099 Y110.677 E0.01984
G1 X128.288 Y111.126 E0.01531
G1 X128.383 Y111.447 E0.01049
G1 X128.463 Y111.903 E0.01452
G1 X128.492 Y112.221 E0.01000
G1 X128.497 Y112.542 E0.01008
G1 X128.447 Y113.150 E0.01912
G1 X128.380 Y113.491 E0.01091
G1 X128.295 Y113.783 E0.00953
G1 X128.191 Y114.056 E0.00917
G1 X128.011 Y114.416 E0.01262
G1 X127.774 Y114.778 E0.01358
G1 X127.509 Y115.103 E0.01312
G1 X127.198 Y115.403 E0.01356
G1 X126.978 Y115.579 E0.00883
G1 X126.607 Y115.821 E0.01390
G1 X126.205 Y116.021 E0.01408
G1 X125.854 Y116.154 E0.01177
G1 X125.415 Y116.269 E0.01424
G1 X124.960 Y116.334 E0.01442
G1 X124.683 Y116.347 E0.00867
G1 X124.223 Y116.328 E0.01444
G1 X123.591 Y116.217 E0.02012
G1 X123.087 Y116.052 E0.01662
G1 X122.739 Y115.895 E0.01199
G1 X122.390 Y115.698 E0.01257
G1 X122.053 Y115.462 E0.01290
G1 X121.726 Y115.162 E0.01391
G1 X121.478 Y114.874 E0.01192
G1 X121.261 Y114.568 E0.01175
G1 X121.073 Y114.243 E0.01178
G1 X120.910 Y113.890 E0.01219
G1 X120.781 Y113.551 E0.01137
G1 X120.680 Y113.120 E0.01387
G1 X120.625 Y112.749 E0.01176
G1 X120.605 Y112.373 E0.01183
G1 X120.623 Y111.994 E0.01187
G1 X120.680 Y111.621 E0.01185
G1 X120.765 Y111.286 E0.01084
G1 X120.896 Y110.936 E0.01170
G1 X121.072 Y110.571 E0.01272
G1 X121.251 Y110.272 E0.01093
G1 X121.506 Y109.923 E0.01356
G1 X121.660 Y109.747 E0.00731
G1 X121.587 Y109.318 F10800.000
G1 F8640.000
G1 X122.056 Y109.363 E-0.12744
G1 X122.382 Y109.114 E-0.09468
G1 X122.774 Y108.878 E-0.10573
G1 X123.055 Y108.743 E-0.07189
G1 X123.343 Y108.630 E-0.07137
G1 X123.791 Y108.505 E-0.10754
G1 X124.092 Y108.452 E-0.07052
G1 X124.450 Y108.420 E-0.08306
G1 X124.570 Y108.421 E-0.02777
G1 E-0.04000 F2100.00000
G1 Z0.600 F10800.000
G1 X108.413 Y95.776
G1 Z0.200
G1 E0.80000 F2100.00000
G1 F1200.000
G1 X108.023 Y96.013 E0.01431
G1 X107.658 Y96.143 E0.01215
G1 X107.231 Y96.206 E0.01352
G1 X106.755 Y96.165 E0.01499
G1 X106.400 Y96.054 E0.01164
G1 X106.068 Y95.876 E0.01183
G1 X105.662 Y95.567 E0.01599
G1 X105.463 Y95.340 E0.00949
G1 X105.240 Y94.956 E0.01392
G1 X105.103 Y94.599 E0.01199
G1 X105.025 Y94.112 E0.01546
G1 X105.055 Y93.711 E0.01260
G1 X105.139 Y93.384 E0.01059
G1 X105.317 Y93.005 E0.01311
G1 X105.601 Y92.635 E0.01461
G1 X105.979 Y92.325 E0.01533
G1 X106.335 Y92.141 E0.01259
G1 X106.717 Y92.025 E0.01251
G1 X107.119 Y91.980 E0.01269
G1 X107.549 Y92.013 E0.01352
G1 X107.922 Y92.125 E0.01219
G1 X108.222 Y92.276 E0.01055
G1 X108.583 Y92.552 E0.01425
G1 X108.794 Y92.774 E0.00960
G1 X109.035 Y93.157 E0.01418
G1 X109.183 Y93.541 E0.01291
G1 X109.247 Y93.908 E0.01167
G1 X109.236 Y94.309 E0.01257
G1 X109.144 Y94.729 E0.01350
G1 X108.993 Y95.089 E0.01222
G1 X108.721 Y95.482 E0.01500
G1 X108.456 Y95.735 E0.01148
G1 X108.196 Y95.462 F10800.000
G1 F1200.000
G1 X107.860 Y95.671 E0.01241
G1 X107.567 Y95.776 E0.00977
G1 X107.220 Y95.826 E0.01098
G1 X106.828 Y95.792 E0.01234
G1 X106.547 Y95.705 E0.00924
G1 X106.272 Y95.558 E0.00976
G1 X105.921 Y95.290 E0.01385
G1 X105.770 Y95.119 E0.00715
G1 X105.581 Y94.792 E0.01183
G1 X105.469 Y94.500 E0.00981
G1 X105.404 Y94.096 E0.01284
G1 X105.429 Y93.773 E0.01016
G1 X105.496 Y93.512 E0.00843
G1 X105.641 Y93.203 E0.01073
G1 X105.873 Y92.899 E0.01197
G1 X106.187 Y92.642 E0.01272
G1 X106.478 Y92.492 E0.01026
G1 X106.793 Y92.396 E0.01033
G1 X107.126 Y92.359 E0.01050
G1 X107.480 Y92.386 E0.01113
G1 X107.782 Y92.476 E0.00988
G1 X108.021 Y92.597 E0.00840
G1 X108.330 Y92.833 E0.01220
G1 X108.495 Y93.007 E0.00750
G1 X108.696 Y93.327 E0.01185
G1 X108.818 Y93.642 E0.01060
G1 X108.869 Y93.935 E0.00933
G1 X108.860 Y94.263 E0.01028
G1 X108.783 Y94.615 E0.01131
G1 X108.661 Y94.907 E0.00990
G1 X108.433 Y95.236 E0.01255
G1 X108.240 Y95.420 E0.00838
G1 X108.251 Y95.854 F10800.000
G1 F8640.000
G1 X107.860 Y95.671 E-0.10502
G1 X107.567 Y95.776 E-0.07194
G1 X107.220 Y95.826 E-0.08084
G1 X106.828 Y95.792 E-0.09085
G1 X106.547 Y95.705 E-0.06806
G1 X106.272 Y95.558 E-0.07189
G1 X105.921 Y95.290 E-0.10202
G1 X105.770 Y95.119 E-0.05265
G1 X105.581 Y94.792 E-0.08712
G1 X105.535 Y94.673 E-0.02961
G1 E-0.04000 F2100.00000
G1 Z0.600 F10800.000
G1 X141.004 Y94.112
G1 Z0.200
G1 E0.80000 F2100.00000
G1 F1200.000
G1 X141.034 Y93.709 E0.01266
G1 X141.119 Y93.383 E0.01058
G1 X141.297 Y93.003 E0.01316
G1 X141.580 Y92.633 E0.01459
G1 X141.960 Y92.322 E0.01540
G1 X142.317 Y92.137 E0.01261
G1 X142.700 Y92.021 E0.01253
G1 X143.102 Y91.977 E0.01269
G1 X143.532 Y92.009 E0.01352
G1 X143.965 Y92.147 E0.01426
G1 X144.212 Y92.280 E0.00879
G1 X144.581 Y92.561 E0.01453
G1 X144.777 Y92.781 E0.00924
G1 X145.020 Y93.162 E0.01416
G1 X145.186 Y93.620 E0.01527
G1 X145.226 Y93.920 E0.00950
G1 X145.215 Y94.307 E0.01215
G1 X145.123 Y94.729 E0.01354
G1 X144.973 Y95.087 E0.01217
G1 X144.702 Y95.479 E0.01491
G1 X144.394 Y95.773 E0.01337
G1 X144.003 Y96.010 E0.01433
G1 X143.639 Y96.140 E0.01213
G1 X143.214 Y96.202 E0.01345
G1 X142.737 Y96.161 E0.01502
G1 X142.379 Y96.049 E0.01178
G1 X142.055 Y95.878 E0.01146
G1 X141.668 Y95.591 E0.01511
G1 X141.450 Y95.347 E0.01025
G1 X141.223 Y94.959 E0.01410
G1 X141.082 Y94.602 E0.01204
G1 X141.013 Y94.171 E0.01367
G1 X141.386 Y94.112 F10800.000
G1 F1200.000
G1 X141.408 Y93.771 E0.01070
G1 X141.475 Y93.511 E0.00842
G1 X141.621 Y93.200 E0.01078
G1 X141.853 Y92.897 E0.01196
G1 X142.169 Y92.639 E0.01279
G1 X142.460 Y92.488 E0.01028
G1 X142.776 Y92.392 E0.01035
G1 X143.109 Y92.355 E0.01051
G1 X143.460 Y92.381 E0.01102
G1 X143.817 Y92.496 E0.01178
G1 X144.007 Y92.598 E0.00677
G1 X144.324 Y92.839 E0.01247
G1 X144.476 Y93.009 E0.00716
G1 X144.680 Y93.329 E0.01189
G1 X144.817 Y93.710 E0.01268
G1 X144.848 Y93.940 E0.00728
G1 X144.839 Y94.262 E0.01009
G1 X144.762 Y94.615 E0.01135
G1 X144.640 Y94.905 E0.00986
G1 X144.414 Y95.232 E0.01247
G1 X144.163 Y95.472 E0.01088
G1 X143.840 Y95.668 E0.01184
G1 X143.548 Y95.772 E0.00975
G1 X143.203 Y95.823 E0.01091
G1 X142.811 Y95.789 E0.01236
G1 X142.524 Y95.699 E0.00940
G1 X142.257 Y95.558 E0.00949
G1 X141.923 Y95.310 E0.01301
G1 X141.756 Y95.124 E0.00786
G1 X141.563 Y94.794 E0.01198
G1 X141.448 Y94.502 E0.00983
G1 X141.395 Y94.171 E0.01051
G1 X141.083 Y93.954 F10800.000
G1 F8640.000
G1 X141.408 Y93.771 E-0.09237
G1 X141.475 Y93.511 E-0.06199
G1 X141.621 Y93.200 E-0.07941
G1 X141.853 Y92.897 E-0.08804
G1 X142.169 Y92.639 E-0.09417
G1 X142.460 Y92.488 E-0.07573
G1 X142.776 Y92.392 E-0.07624
G1 X143.109 Y92.355 E-0.07740
G1 X143.460 Y92.381 E-0.08118
G1 X143.598 Y92.425 E-0.03347
G1 E-0.04000 F2100.00000
G1 Z0.600 F10800.000
G1 X145.619 Y91.639
G1 Z0.200
G1 E0.80000 F2100.00000
G1 F1200.000
G1 X145.574 Y93.794 E0.06759
G1 X145.504 Y95.261 E0.04603
G1 X145.406 Y96.728 E0.04610
G1 X145.280 Y98.193 E0.04610
G1 X145.126 Y99.655 E0.04610
G1 X144.945 Y101.114 E0.04610
G1 X144.736 Y102.570 E0.04610
G1 X144.499 Y104.021 E0.04610
G1 X144.234 Y105.467 E0.04610
G1 X143.942 Y106.908 E0.04610
G1 X143.623 Y108.343 E0.04610
G1 X143.276 Y109.772 E0.04610
G1 X142.902 Y111.194 E0.04610
G1 X142.502 Y112.609 E0.04610
G1 X142.074 Y114.016 E0.04610
G1 X141.620 Y115.414 E0.04610
G1 X141.139 Y116.803 E0.04610
G1 X140.633 Y118.180 E0.04597
G1 X140.382 Y118.806 E0.02115
G1 X140.107 Y119.417 E0.02102
G1 X139.808 Y120.017 E0.02102
G1 X139.482 Y120.612 E0.02127
G1 X133.863 Y130.376 E0.35321
G1 X133.006 Y130.038 E0.02885
G1 X132.229 Y129.776 E0.02573
G1 X131.448 Y129.541 E0.02559
G1 X130.658 Y129.333 E0.02559
G1 X129.862 Y129.153 E0.02559
G1 X129.061 Y129.000 E0.02559
G1 X128.255 Y128.874 E0.02559
G1 X127.444 Y128.776 E0.02559
G1 X126.631 Y128.706 E0.02559
G1 X125.816 Y128.664 E0.02559
G1 X125.000 Y128.650 E0.02559
G1 X124.184 Y128.664 E0.02559
G1 X123.369 Y128.706 E0.02559
G1 X122.556 Y128.776 E0.02559
G1 X121.746 Y128.874 E0.02559
G1 X120.940 Y129.000 E0.02559
G1 X120.138 Y129.153 E0.02559
G1 X119.342 Y129.333 E0.02559
G1 X118.553 Y129.541 E0.02559
G1 X117.771 Y129.776 E0.02559
G1 X116.994 Y130.038 E0.02573
G1 X116.138 Y130.376 E0.02885
G1 X110.519 Y120.612 E0.35321
G1 X110.192 Y120.017 E0.02127
G1 X109.893 Y119.417 E0.02102
G1 X109.619 Y118.806 E0.02102
G1 X109.368 Y118.180 E0.02115
G1 X108.862 Y116.803 E0.04597
G1 X108.381 Y115.414 E0.04610
G1 X107.927 Y114.016 E0.04610
G1 X107.499 Y112.609 E0.04610
G1 X107.098 Y111.194 E0.04610
G1 X106.724 Y109.772 E0.04610
G1 X106.378 Y108.343 E0.04610
G1 X106.058 Y106.908 E0.04610
G1 X105.766 Y105.467 E0.04610
G1 X105.502 Y104.021 E0.04610
G1 X105.265 Y102.570 E0.04610
G1 X105.056 Y101.114 E0.04610
G1 X104.874 Y99.655 E0.04610
G1 X104.721 Y98.193 E0.04610
G1 X104.595 Y96.728 E0.04610
G1 X104.497 Y95.261 E0.04610
G1 X104.427 Y93.792 E0.04610
G1 X104.378 Y91.639 E0.06752
G1 X145.559 Y91.639 E1.29118
G1 X146.003 Y91.262 F10800.000
G1 F1200.000
G1 X145.950 Y93.807 E0.07982
G1 X145.880 Y95.282 E0.04630
G1 X145.782 Y96.757 E0.04633
G1 X145.655 Y98.229 E0.04633
G1 X145.501 Y99.698 E0.04633
G1 X145.319 Y101.164 E0.04633
G1 X145.108 Y102.627 E0.04633
G1 X144.870 Y104.085 E0.04633
G1 X144.604 Y105.538 E0.04633
G1 X144.311 Y106.986 E0.04633
G1 X143.990 Y108.429 E0.04633
G1 X143.642 Y109.865 E0.04633
G1 X143.266 Y111.294 E0.04633
G1 X142.863 Y112.715 E0.04633
G1 X142.434 Y114.129 E0.04633
G1 X141.977 Y115.534 E0.04633
G1 X141.494 Y116.930 E0.04633
G1 X140.985 Y118.315 E0.04626
G1 X140.729 Y118.953 E0.02156
G1 X140.448 Y119.579 E0.02149
G1 X140.142 Y120.192 E0.02149
G1 X139.810 Y120.797 E0.02162
G1 X134.027 Y130.846 E0.36354
G1 X132.877 Y130.393 E0.03876
G1 X132.115 Y130.135 E0.02523
G1 X131.345 Y129.904 E0.02518
G1 X130.569 Y129.700 E0.02518
G1 X129.785 Y129.522 E0.02518
G1 X128.996 Y129.371 E0.02518
G1 X128.203 Y129.248 E0.02518
G1 X127.406 Y129.151 E0.02518
G1 X126.605 Y129.083 E0.02518
G1 X125.803 Y129.041 E0.02518
G1 X125.000 Y129.028 E0.02518
G1 X124.197 Y129.041 E0.02518
G1 X123.395 Y129.083 E0.02518
G1 X122.595 Y129.151 E0.02518
G1 X121.798 Y129.248 E0.02518
G1 X121.004 Y129.371 E0.02518
G1 X120.215 Y129.522 E0.02518
G1 X119.432 Y129.700 E0.02518
G1 X118.655 Y129.904 E0.02518
G1 X117.886 Y130.135 E0.02518
G1 X117.124 Y130.393 E0.02523
G1 X115.973 Y130.846 E0.03876
G1 X110.190 Y120.797 E0.36354
G1 X109.858 Y120.192 E0.02162
G1 X109.553 Y119.579 E0.02149
G1 X109.272 Y118.953 E0.02149
G1 X109.016 Y118.315 E0.02156
G1 X108.507 Y116.930 E0.04626
G1 X108.023 Y115.534 E0.04633
G1 X107.567 Y114.129 E0.04633
