; generated by PrusaSlicer 2.2.0+win64 on 2020-12-02 at 13:31:36 UTC

; 

; external perimeters extrusion width = 0.45mm
; perimeters extrusion width = 0.45mm
; infill extrusion width = 0.45mm
; solid infill extrusion width = 0.45mm
; top infill extrusion width = 0.40mm
; first layer extrusion width = 0.42mm

; external perimeters extrusion width = 0.45mm
; perimeters extrusion width = 0.45mm
; infill extrusion width = 0.45mm
; solid infill extrusion width = 0.45mm
; top infill extrusion width = 0.40mm
; first layer extrusion width = 0.42mm

; external perimeters extrusion width = 0.45mm
; perimeters extrusion width = 0.45mm
; infill extrusion width = 0.45mm
; solid infill extrusion width = 0.45mm
; top infill extrusion width = 0.40mm
; first layer extrusion width = 0.42mm

M73 P0 R288
M73 Q0 S299
M201 X1000 Y1000 Z200 E5000 ; sets maximum accelerations, mm/sec^2
M203 X200 Y200 Z12 E120 ; sets maximum feedrates, mm/sec
M204 P1250 R1250 T1250 ; sets acceleration (P, T) and retract acceleration (R), mm/sec^2
M205 X8.00 Y8.00 Z0.40 E4.50 ; sets the jerk limits, mm/sec
M205 S0 T0 ; sets the minimum extruding and travel feed rate, mm/sec
M107
M862.3 P "MK3SMMU2S" ; printer model check
M862.1 P0.4 ; nozzle diameter check
M115 U3.9.1 ; tell printer latest fw version
G90 ; use absolute coordinates
M83 ; extruder relative mode
M104 S215 ; set extruder temp
M140 S60 ; set bed temp
Tx
M190 S60 ; wait for bed temp
M109 S215 ; wait for extruder temp
G28 W ; home all without mesh bed level
G80 ; mesh bed leveling

;go outside print area
G1 Y-3.0 F1000.0
G1 Z0.4 F1000.0
; select extruder
Tc
; purge line
G1 X55.0 F2000.0
G1 Z0.3 F1000.0
G92 E0.0
G1 X240.0 E25.0 F2200.0
M73 Q0 S299
M73 P0 R288
G1 Y-2.0 F1000.0
G1 X55.0 E25 F1400.0
G1 Z0.20 F1000.0
G1 X5.0 E4.0 F1000.0

M221 S95
G92 E0.0

; Don't change E values below. Excessive value can damage the printer.

M907 E538 ; set extruder motor current
G21 ; set units to millimeters
G90 ; use absolute coordinates
M83 ; use relative distances for extrusion
M900 K0.05 ; Filament gcode LA 1.5
M900 K30 ; Filament gcode LA 1.0
;BEFORE_LAYER_CHANGE
G92 E0.0
;0.2


G1 E-0.80000 F2100.00000
G1 Z0.600 F10800.000
;AFTER_LAYER_CHANGE
;0.2
G1 X32.802 Y14.094
G1 Z0.200
G1 E0.80000 F2100.00000
M204 S1000
G1 F1200.000
G1 X33.308 Y13.330 E0.02872
G1 X34.079 Y12.809 E0.02919
G1 X34.991 Y12.623 E0.02919
G1 X215.004 Y12.623 E5.64417
G1 X215.906 Y12.802 E0.02884
G1 X216.675 Y13.313 E0.02896
G1 X217.191 Y14.079 E0.02896
G1 X217.377 Y14.980 E0.02884
G1 X217.377 Y195.008 E5.64464
G1 X217.198 Y195.906 E0.02872
G1 X216.692 Y196.670 E0.02872
G1 X215.917 Y197.193 E0.02931
G1 X215.000 Y197.377 E0.02934
G1 X34.992 Y197.377 E5.64401
G1 X34.094 Y197.198 E0.02872
G1 X33.330 Y196.692 E0.02872
G1 X32.807 Y195.917 E0.02931
G1 X32.623 Y195.000 E0.02934
G1 X32.623 Y14.992 E5.64401
G1 X32.791 Y14.153 E0.02684
G1 F8640.000
G1 X33.308 Y13.330 E-0.22440
G1 X34.079 Y12.809 E-0.21496
G1 X34.991 Y12.623 E-0.21496
G1 X35.449 Y12.623 E-0.10568
G1 E-0.04000 F2100.00000
G1 Z0.800 F10800.000
G1 X123.805 Y177.930
G1 Z0.200
G1 E0.80000 F2100.00000
G1 F1200.000
G1 X124.183 Y177.754 E0.01306
G1 X124.585 Y177.646 E0.01306
G1 X124.967 Y177.613 E0.01203
G1 X125.411 Y177.645 E0.01395
G1 X125.817 Y177.754 E0.01320
G1 X126.195 Y177.930 E0.01306
G1 X126.536 Y178.169 E0.01306
G1 X126.831 Y178.464 E0.01306
G1 X127.070 Y178.805 E0.01306
G1 X127.232 Y179.153 E0.01203
G1 X127.353 Y179.581 E0.01395
G1 X127.390 Y180.000 E0.01320
G1 X127.354 Y180.415 E0.01306
G1 X127.246 Y180.817 E0.01306
G1 X127.084 Y181.165 E0.01203
G1 X126.834 Y181.533 E0.01395
G1 X126.536 Y181.831 E0.01320
G1 X126.195 Y182.070 E0.01306
G1 X125.817 Y182.246 E0.01306
G1 X125.415 Y182.354 E0.01306
G1 X125.000 Y182.390 E0.01306
G1 X124.585 Y182.354 E0.01306
G1 X124.183 Y182.246 E0.01306
G1 X123.805 Y182.070 E0.01306
G1 X123.464 Y181.831 E0.01306
G1 X123.169 Y181.536 E0.01306
G1 X122.930 Y181.195 E0.01306
G1 X122.768 Y180.847 E0.01203
G1 X122.647 Y180.419 E0.01395
G1 X122.610 Y180.000 E0.01320
G1 X122.646 Y179.585 E0.01306
G1 X122.754 Y179.183 E0.01306
G1 X122.930 Y178.805 E0.01306
G1 X123.169 Y178.464 E0.01306
G1 X123.464 Y178.169 E0.01306
G1 X123.756 Y177.965 E0.01118
G1 X123.972 Y178.273 F10800.000
G1 F1200.000
G1 X124.312 Y178.110 E0.01183
G1 X124.651 Y178.019 E0.01099
G1 X124.970 Y177.991 E0.01005
G1 X125.348 Y178.019 E0.01188
G1 X125.688 Y178.110 E0.01104
G1 X126.006 Y178.258 E0.01099
G1 X126.293 Y178.459 E0.01099
G1 X126.541 Y178.707 E0.01099
G1 X126.742 Y178.994 E0.01099
G1 X126.877 Y179.285 E0.01005
G1 X126.981 Y179.649 E0.01188
G1 X127.012 Y180.000 E0.01104
G1 X126.981 Y180.349 E0.01099
G1 X126.890 Y180.688 E0.01099
G1 X126.755 Y180.978 E0.01005
G1 X126.542 Y181.292 E0.01188
G1 X126.293 Y181.541 E0.01104
G1 X126.006 Y181.742 E0.01099
G1 X125.688 Y181.890 E0.01099
G1 X125.349 Y181.981 E0.01099
G1 X125.000 Y182.012 E0.01099
G1 X124.651 Y181.981 E0.01099
G1 X124.312 Y181.890 E0.01099
G1 X123.994 Y181.742 E0.01099
G1 X123.707 Y181.541 E0.01099
G1 X123.459 Y181.293 E0.01099
G1 X123.258 Y181.006 E0.01099
G1 X123.123 Y180.715 E0.01005
G1 X123.019 Y180.351 E0.01188
G1 X122.988 Y180.000 E0.01104
G1 X123.019 Y179.651 E0.01099
G1 X123.110 Y179.312 E0.01099
G1 X123.258 Y178.994 E0.01099
G1 X123.459 Y178.707 E0.01099
G1 X123.707 Y178.459 E0.01099
G1 X123.923 Y178.308 E0.00827
G1 X123.969 Y177.896 F10800.000
G1 F8640.000
G1 X124.312 Y178.110 E-0.10081
G1 X124.651 Y178.019 E-0.08096
G1 X124.970 Y177.991 E-0.07398
G1 X125.348 Y178.019 E-0.08750
G1 X125.688 Y178.110 E-0.08132
G1 X126.006 Y178.258 E-0.08097
G1 X126.293 Y178.459 E-0.08096
G1 X126.541 Y178.707 E-0.08096
G1 X126.742 Y178.994 E-0.08096
G1 X126.763 Y179.040 E-0.01158
G1 E-0.04000 F2100.00000
G1 Z0.800 F10800.000
G1 X198.169 Y106.536
G1 Z0.200
G1 E0.80000 F2100.00000
G1 F1200.000
G1 X197.930 Y106.195 E0.01306
G1 X197.754 Y105.817 E0.01306
G1 X197.646 Y105.415 E0.01306
G1 X197.610 Y105.000 E0.01306
G1 X197.646 Y104.585 E0.01306
G1 X197.754 Y104.183 E0.01306
G1 X197.930 Y103.805 E0.01306
G1 X198.169 Y103.464 E0.01306
G1 X198.464 Y103.169 E0.01306
G1 X198.805 Y102.930 E0.01306
G1 X199.183 Y102.754 E0.01306
G1 X199.585 Y102.646 E0.01306
G1 X199.967 Y102.613 E0.01203
G1 X200.411 Y102.645 E0.01395
G1 X200.817 Y102.754 E0.01320
G1 X201.195 Y102.930 E0.01306
G1 X201.536 Y103.169 E0.01306
G1 X201.831 Y103.464 E0.01306
G1 X202.070 Y103.805 E0.01306
G1 X202.246 Y104.183 E0.01306
G1 X202.354 Y104.585 E0.01306
G1 X202.390 Y105.000 E0.01306
G1 X202.354 Y105.415 E0.01306
G1 X202.246 Y105.817 E0.01306
G1 X202.070 Y106.195 E0.01306
G1 X201.831 Y106.536 E0.01306
G1 X201.536 Y106.831 E0.01306
G1 X201.195 Y107.070 E0.01306
G1 X200.847 Y107.232 E0.01203
G1 X200.419 Y107.353 E0.01395
G1 X200.000 Y107.390 E0.01320
G1 X199.585 Y107.354 E0.01306
G1 X199.183 Y107.246 E0.01306
G1 X198.835 Y107.084 E0.01203
G1 X198.467 Y106.834 E0.01395
G1 X198.212 Y106.579 E0.01132
G1 X198.478 Y106.312 F10800.000
G1 F1200.000
G1 X198.258 Y106.006 E0.01183
G1 X198.110 Y105.688 E0.01099
G1 X198.019 Y105.349 E0.01099
G1 X197.988 Y105.000 E0.01099
G1 X198.019 Y104.651 E0.01099
G1 X198.110 Y104.312 E0.01099
G1 X198.258 Y103.994 E0.01099
G1 X198.459 Y103.707 E0.01099
G1 X198.707 Y103.459 E0.01099
G1 X198.994 Y103.258 E0.01099
G1 X199.312 Y103.110 E0.01099
G1 X199.651 Y103.019 E0.01099
G1 X199.970 Y102.991 E0.01005
G1 X200.348 Y103.019 E0.01188
G1 X200.688 Y103.110 E0.01104
G1 X201.006 Y103.258 E0.01099
G1 X201.293 Y103.459 E0.01099
G1 X201.541 Y103.707 E0.01099
G1 X201.742 Y103.994 E0.01099
G1 X201.890 Y104.312 E0.01099
G1 X201.981 Y104.651 E0.01099
G1 X202.012 Y105.000 E0.01099
G1 X201.981 Y105.349 E0.01099
G1 X201.890 Y105.688 E0.01099
G1 X201.742 Y106.006 E0.01099
G1 X201.541 Y106.293 E0.01099
G1 X201.293 Y106.541 E0.01099
G1 X201.006 Y106.742 E0.01099
G1 X200.715 Y106.877 E0.01005
G1 X200.351 Y106.981 E0.01188
G1 X200.000 Y107.012 E0.01104
G1 X199.651 Y106.981 E0.01099
G1 X199.312 Y106.890 E0.01099
G1 X199.022 Y106.755 E0.01005
G1 X198.708 Y106.542 E0.01188
G1 X198.521 Y106.355 E0.00831
G1 X198.108 Y106.382 F10800.000
G1 F8640.000
G1 X198.258 Y106.006 E-0.10081
G1 X198.110 Y105.688 E-0.08096
G1 X198.019 Y105.349 E-0.08096
G1 X197.988 Y105.000 E-0.08096
G1 X198.019 Y104.651 E-0.08096
G1 X198.110 Y104.312 E-0.08096
G1 X198.258 Y103.994 E-0.08097
G1 X198.459 Y103.707 E-0.08096
G1 X198.707 Y103.459 E-0.08096
G1 X198.748 Y103.431 E-0.01148
G1 E-0.04000 F2100.00000
G1 Z0.800 F10800.000
G1 X170.808 Y105.000
G1 Z0.200
G1 E0.80000 F2100.00000
G1 F1200.000
G1 X172.304 Y106.547 E0.06748
G1 X174.269 Y108.716 E0.09177
G1 X176.162 Y110.948 E0.09177
G1 X177.980 Y113.242 E0.09177
G1 X179.722 Y115.594 E0.09177
G1 X181.385 Y118.002 E0.09177
G1 X182.969 Y120.463 E0.09177
G1 X184.470 Y122.976 E0.09177
G1 X185.889 Y125.536 E0.09177
G1 X187.222 Y128.141 E0.09177
G1 X188.470 Y130.792 E0.09187
G1 X189.014 Y132.081 E0.04385
G1 X189.494 Y133.398 E0.04395
G1 X189.909 Y134.736 E0.04395
G1 X190.255 Y136.085 E0.04365
G1 X198.431 Y171.511 E1.13995
G1 X198.551 Y172.255 E0.02364
G1 X198.570 Y173.036 E0.02448
G1 X198.483 Y173.812 E0.02448
G1 X198.294 Y174.569 E0.02448
G1 X198.004 Y175.294 E0.02448
G1 X197.619 Y175.973 E0.02448
G1 X197.146 Y176.594 E0.02448
G1 X196.594 Y177.146 E0.02448
G1 X195.973 Y177.619 E0.02448
G1 X195.294 Y178.004 E0.02448
G1 X194.569 Y178.294 E0.02448
G1 X193.812 Y178.483 E0.02448
G1 X193.036 Y178.570 E0.02448
G1 X192.255 Y178.551 E0.02448
G1 X191.511 Y178.431 E0.02364
G1 X156.085 Y170.255 E1.13995
M73 Q0 S298
M73 P0 R287
G1 X154.736 Y169.909 E0.04365
G1 X153.398 Y169.494 E0.04395
G1 X152.081 Y169.014 E0.04395
G1 X150.792 Y168.470 E0.04385
G1 X148.141 Y167.222 E0.09187
G1 X145.536 Y165.889 E0.09177
G1 X142.976 Y164.470 E0.09177
G1 X140.463 Y162.969 E0.09177
G1 X138.002 Y161.385 E0.09177
G1 X135.594 Y159.722 E0.09177
G1 X133.242 Y157.980 E0.09177
G1 X130.948 Y156.162 E0.09177
G1 X128.716 Y154.269 E0.09177
G1 X126.547 Y152.304 E0.09177
G1 X125.000 Y150.808 E0.06748
G1 X123.453 Y152.304 E0.06748
G1 X121.284 Y154.269 E0.09177
G1 X119.052 Y156.162 E0.09177
G1 X116.758 Y157.980 E0.09177
G1 X114.406 Y159.722 E0.09177
G1 X111.998 Y161.385 E0.09177
G1 X109.537 Y162.969 E0.09177
G1 X107.024 Y164.470 E0.09177
G1 X104.464 Y165.889 E0.09177
G1 X101.859 Y167.222 E0.09177
G1 X99.208 Y168.470 E0.09187
G1 X97.919 Y169.014 E0.04385
G1 X96.602 Y169.494 E0.04395
G1 X95.264 Y169.909 E0.04395
G1 X93.915 Y170.255 E0.04365
G1 X58.489 Y178.431 E1.13995
G1 X57.745 Y178.551 E0.02364
G1 X56.964 Y178.570 E0.02448
G1 X56.188 Y178.483 E0.02448
G1 X55.431 Y178.294 E0.02448
G1 X54.706 Y178.004 E0.02448
G1 X54.027 Y177.619 E0.02448
G1 X53.406 Y177.146 E0.02448
G1 X52.854 Y176.594 E0.02448
G1 X52.381 Y175.973 E0.02448
G1 X51.996 Y175.294 E0.02448
G1 X51.706 Y174.569 E0.02448
G1 X51.517 Y173.812 E0.02448
G1 X51.430 Y173.036 E0.02448
G1 X51.449 Y172.255 E0.02448
G1 X51.569 Y171.511 E0.02364
G1 X59.745 Y136.085 E1.13995
G1 X60.091 Y134.736 E0.04365
G1 X60.506 Y133.398 E0.04395
G1 X60.986 Y132.081 E0.04395
G1 X61.530 Y130.792 E0.04385
G1 X62.778 Y128.141 E0.09187
G1 X64.111 Y125.536 E0.09177
G1 X65.530 Y122.976 E0.09177
G1 X67.031 Y120.463 E0.09177
G1 X68.615 Y118.002 E0.09177
G1 X70.278 Y115.594 E0.09177
G1 X72.020 Y113.242 E0.09177
G1 X73.838 Y110.948 E0.09177
G1 X75.731 Y108.716 E0.09177
G1 X77.696 Y106.547 E0.09177
G1 X79.192 Y105.000 E0.06748
G1 X77.696 Y103.453 E0.06748
G1 X75.731 Y101.284 E0.09177
G1 X73.838 Y99.052 E0.09177
G1 X72.020 Y96.758 E0.09177
G1 X70.278 Y94.406 E0.09177
G1 X68.615 Y91.998 E0.09177
G1 X67.031 Y89.537 E0.09177
G1 X65.530 Y87.024 E0.09177
G1 X64.111 Y84.464 E0.09177
G1 X62.778 Y81.859 E0.09177
G1 X61.530 Y79.208 E0.09187
G1 X60.986 Y77.919 E0.04385
G1 X60.506 Y76.602 E0.04395
G1 X60.091 Y75.264 E0.04395
G1 X59.745 Y73.915 E0.04365
G1 X51.569 Y38.489 E1.13995
G1 X51.449 Y37.745 E0.02364
G1 X51.430 Y36.964 E0.02448
G1 X51.517 Y36.188 E0.02448
G1 X51.706 Y35.431 E0.02448
G1 X51.996 Y34.706 E0.02448
G1 X52.381 Y34.027 E0.02448
G1 X52.854 Y33.406 E0.02448
G1 X53.406 Y32.854 E0.02448
G1 X54.027 Y32.381 E0.02448
G1 X54.706 Y31.996 E0.02448
G1 X55.431 Y31.706 E0.02448
G1 X56.188 Y31.517 E0.02448
G1 X56.964 Y31.430 E0.02448
G1 X57.745 Y31.449 E0.02448
G1 X58.489 Y31.569 E0.02364
G1 X93.915 Y39.745 E1.13995
G1 X95.264 Y40.091 E0.04365
G1 X96.602 Y40.506 E0.04395
G1 X97.919 Y40.986 E0.04395
G1 X99.208 Y41.530 E0.04385
G1 X101.859 Y42.778 E0.09187
G1 X104.464 Y44.111 E0.09177
G1 X107.024 Y45.530 E0.09177
G1 X109.537 Y47.031 E0.09177
G1 X111.998 Y48.615 E0.09177
G1 X114.406 Y50.278 E0.09177
G1 X116.758 Y52.020 E0.09177
G1 X119.052 Y53.838 E0.09177
G1 X121.284 Y55.731 E0.09177
G1 X123.453 Y57.696 E0.09177
G1 X125.000 Y59.192 E0.06748
G1 X126.547 Y57.696 E0.06748
G1 X128.716 Y55.731 E0.09177
G1 X130.948 Y53.838 E0.09177
G1 X133.242 Y52.020 E0.09177
G1 X135.594 Y50.278 E0.09177
G1 X138.002 Y48.615 E0.09177
G1 X140.463 Y47.031 E0.09177
G1 X142.976 Y45.530 E0.09177
G1 X145.536 Y44.111 E0.09177
G1 X148.141 Y42.778 E0.09177
G1 X150.792 Y41.530 E0.09187
G1 X152.081 Y40.986 E0.04385
G1 X153.398 Y40.506 E0.04395
G1 X154.736 Y40.091 E0.04395
G1 X156.085 Y39.745 E0.04365
G1 X191.511 Y31.569 E1.13995
G1 X192.255 Y31.449 E0.02364
G1 X193.036 Y31.430 E0.02448
G1 X193.812 Y31.517 E0.02448
G1 X194.569 Y31.706 E0.02448
G1 X195.295 Y31.997 E0.02451
G1 X195.990 Y32.394 E0.02511
G1 X196.594 Y32.854 E0.02381
G1 X197.147 Y33.407 E0.02451
G1 X197.629 Y34.046 E0.02511
G1 X198.004 Y34.706 E0.02381
G1 X198.294 Y35.431 E0.02448
G1 X198.483 Y36.188 E0.02448
G1 X198.570 Y36.964 E0.02448
G1 X198.551 Y37.745 E0.02448
G1 X198.431 Y38.489 E0.02364
G1 X190.255 Y73.915 E1.13995
G1 X189.909 Y75.264 E0.04365
G1 X189.494 Y76.602 E0.04395
G1 X189.014 Y77.919 E0.04395
G1 X188.470 Y79.208 E0.04385
G1 X187.222 Y81.859 E0.09187
G1 X185.889 Y84.464 E0.09177
G1 X184.470 Y87.024 E0.09177
G1 X182.969 Y89.537 E0.09177
G1 X181.385 Y91.998 E0.09177
G1 X179.722 Y94.406 E0.09177
G1 X177.980 Y96.758 E0.09177
G1 X176.162 Y99.052 E0.09177
G1 X174.269 Y101.284 E0.09177
G1 X172.304 Y103.453 E0.09177
G1 X170.849 Y104.957 E0.06560
G1 X170.283 Y105.000 F10800.000
G1 F1200.000
G1 X172.029 Y106.804 E0.07873
G1 X173.986 Y108.964 E0.09138
G1 X175.870 Y111.187 E0.09138
G1 X177.681 Y113.471 E0.09138
G1 X179.415 Y115.813 E0.09138
G1 X181.072 Y118.211 E0.09138
G1 X182.648 Y120.662 E0.09138
G1 X184.144 Y123.164 E0.09138
G1 X185.556 Y125.713 E0.09138
G1 X186.883 Y128.308 E0.09138
G1 X188.126 Y130.946 E0.09143
G1 X188.662 Y132.219 E0.04332
G1 X189.137 Y133.518 E0.04337
G1 X189.546 Y134.839 E0.04337
G1 X189.889 Y136.174 E0.04321
G1 X198.061 Y171.583 E1.13941
G1 X198.174 Y172.290 E0.02244
G1 X198.192 Y173.019 E0.02288
G1 X198.111 Y173.745 E0.02288
G1 X197.934 Y174.452 E0.02288
G1 X197.663 Y175.130 E0.02288
G1 X197.303 Y175.765 E0.02288
G1 X196.861 Y176.345 E0.02288
G1 X196.346 Y176.861 E0.02288
G1 X195.765 Y177.303 E0.02288
G1 X195.130 Y177.663 E0.02288
G1 X194.452 Y177.934 E0.02288
G1 X193.745 Y178.111 E0.02288
G1 X193.019 Y178.192 E0.02288
G1 X192.290 Y178.174 E0.02288
G1 X191.583 Y178.061 E0.02244
G1 X156.174 Y169.889 E1.13941
G1 X154.839 Y169.546 E0.04321
G1 X153.518 Y169.137 E0.04337
G1 X152.219 Y168.662 E0.04337
G1 X150.946 Y168.126 E0.04332
G1 X148.308 Y166.883 E0.09143
G1 X145.713 Y165.556 E0.09138
G1 X143.164 Y164.144 E0.09138
G1 X140.662 Y162.648 E0.09138
G1 X138.211 Y161.072 E0.09138
G1 X135.813 Y159.415 E0.09138
G1 X133.471 Y157.681 E0.09138
G1 X131.187 Y155.870 E0.09138
G1 X128.964 Y153.986 E0.09138
G1 X126.804 Y152.029 E0.09138
G1 X125.000 Y150.283 E0.07873
G1 X123.196 Y152.029 E0.07873
G1 X121.036 Y153.986 E0.09138
G1 X118.813 Y155.870 E0.09138
G1 X116.529 Y157.681 E0.09138
G1 X114.187 Y159.415 E0.09138
G1 X111.789 Y161.072 E0.09138
G1 X109.338 Y162.648 E0.09138
G1 X106.836 Y164.144 E0.09138
G1 X104.287 Y165.556 E0.09138
G1 X101.692 Y166.883 E0.09138
G1 X99.054 Y168.126 E0.09143
G1 X97.781 Y168.662 E0.04332
G1 X96.482 Y169.137 E0.04337
G1 X95.161 Y169.546 E0.04337
G1 X93.826 Y169.889 E0.04321
G1 X58.417 Y178.061 E1.13941
G1 X57.710 Y178.174 E0.02244
G1 X56.981 Y178.192 E0.02288
G1 X56.255 Y178.111 E0.02288
G1 X55.548 Y177.934 E0.02288
