; generated by PrusaSlicer 2.2.0+win64 on 2021-01-03 at 00:56:18 UTC

; 

; external perimeters extrusion width = 0.45mm
; perimeters extrusion width = 0.45mm
; infill extrusion width = 0.45mm
; solid infill extrusion width = 0.45mm
; top infill extrusion width = 0.40mm
; first layer extrusion width = 0.42mm

; external perimeters extrusion width = 0.45mm
; perimeters extrusion width = 0.45mm
; infill extrusion width = 0.45mm
; solid infill extrusion width = 0.45mm
; top infill extrusion width = 0.40mm
; first layer extrusion width = 0.42mm

M73 P0 R217
M73 Q0 S222
M201 X1000 Y1000 Z200 E5000 ; sets maximum accelerations, mm/sec^2
M203 X200 Y200 Z12 E120 ; sets maximum feedrates, mm/sec
M204 P1250 R1250 T1250 ; sets acceleration (P, T) and retract acceleration (R), mm/sec^2
M205 X8.00 Y8.00 Z0.40 E4.50 ; sets the jerk limits, mm/sec
M205 S0 T0 ; sets the minimum extruding and travel feed rate, mm/sec
M107
M862.3 P "MK3SMMU2S" ; printer model check
M862.1 P0.4 ; nozzle diameter check
M115 U3.9.1 ; tell printer latest fw version
G90 ; use absolute coordinates
M83 ; extruder relative mode
M104 S215 ; set extruder temp
M140 S60 ; set bed temp
Tx
M190 S60 ; wait for bed temp
M109 S215 ; wait for extruder temp
G28 W ; home all without mesh bed level
G80 ; mesh bed leveling

;go outside print area
G1 Y-3.0 F1000.0
G1 Z0.4 F1000.0
; select extruder
Tc
; purge line
G1 X55.0 F2000.0
G1 Z0.3 F1000.0
G92 E0.0
G1 X240.0 E25.0 F2200.0
M73 Q0 S221
M73 P0 R217
G1 Y-2.0 F1000.0
G1 X55.0 E25 F1400.0
G1 Z0.20 F1000.0
G1 X5.0 E4.0 F1000.0

M221 S95
G92 E0.0

; Don't change E values below. Excessive value can damage the printer.

M907 E538 ; set extruder motor current
G21 ; set units to millimeters
G90 ; use absolute coordinates
M83 ; use relative distances for extrusion
M900 K0.06 ; Filament gcode LA 1.5
M900 K30 ; Filament gcode LA 1.0
;BEFORE_LAYER_CHANGE
G92 E0.0
;0.2


G1 E-0.80000 F2100.00000
G1 Z0.600 F10800.000
;AFTER_LAYER_CHANGE
;0.2
G1 X42.802 Y24.094
G1 Z0.200
G1 E0.80000 F2100.00000
M204 S1000
G1 F1200.000
G1 X43.308 Y23.330 E0.02872
G1 X44.079 Y22.809 E0.02919
G1 X44.991 Y22.623 E0.02919
G1 X205.004 Y22.623 E5.01708
G1 X205.906 Y22.802 E0.02884
G1 X206.675 Y23.313 E0.02896
G1 X207.190 Y24.076 E0.02884
G1 X207.377 Y24.976 E0.02884
G1 X207.377 Y185.011 E5.01780
G1 X207.198 Y185.906 E0.02860
G1 X206.692 Y186.670 E0.02872
G1 X205.917 Y187.193 E0.02931
G1 X205.000 Y187.377 E0.02934
G1 X44.989 Y187.377 E5.01705
G1 X44.094 Y187.198 E0.02860
G1 X43.330 Y186.692 E0.02872
G1 X42.807 Y185.917 E0.02931
G1 X42.623 Y185.000 E0.02934
G1 X42.623 Y24.989 E5.01705
G1 X42.791 Y24.153 E0.02672
G1 F8640.000
G1 X43.308 Y23.330 E-0.22440
G1 X44.079 Y22.809 E-0.21496
G1 X44.991 Y22.623 E-0.21496
G1 X45.449 Y22.623 E-0.10568
G1 E-0.04000 F2100.00000
G1 Z0.800 F10800.000
G1 X123.805 Y177.930
G1 Z0.200
G1 E0.80000 F2100.00000
G1 F1200.000
G1 X124.183 Y177.754 E0.01306
G1 X124.585 Y177.646 E0.01306
G1 X124.959 Y177.614 E0.01176
G1 X125.410 Y177.645 E0.01418
G1 X125.817 Y177.754 E0.01323
G1 X126.195 Y177.930 E0.01306
G1 X126.536 Y178.169 E0.01306
G1 X126.831 Y178.464 E0.01306
G1 X127.070 Y178.805 E0.01306
G1 X127.228 Y179.145 E0.01176
G1 X127.353 Y179.580 E0.01418
G1 X127.390 Y180.000 E0.01323
G1 X127.354 Y180.415 E0.01306
G1 X127.246 Y180.817 E0.01306
G1 X127.070 Y181.195 E0.01306
G1 X126.831 Y181.536 E0.01306
G1 X126.566 Y181.802 E0.01176
G1 X126.200 Y182.068 E0.01418
G1 X125.817 Y182.246 E0.01323
G1 X125.415 Y182.354 E0.01306
G1 X125.000 Y182.390 E0.01306
G1 X124.585 Y182.354 E0.01306
G1 X124.183 Y182.246 E0.01306
G1 X123.805 Y182.070 E0.01306
G1 X123.464 Y181.831 E0.01306
G1 X123.169 Y181.536 E0.01306
G1 X122.930 Y181.195 E0.01306
G1 X122.772 Y180.855 E0.01176
G1 X122.647 Y180.420 E0.01418
G1 X122.610 Y180.000 E0.01323
G1 X122.646 Y179.585 E0.01306
G1 X122.754 Y179.183 E0.01306
G1 X122.930 Y178.805 E0.01306
G1 X123.169 Y178.464 E0.01306
G1 X123.464 Y178.169 E0.01306
G1 X123.756 Y177.965 E0.01118
G1 X123.972 Y178.273 F10800.000
G1 F1200.000
G1 X124.312 Y178.110 E0.01183
G1 X124.651 Y178.019 E0.01099
G1 X124.962 Y177.992 E0.00980
G1 X125.347 Y178.019 E0.01211
G1 X125.688 Y178.110 E0.01105
G1 X126.006 Y178.258 E0.01099
G1 X126.293 Y178.459 E0.01099
G1 X126.541 Y178.707 E0.01099
G1 X126.742 Y178.994 E0.01099
G1 X126.874 Y179.277 E0.00980
G1 X126.981 Y179.649 E0.01211
G1 X127.012 Y180.000 E0.01105
G1 X126.981 Y180.349 E0.01099
G1 X126.890 Y180.688 E0.01099
G1 X126.742 Y181.006 E0.01099
G1 X126.541 Y181.293 E0.01099
G1 X126.320 Y181.514 E0.00980
G1 X126.008 Y181.741 E0.01211
G1 X125.688 Y181.890 E0.01105
G1 X125.349 Y181.981 E0.01099
G1 X125.000 Y182.012 E0.01099
G1 X124.651 Y181.981 E0.01099
G1 X124.312 Y181.890 E0.01099
G1 X123.994 Y181.742 E0.01099
G1 X123.707 Y181.541 E0.01099
G1 X123.459 Y181.293 E0.01099
G1 X123.258 Y181.006 E0.01099
G1 X123.126 Y180.723 E0.00980
G1 X123.019 Y180.351 E0.01211
G1 X122.988 Y180.000 E0.01105
G1 X123.019 Y179.651 E0.01099
G1 X123.110 Y179.312 E0.01099
G1 X123.258 Y178.994 E0.01099
G1 X123.459 Y178.707 E0.01099
G1 X123.707 Y178.459 E0.01099
G1 X123.923 Y178.308 E0.00827
G1 X123.969 Y177.896 F10800.000
G1 F8640.000
G1 X124.312 Y178.110 E-0.10081
G1 X124.651 Y178.019 E-0.08096
G1 X124.962 Y177.992 E-0.07216
G1 X125.347 Y178.019 E-0.08922
G1 X125.688 Y178.110 E-0.08140
G1 X126.006 Y178.258 E-0.08097
G1 X126.293 Y178.459 E-0.08096
G1 X126.541 Y178.707 E-0.08096
G1 X126.742 Y178.994 E-0.08096
G1 X126.763 Y179.040 E-0.01160
G1 E-0.04000 F2100.00000
G1 Z0.800 F10800.000
G1 X197.932 Y106.200
G1 Z0.200
G1 E0.80000 F2100.00000
G1 F1200.000
G1 X197.754 Y105.817 E0.01323
G1 X197.646 Y105.415 E0.01306
G1 X197.610 Y105.000 E0.01306
G1 X197.646 Y104.585 E0.01306
G1 X197.754 Y104.183 E0.01306
G1 X197.930 Y103.805 E0.01306
G1 X198.169 Y103.464 E0.01306
G1 X198.464 Y103.169 E0.01306
G1 X198.805 Y102.930 E0.01306
G1 X199.183 Y102.754 E0.01306
G1 X199.585 Y102.646 E0.01306
G1 X199.959 Y102.614 E0.01176
G1 X200.410 Y102.645 E0.01418
G1 X200.817 Y102.754 E0.01323
G1 X201.195 Y102.930 E0.01306
G1 X201.536 Y103.169 E0.01306
G1 X201.831 Y103.464 E0.01306
G1 X202.070 Y103.805 E0.01306
G1 X202.228 Y104.145 E0.01176
G1 X202.353 Y104.580 E0.01418
G1 X202.390 Y105.000 E0.01323
G1 X202.354 Y105.415 E0.01306
G1 X202.246 Y105.817 E0.01306
G1 X202.070 Y106.195 E0.01306
G1 X201.831 Y106.536 E0.01306
G1 X201.536 Y106.831 E0.01306
G1 X201.195 Y107.070 E0.01306
G1 X200.855 Y107.228 E0.01176
G1 X200.420 Y107.353 E0.01418
G1 X200.000 Y107.390 E0.01323
G1 X199.585 Y107.354 E0.01306
G1 X199.183 Y107.246 E0.01306
G1 X198.805 Y107.070 E0.01306
G1 X198.464 Y106.831 E0.01306
G1 X198.198 Y106.566 E0.01176
G1 X197.968 Y106.248 E0.01230
G1 X198.273 Y106.027 F10800.000
G1 F1200.000
G1 X198.110 Y105.688 E0.01178
G1 X198.019 Y105.349 E0.01099
G1 X197.988 Y105.000 E0.01099
G1 X198.019 Y104.651 E0.01099
G1 X198.110 Y104.312 E0.01099
G1 X198.258 Y103.994 E0.01099
G1 X198.459 Y103.707 E0.01099
G1 X198.707 Y103.459 E0.01099
G1 X198.994 Y103.258 E0.01099
G1 X199.312 Y103.110 E0.01099
G1 X199.651 Y103.019 E0.01099
G1 X199.962 Y102.992 E0.00980
G1 X200.347 Y103.019 E0.01211
G1 X200.688 Y103.110 E0.01105
G1 X201.006 Y103.258 E0.01099
G1 X201.293 Y103.459 E0.01099
G1 X201.541 Y103.707 E0.01099
G1 X201.742 Y103.994 E0.01099
G1 X201.874 Y104.277 E0.00980
G1 X201.981 Y104.649 E0.01211
G1 X202.012 Y105.000 E0.01105
G1 X201.981 Y105.349 E0.01099
G1 X201.890 Y105.688 E0.01099
G1 X201.742 Y106.006 E0.01099
G1 X201.541 Y106.293 E0.01099
G1 X201.293 Y106.541 E0.01099
G1 X201.006 Y106.742 E0.01099
G1 X200.723 Y106.874 E0.00980
G1 X200.351 Y106.981 E0.01211
G1 X200.000 Y107.012 E0.01105
G1 X199.651 Y106.981 E0.01099
G1 X199.312 Y106.890 E0.01099
G1 X198.994 Y106.742 E0.01099
G1 X198.707 Y106.541 E0.01099
G1 X198.486 Y106.320 E0.00980
G1 X198.308 Y106.075 E0.00949
G1 X197.897 Y106.030 F10800.000
G1 F8640.000
G1 X198.110 Y105.688 E-0.10042
G1 X198.019 Y105.349 E-0.08096
G1 X197.988 Y105.000 E-0.08096
G1 X198.019 Y104.651 E-0.08096
G1 X198.110 Y104.312 E-0.08096
G1 X198.258 Y103.994 E-0.08097
G1 X198.459 Y103.707 E-0.08096
G1 X198.707 Y103.459 E-0.08096
G1 X198.994 Y103.258 E-0.08096
G1 X199.041 Y103.236 E-0.01188
G1 E-0.04000 F2100.00000
G1 Z0.800 F10800.000
G1 X170.809 Y105.000
G1 Z0.200
G1 E0.80000 F2100.00000
G1 F1200.000
G1 X172.137 Y106.369 E0.05980
G1 X173.947 Y108.350 E0.08412
G1 X175.696 Y110.385 E0.08416
G1 X177.653 Y112.827 E0.09811
G1 X179.006 Y114.607 E0.07009
G1 X180.564 Y116.791 E0.08412
G1 X182.055 Y119.021 E0.08412
G1 X183.241 Y120.916 E0.07009
G1 X184.832 Y123.610 E0.09811
G1 X186.117 Y125.967 E0.08416
G1 X187.329 Y128.360 E0.08412
G1 X188.471 Y130.793 E0.08426
G1 X189.058 Y132.194 E0.04763
G1 X189.571 Y133.629 E0.04777
G1 X190.003 Y135.079 E0.04744
G1 X199.068 Y168.722 E1.09249
G1 X199.249 Y169.568 E0.02713
G1 X199.343 Y170.450 E0.02778
G1 X199.344 Y171.336 E0.02778
G1 X199.252 Y172.217 E0.02778
G1 X199.068 Y173.084 E0.02778
G1 X198.795 Y173.926 E0.02778
G1 X198.435 Y174.736 E0.02778
G1 X197.992 Y175.504 E0.02778
G1 X197.472 Y176.220 E0.02778
G1 X196.879 Y176.879 E0.02778
G1 X196.220 Y177.472 E0.02778
G1 X195.504 Y177.992 E0.02778
G1 X194.735 Y178.436 E0.02780
G1 X193.907 Y178.801 E0.02839
G1 X193.084 Y179.068 E0.02715
G1 X192.217 Y179.252 E0.02778
G1 X191.336 Y179.344 E0.02778
G1 X190.450 Y179.343 E0.02778
G1 X189.568 Y179.249 E0.02778
G1 X188.722 Y179.068 E0.02713
G1 X155.079 Y170.003 E1.09249
G1 X153.629 Y169.571 E0.04744
G1 X152.194 Y169.058 E0.04777
G1 X150.793 Y168.471 E0.04763
G1 X148.360 Y167.329 E0.08426
G1 X145.967 Y166.117 E0.08412
G1 X143.610 Y164.832 E0.08416
G1 X140.895 Y163.228 E0.09888
G1 X139.021 Y162.055 E0.06932
G1 X136.791 Y160.563 E0.08412
G1 X134.581 Y158.986 E0.08514
G1 X132.471 Y157.382 E0.08310
G1 X130.384 Y155.696 E0.08412
G1 X128.350 Y153.947 E0.08412
G1 X126.369 Y152.137 E0.08412
G1 X125.000 Y150.809 E0.05980
G1 X123.631 Y152.137 E0.05980
G1 X121.650 Y153.947 E0.08412
G1 X119.616 Y155.696 E0.08412
G1 X117.529 Y157.382 E0.08412
G1 X115.393 Y159.006 E0.08412
G1 X113.209 Y160.564 E0.08412
M73 Q0 S220
G1 X110.979 Y162.055 E0.08412
G1 X109.084 Y163.241 E0.07009
G1 X106.390 Y164.832 E0.09811
G1 X104.033 Y166.117 E0.08416
G1 X101.640 Y167.329 E0.08412
G1 X99.207 Y168.471 E0.08426
M73 P0 R216
G1 X97.806 Y169.058 E0.04763
G1 X96.371 Y169.571 E0.04777
G1 X94.921 Y170.003 E0.04744
G1 X61.278 Y179.068 E1.09249
G1 X60.432 Y179.249 E0.02713
G1 X59.550 Y179.343 E0.02778
G1 X58.664 Y179.344 E0.02778
G1 X57.783 Y179.252 E0.02778
G1 X56.916 Y179.068 E0.02778
G1 X56.074 Y178.795 E0.02778
G1 X55.264 Y178.435 E0.02778
G1 X54.496 Y177.992 E0.02778
G1 X53.780 Y177.472 E0.02778
G1 X53.121 Y176.879 E0.02778
G1 X52.528 Y176.220 E0.02778
G1 X52.008 Y175.504 E0.02778
G1 X51.564 Y174.735 E0.02780
G1 X51.199 Y173.907 E0.02839
G1 X50.932 Y173.084 E0.02715
G1 X50.748 Y172.217 E0.02778
G1 X50.656 Y171.336 E0.02778
G1 X50.657 Y170.450 E0.02778
G1 X50.751 Y169.568 E0.02778
G1 X50.932 Y168.722 E0.02713
G1 X59.997 Y135.079 E1.09249
G1 X60.429 Y133.629 E0.04744
G1 X60.942 Y132.194 E0.04777
G1 X61.529 Y130.793 E0.04763
G1 X62.671 Y128.360 E0.08426
G1 X63.883 Y125.967 E0.08412
G1 X65.168 Y123.610 E0.08416
G1 X66.772 Y120.895 E0.09888
G1 X67.945 Y119.021 E0.06932
G1 X69.437 Y116.791 E0.08412
G1 X71.014 Y114.581 E0.08514
G1 X72.618 Y112.471 E0.08310
G1 X74.304 Y110.384 E0.08412
G1 X76.053 Y108.350 E0.08412
G1 X77.863 Y106.369 E0.08412
G1 X79.191 Y105.000 E0.05980
G1 X77.863 Y103.631 E0.05980
G1 X76.053 Y101.650 E0.08412
G1 X74.304 Y99.616 E0.08412
G1 X72.618 Y97.529 E0.08412
G1 X70.994 Y95.393 E0.08412
G1 X69.436 Y93.209 E0.08412
G1 X67.945 Y90.979 E0.08412
G1 X66.759 Y89.084 E0.07009
G1 X65.168 Y86.390 E0.09811
G1 X63.883 Y84.033 E0.08416
G1 X62.671 Y81.640 E0.08412
G1 X61.529 Y79.207 E0.08426
G1 X60.942 Y77.806 E0.04763
G1 X60.429 Y76.371 E0.04777
G1 X59.997 Y74.921 E0.04744
G1 X50.932 Y41.278 E1.09249
G1 X50.751 Y40.432 E0.02713
G1 X50.657 Y39.550 E0.02778
G1 X50.656 Y38.664 E0.02778
G1 X50.748 Y37.783 E0.02778
G1 X50.932 Y36.916 E0.02778
G1 X51.205 Y36.074 E0.02778
G1 X51.565 Y35.264 E0.02778
G1 X52.008 Y34.496 E0.02778
G1 X52.528 Y33.780 E0.02778
G1 X53.121 Y33.121 E0.02778
G1 X53.780 Y32.528 E0.02778
G1 X54.496 Y32.008 E0.02778
G1 X55.265 Y31.564 E0.02780
G1 X56.093 Y31.199 E0.02839
G1 X56.916 Y30.932 E0.02715
G1 X57.783 Y30.748 E0.02778
G1 X58.664 Y30.656 E0.02778
G1 X59.550 Y30.657 E0.02778
G1 X60.432 Y30.751 E0.02778
G1 X61.278 Y30.932 E0.02713
G1 X94.921 Y39.997 E1.09249
G1 X96.371 Y40.429 E0.04744
G1 X97.806 Y40.942 E0.04777
G1 X99.207 Y41.529 E0.04763
G1 X101.640 Y42.671 E0.08426
G1 X104.033 Y43.883 E0.08412
G1 X106.390 Y45.168 E0.08416
G1 X109.105 Y46.772 E0.09888
G1 X110.979 Y47.945 E0.06932
G1 X113.209 Y49.436 E0.08412
G1 X115.393 Y50.994 E0.08412
G1 X117.529 Y52.618 E0.08412
G1 X119.616 Y54.304 E0.08412
G1 X121.650 Y56.053 E0.08412
G1 X123.631 Y57.863 E0.08412
G1 X125.000 Y59.191 E0.05980
G1 X126.369 Y57.863 E0.05980
G1 X128.350 Y56.053 E0.08412
G1 X130.385 Y54.304 E0.08416
G1 X132.827 Y52.347 E0.09811
G1 X134.607 Y50.994 E0.07009
G1 X136.791 Y49.436 E0.08412
G1 X139.021 Y47.945 E0.08412
G1 X140.916 Y46.759 E0.07009
G1 X143.610 Y45.168 E0.09811
G1 X145.967 Y43.883 E0.08416
G1 X148.360 Y42.671 E0.08412
G1 X150.793 Y41.529 E0.08426
G1 X152.194 Y40.942 E0.04763
G1 X153.629 Y40.429 E0.04777
G1 X155.079 Y39.997 E0.04744
G1 X188.722 Y30.932 E1.09249
G1 X189.568 Y30.751 E0.02713
G1 X190.450 Y30.657 E0.02778
G1 X191.336 Y30.656 E0.02778
G1 X192.217 Y30.748 E0.02778
G1 X193.084 Y30.932 E0.02778
G1 X193.926 Y31.205 E0.02778
G1 X194.736 Y31.565 E0.02778
G1 X195.504 Y32.008 E0.02778
G1 X196.220 Y32.528 E0.02778
G1 X196.879 Y33.121 E0.02778
G1 X197.472 Y33.780 E0.02778
G1 X197.992 Y34.496 E0.02778
G1 X198.435 Y35.264 E0.02778
G1 X198.795 Y36.074 E0.02778
G1 X199.068 Y36.916 E0.02778
G1 X199.252 Y37.783 E0.02778
G1 X199.344 Y38.664 E0.02778
G1 X199.343 Y39.550 E0.02778
G1 X199.249 Y40.432 E0.02778
G1 X199.068 Y41.278 E0.02713
G1 X190.003 Y74.921 E1.09249
G1 X189.571 Y76.371 E0.04744
G1 X189.058 Y77.806 E0.04777
G1 X188.471 Y79.207 E0.04763
G1 X187.329 Y81.640 E0.08426
G1 X186.117 Y84.033 E0.08412
G1 X184.833 Y86.389 E0.08412
G1 X183.478 Y88.705 E0.08412
G1 X182.055 Y90.979 E0.08412
G1 X180.564 Y93.209 E0.08412
G1 X179.006 Y95.393 E0.08412
G1 X177.382 Y97.529 E0.08412
G1 X175.696 Y99.616 E0.08412
G1 X173.947 Y101.650 E0.08412
G1 X172.137 Y103.631 E0.08412
G1 X170.851 Y104.957 E0.05792
G1 X170.284 Y105.000 F10800.000
G1 F1200.000
G1 X171.863 Y106.627 E0.07110
G1 X173.665 Y108.600 E0.08376
G1 X175.406 Y110.626 E0.08378
G1 X177.356 Y113.059 E0.09775
G1 X178.702 Y114.831 E0.06976
G1 X180.253 Y117.005 E0.08376
G1 X181.738 Y119.226 E0.08376
G1 X182.919 Y121.112 E0.06976
G1 X184.504 Y123.796 E0.09775
G1 X185.783 Y126.143 E0.08378
G1 X186.990 Y128.526 E0.08376
G1 X188.126 Y130.946 E0.08384
G1 X188.706 Y132.331 E0.04706
G1 X189.212 Y133.746 E0.04714
G1 X189.641 Y135.182 E0.04697
G1 X198.702 Y168.811 E1.09202
G1 X198.876 Y169.628 E0.02620
G1 X198.966 Y170.470 E0.02654
G1 X198.967 Y171.316 E0.02654
G1 X198.879 Y172.158 E0.02654
G1 X198.704 Y172.986 E0.02654
G1 X198.443 Y173.791 E0.02654
G1 X198.099 Y174.565 E0.02654
G1 X197.676 Y175.298 E0.02654
G1 X197.178 Y175.983 E0.02654
G1 X196.612 Y176.612 E0.02654
G1 X195.983 Y177.178 E0.02654
G1 X195.298 Y177.676 E0.02654
G1 X194.565 Y178.099 E0.02655
G1 X193.773 Y178.449 E0.02715
G1 X192.986 Y178.704 E0.02592
G1 X192.158 Y178.879 E0.02654
G1 X191.316 Y178.967 E0.02654
G1 X190.470 Y178.966 E0.02654
G1 X189.628 Y178.876 E0.02654
G1 X188.811 Y178.702 E0.02620
G1 X155.182 Y169.641 E1.09202
G1 X153.746 Y169.212 E0.04696
G1 X152.331 Y168.706 E0.04714
G1 X150.946 Y168.126 E0.04706
G1 X148.526 Y166.990 E0.08384
G1 X146.143 Y165.783 E0.08376
G1 X143.796 Y164.504 E0.08378
G1 X141.091 Y162.906 E0.09852
G1 X139.226 Y161.738 E0.06899
G1 X137.005 Y160.253 E0.08377
G1 X134.805 Y158.682 E0.08478
G1 X132.703 Y157.086 E0.08274
G1 X130.626 Y155.406 E0.08376
G1 X128.600 Y153.665 E0.08376
G1 X126.627 Y151.863 E0.08376
G1 X125.000 Y150.284 E0.07110
G1 X123.373 Y151.863 E0.07110
G1 X121.400 Y153.665 E0.08376
G1 X119.374 Y155.406 E0.08376
