; generated by PrusaSlicer 2.2.0+win64 on 2021-02-17 at 22:49:14 UTC

; 

; external perimeters extrusion width = 0.45mm
; perimeters extrusion width = 0.45mm
; infill extrusion width = 0.45mm
; solid infill extrusion width = 0.45mm
; top infill extrusion width = 0.40mm
; first layer extrusion width = 0.42mm

M73 P0 R12
M73 Q0 S12
M201 X1000 Y1000 Z200 E5000 ; sets maximum accelerations, mm/sec^2
M203 X200 Y200 Z12 E120 ; sets maximum feedrates, mm/sec
M204 P1250 R1250 T1250 ; sets acceleration (P, T) and retract acceleration (R), mm/sec^2
M205 X8.00 Y8.00 Z0.40 E4.50 ; sets the jerk limits, mm/sec
M205 S0 T0 ; sets the minimum extruding and travel feed rate, mm/sec
M107
M862.3 P "MK3SMMU2S" ; printer model check
M862.1 P0.4 ; nozzle diameter check
M115 U3.9.3 ; tell printer latest fw version
G90 ; use absolute coordinates
M83 ; extruder relative mode
M104 S215 ; set extruder temp
M140 S60 ; set bed temp
Tx
M190 S60 ; wait for bed temp
M109 S215 ; wait for extruder temp
G28 W ; home all without mesh bed level
G80 ; mesh bed leveling

;go outside print area
G1 Y-3.0 F1000.0
G1 Z0.4 F1000.0
; select extruder
Tc
; purge line
G1 X55.0 F2000.0
G1 Z0.3 F1000.0
G92 E0.0
G1 X240.0 E25.0 F2200.0
M73 Q1 S12
M73 P1 R12
G1 Y-2.0 F1000.0
G1 X55.0 E25 F1400.0
G1 Z0.20 F1000.0
G1 X5.0 E4.0 F1000.0

M221 S95
G92 E0.0

; Don't change E values below. Excessive value can damage the printer.

M907 E538 ; set extruder motor current
G21 ; set units to millimeters
G90 ; use absolute coordinates
M83 ; use relative distances for extrusion
M900 K0.05 ; Filament gcode LA 1.5
M900 K30 ; Filament gcode LA 1.0
;BEFORE_LAYER_CHANGE
G92 E0.0
;0.2


G1 E-0.80000 F2100.00000
G1 Z0.400 F10800.000
;AFTER_LAYER_CHANGE
;0.2
G1 X101.317 Y90.136
G1 Z0.200
G1 E0.80000 F2100.00000
M204 S1000
G1 F1200.000
G1 X101.649 Y89.471 E0.02331
G1 X102.019 Y89.062 E0.01728
G1 X102.470 Y88.752 E0.01716
G1 X102.984 Y88.552 E0.01728
G1 X103.529 Y88.476 E0.01728
G1 X146.420 Y88.475 E1.34482
G1 X147.322 Y88.655 E0.02884
G1 X148.086 Y89.160 E0.02872
G1 X148.603 Y89.921 E0.02884
G1 X148.793 Y90.821 E0.02884
G1 X148.662 Y95.442 E0.14495
G1 X148.270 Y100.016 E0.14395
G1 X147.616 Y104.561 E0.14395
G1 X146.704 Y109.060 E0.14395
G1 X145.955 Y112.028 E0.09598
G1 X145.094 Y114.958 E0.09574
G1 X144.120 Y117.864 E0.09610
G1 X143.276 Y120.084 E0.07446
G1 X142.238 Y122.165 E0.07293
G1 X136.139 Y132.741 E0.38280
G1 X135.772 Y133.147 E0.01716
G1 X135.321 Y133.458 E0.01716
G1 X134.812 Y133.658 E0.01716
G1 X134.266 Y133.736 E0.01728
G1 X115.743 Y133.737 E0.58080
G1 X115.047 Y133.616 E0.02213
G1 X114.415 Y133.295 E0.02225
G1 X114.047 Y132.970 E0.01538
G1 X113.754 Y132.577 E0.01538
G1 X107.370 Y121.449 E0.40223
G1 X106.700 Y120.028 E0.04927
G1 X105.888 Y117.885 E0.07186
G1 X104.462 Y113.497 E0.14467
G1 X103.651 Y110.526 E0.09656
G1 X102.663 Y106.088 E0.14253
G1 X102.137 Y103.050 E0.09669
G1 X101.731 Y100.020 E0.09586
G1 X101.338 Y95.441 E0.14407
G1 X101.206 Y90.871 E0.14336
G1 X101.308 Y90.195 E0.02143
; printing object GuidePlateV1TipCoverShimmed0.1mm.stl id:0 copy 0
G1 F8640.000
G1 X101.649 Y89.471 E-0.18490
G1 X102.019 Y89.062 E-0.12724
G1 X102.470 Y88.752 E-0.12637
G1 X102.984 Y88.552 E-0.12724
G1 X103.529 Y88.476 E-0.12724
G1 X103.819 Y88.476 E-0.06700
G1 E-0.04000 F2100.00000
G1 Z0.600 F10800.000
G1 X117.713 Y108.177
G1 Z0.200
G1 E0.80000 F2100.00000
G1 F1200.000
G1 X125.000 Y103.970 E0.26383
G1 X132.287 Y108.177 E0.26383
G1 X132.287 Y116.476 E0.26021
G1 X125.000 Y120.683 E0.26383
G1 X117.713 Y116.476 E0.26383
G1 X117.713 Y108.237 E0.25833
G1 X118.090 Y108.395 F10800.000
G1 F1200.000
G1 X125.000 Y104.405 E0.25018
G1 X131.910 Y108.395 E0.25018
G1 X131.910 Y116.258 E0.24655
G1 X125.000 Y120.248 E0.25018
G1 X118.090 Y116.258 E0.25018
G1 X118.090 Y108.455 E0.24467
G1 X117.890 Y108.049 F10800.000
G1 F8640.000
G1 X120.930 Y106.791 E-0.76000
G1 E-0.04000 F2100.00000
G1 Z0.600 F10800.000
G1 X104.538 Y95.966
G1 Z0.200
G1 E0.80000 F2100.00000
G1 F1200.000
G1 X104.727 Y96.208 E0.00964
G1 X104.966 Y96.450 E0.01065
G1 X105.264 Y96.690 E0.01200
G1 X105.517 Y96.847 E0.00935
G1 X105.896 Y97.028 E0.01315
G1 X106.178 Y97.125 E0.00936
G1 X106.551 Y97.206 E0.01196
G1 X106.889 Y97.238 E0.01064
G1 X107.225 Y97.233 E0.01055
G1 X107.559 Y97.190 E0.01055
G1 X107.889 Y97.110 E0.01064
G1 X108.248 Y96.976 E0.01200
G1 X108.549 Y96.821 E0.01064
G1 X108.829 Y96.635 E0.01055
G1 X109.087 Y96.418 E0.01055
G1 X109.321 Y96.173 E0.01064
G1 X109.551 Y95.866 E0.01200
G1 X109.720 Y95.572 E0.01064
G1 X109.855 Y95.264 E0.01055
G1 X109.955 Y94.943 E0.01055
G1 X110.019 Y94.610 E0.01064
G1 X110.046 Y94.229 E0.01196
G1 X110.034 Y93.931 E0.00936
G1 X109.967 Y93.517 E0.01315
G1 X109.887 Y93.229 E0.00935
G1 X109.741 Y92.876 E0.01199
G1 X109.577 Y92.580 E0.01062
G1 X109.381 Y92.305 E0.01058
G1 X109.157 Y92.054 E0.01056
G1 X108.903 Y91.827 E0.01066
G1 X108.627 Y91.636 E0.01054
G1 X141.378 Y91.636 E1.02690
G1 X141.020 Y91.891 E0.01377
G1 X140.776 Y92.124 E0.01060
G1 X140.559 Y92.382 E0.01055
G1 X140.371 Y92.664 E0.01063
G1 X140.199 Y93.006 E0.01200
G1 X140.083 Y93.324 E0.01062
G1 X140.003 Y93.652 E0.01058
G1 X139.961 Y93.986 E0.01055
G1 X139.956 Y94.322 E0.01055
G1 X139.988 Y94.660 E0.01064
G1 X140.069 Y95.034 E0.01200
G1 X140.180 Y95.354 E0.01063
G1 X140.307 Y95.621 E0.00926
G1 X140.527 Y95.978 E0.01315
G1 X140.713 Y96.212 E0.00936
G1 X140.983 Y96.482 E0.01196
G1 X141.249 Y96.692 E0.01064
G1 X141.535 Y96.869 E0.01055
G1 X141.839 Y97.013 E0.01055
G1 X142.160 Y97.124 E0.01064
G1 X142.534 Y97.206 E0.01200
G1 X142.872 Y97.238 E0.01064
G1 X143.208 Y97.233 E0.01055
G1 X143.542 Y97.190 E0.01055
G1 X143.872 Y97.110 E0.01064
G1 X144.230 Y96.976 E0.01200
G1 X144.532 Y96.821 E0.01064
G1 X144.812 Y96.635 E0.01055
G1 X145.070 Y96.418 E0.01056
G1 X145.304 Y96.171 E0.01068
G1 X145.462 Y95.959 E0.00830
G1 X145.280 Y98.194 E0.07033
G1 X145.126 Y99.655 E0.04606
G1 X144.945 Y101.114 E0.04610
G1 X144.735 Y102.570 E0.04610
G1 X144.498 Y104.021 E0.04610
G1 X144.234 Y105.467 E0.04610
G1 X143.942 Y106.908 E0.04610
G1 X143.623 Y108.343 E0.04610
G1 X143.276 Y109.772 E0.04610
G1 X142.902 Y111.194 E0.04610
G1 X142.501 Y112.609 E0.04610
G1 X142.074 Y114.016 E0.04610
G1 X141.619 Y115.414 E0.04610
G1 X141.138 Y116.804 E0.04610
G1 X140.633 Y118.180 E0.04597
G1 X140.381 Y118.806 E0.02115
G1 X140.107 Y119.417 E0.02102
G1 X139.808 Y120.018 E0.02102
G1 X139.481 Y120.612 E0.02127
G1 X133.862 Y130.376 E0.35321
G1 X133.006 Y130.039 E0.02885
G1 X132.229 Y129.776 E0.02573
G1 X131.447 Y129.541 E0.02559
G1 X130.658 Y129.333 E0.02559
G1 X129.862 Y129.153 E0.02559
G1 X129.061 Y129.000 E0.02559
G1 X128.254 Y128.874 E0.02559
G1 X127.444 Y128.777 E0.02559
G1 X126.631 Y128.707 E0.02559
G1 X125.816 Y128.665 E0.02559
G1 X125.000 Y128.651 E0.02559
G1 X124.184 Y128.665 E0.02559
G1 X123.369 Y128.707 E0.02559
G1 X122.556 Y128.777 E0.02559
G1 X121.746 Y128.874 E0.02559
G1 X120.939 Y129.000 E0.02559
G1 X120.138 Y129.153 E0.02559
G1 X119.342 Y129.333 E0.02559
G1 X118.553 Y129.541 E0.02559
G1 X117.771 Y129.776 E0.02559
G1 X116.994 Y130.039 E0.02573
G1 X116.138 Y130.376 E0.02885
G1 X110.519 Y120.612 E0.35321
G1 X110.192 Y120.018 E0.02127
G1 X109.893 Y119.417 E0.02102
G1 X109.619 Y118.806 E0.02102
G1 X109.367 Y118.180 E0.02115
G1 X108.862 Y116.804 E0.04597
G1 X108.381 Y115.414 E0.04610
G1 X107.926 Y114.016 E0.04610
G1 X107.499 Y112.609 E0.04610
G1 X107.098 Y111.194 E0.04610
G1 X106.724 Y109.772 E0.04610
G1 X106.377 Y108.343 E0.04610
G1 X106.058 Y106.908 E0.04610
G1 X105.766 Y105.467 E0.04610
G1 X105.502 Y104.021 E0.04610
G1 X105.265 Y102.570 E0.04610
G1 X105.055 Y101.114 E0.04610
G1 X104.874 Y99.655 E0.04610
G1 X104.720 Y98.194 E0.04606
G1 X104.543 Y96.025 E0.06823
G1 F8640.000
G1 X104.727 Y96.208 E-0.05994
G1 X104.966 Y96.450 E-0.07845
G1 X105.264 Y96.690 E-0.08838
G1 X105.517 Y96.847 E-0.06886
G1 X105.896 Y97.028 E-0.09688
G1 X106.178 Y97.125 E-0.06892
G1 X106.551 Y97.206 E-0.08811
G1 X106.889 Y97.238 E-0.07837
G1 X107.225 Y97.233 E-0.07767
G1 X107.459 Y97.203 E-0.05442
G1 E-0.04000 F2100.00000
G1 Z0.600 F10800.000
G1 X140.333 Y94.307
G1 Z0.200
G1 E0.80000 F2100.00000
G1 F1200.000
G1 X140.338 Y94.013 E0.00923
G1 X140.375 Y93.721 E0.00923
G1 X140.445 Y93.434 E0.00926
G1 X140.546 Y93.156 E0.00927
G1 X140.698 Y92.854 E0.01060
G1 X140.861 Y92.608 E0.00926
G1 X141.051 Y92.382 E0.00923
G1 X141.265 Y92.179 E0.00927
G1 X141.502 Y92.000 E0.00930
G1 X141.796 Y91.830 E0.01065
G1 X142.071 Y91.717 E0.00934
G1 X142.363 Y91.638 E0.00947
G1 X142.930 Y91.591 E0.01785
G1 X143.495 Y91.618 E0.01774
G1 X143.829 Y91.689 E0.01069
G1 X144.109 Y91.794 E0.00938
G1 X144.373 Y91.931 E0.00933
G1 X144.652 Y92.124 E0.01064
G1 X144.873 Y92.321 E0.00927
G1 X145.069 Y92.541 E0.00924
G1 X145.240 Y92.782 E0.00928
G1 X145.382 Y93.044 E0.00933
G1 X145.505 Y93.361 E0.01067
G1 X145.574 Y93.652 E0.00937
G1 X145.601 Y93.947 E0.00929
G1 X145.583 Y94.542 E0.01868
G1 X145.547 Y94.831 E0.00911
G1 X145.486 Y95.081 E0.00806
G1 X145.344 Y95.432 E0.01189
G1 X145.217 Y95.656 E0.00806
G1 X145.015 Y95.928 E0.01063
G1 X144.811 Y96.143 E0.00929
G1 X144.586 Y96.332 E0.00923
G1 X144.341 Y96.495 E0.00923
G1 X144.077 Y96.631 E0.00928
G1 X143.761 Y96.749 E0.01060
G1 X143.473 Y96.819 E0.00928
G1 X143.181 Y96.856 E0.00923
G1 X142.887 Y96.861 E0.00923
G1 X142.592 Y96.832 E0.00928
G1 X142.262 Y96.761 E0.01060
G1 X141.982 Y96.664 E0.00928
G1 X141.716 Y96.537 E0.00923
G1 X141.466 Y96.382 E0.00923
G1 X141.234 Y96.199 E0.00928
G1 X140.995 Y95.960 E0.01059
G1 X140.836 Y95.761 E0.00799
G1 X140.638 Y95.441 E0.01180
G1 X140.530 Y95.212 E0.00795
G1 X140.433 Y94.932 E0.00928
G1 X140.361 Y94.601 E0.01060
G1 X140.339 Y94.367 E0.00740
G1 X140.072 Y94.171 F10800.000
G1 F8640.000
G1 X140.338 Y94.013 E-0.08174
G1 X140.375 Y93.721 E-0.06796
G1 X140.445 Y93.434 E-0.06817
G1 X140.546 Y93.156 E-0.06829
G1 X140.698 Y92.854 E-0.07807
G1 X140.861 Y92.608 E-0.06819
G1 X141.051 Y92.382 E-0.06798
G1 X141.265 Y92.179 E-0.06824
G1 X141.502 Y92.000 E-0.06849
G1 X141.796 Y91.830 E-0.07846
G1 X141.974 Y91.757 E-0.04441
G1 E-0.04000 F2100.00000
G1 Z0.600 F10800.000
G1 X144.612 Y91.638
G1 Z0.200
G1 E0.80000 F2100.00000
G1 F1200.000
G1 X145.622 Y91.639 E0.03168
G1 X145.613 Y92.680 E0.03263
G1 X145.364 Y92.306 E0.01409
G1 X145.139 Y92.054 E0.01058
G1 X144.886 Y91.827 E0.01067
G1 X144.661 Y91.672 E0.00856
G1 F8640.000
G1 X145.622 Y91.639 E-0.22206
G1 X145.613 Y92.680 E-0.24032
G1 X145.364 Y92.306 E-0.10375
G1 X145.139 Y92.054 E-0.07791
G1 X144.886 Y91.827 E-0.07856
G1 X144.752 Y91.735 E-0.03740
G1 E-0.04000 F2100.00000
G1 Z0.600 F10800.000
G1 X109.658 Y93.969
G1 Z0.200
G1 E0.80000 F2100.00000
G1 F1200.000
G1 X109.669 Y94.224 E0.00799
G1 X109.645 Y94.560 E0.01059
G1 X109.589 Y94.851 E0.00928
G1 X109.501 Y95.132 E0.00923
G1 X109.383 Y95.402 E0.00923
G1 X109.235 Y95.658 E0.00928
G1 X109.033 Y95.929 E0.01060
G1 X108.829 Y96.143 E0.00928
G1 X108.603 Y96.332 E0.00923
G1 X108.358 Y96.495 E0.00923
G1 X108.095 Y96.631 E0.00928
G1 X107.778 Y96.749 E0.01060
G1 X107.490 Y96.819 E0.00928
G1 X107.198 Y96.856 E0.00923
G1 X106.904 Y96.861 E0.00923
G1 X106.610 Y96.832 E0.00928
G1 X106.280 Y96.761 E0.01059
G1 X106.038 Y96.679 E0.00799
G1 X105.699 Y96.516 E0.01180
G1 X105.483 Y96.382 E0.00799
G1 X105.219 Y96.170 E0.01060
G1 X105.011 Y95.959 E0.00928
G1 X104.829 Y95.725 E0.00929
G1 X104.676 Y95.472 E0.00929
G1 X104.555 Y95.200 E0.00934
G1 X104.460 Y94.869 E0.01077
G1 X104.400 Y94.306 E0.01777
G1 X104.413 Y93.740 E0.01774
G1 X104.471 Y93.444 E0.00947
G1 X104.566 Y93.161 E0.00935
G1 X104.715 Y92.856 E0.01065
G1 X104.879 Y92.608 E0.00929
G1 X105.068 Y92.383 E0.00924
G1 X105.282 Y92.179 E0.00927
G1 X105.519 Y92.000 E0.00930
G1 X105.813 Y91.830 E0.01065
G1 X106.089 Y91.717 E0.00934
G1 X106.380 Y91.638 E0.00947
G1 X106.948 Y91.591 E0.01785
G1 X107.513 Y91.618 E0.01774
G1 X107.846 Y91.689 E0.01069
G1 X108.126 Y91.794 E0.00938
G1 X108.390 Y91.931 E0.00933
G1 X108.669 Y92.124 E0.01064
G1 X108.890 Y92.321 E0.00927
G1 X109.086 Y92.540 E0.00923
G1 X109.257 Y92.781 E0.00926
G1 X109.401 Y93.040 E0.00927
G1 X109.530 Y93.352 E0.01060
G1 X109.598 Y93.597 E0.00799
G1 X109.648 Y93.910 E0.00992
G1 X109.890 Y94.074 F10800.000
G1 F8640.000
G1 X109.669 Y94.224 E-0.07261
G1 X109.645 Y94.560 E-0.07796
G1 X109.589 Y94.851 E-0.06835
G1 X109.501 Y95.132 E-0.06796
G1 X109.383 Y95.402 E-0.06796
G1 X109.235 Y95.658 E-0.06835
G1 X109.033 Y95.929 E-0.07807
G1 X108.829 Y96.143 E-0.06835
G1 X108.603 Y96.332 E-0.06796
G1 X108.358 Y96.495 E-0.06796
G1 X108.148 Y96.603 E-0.05447
G1 E-0.04000 F2100.00000
G1 Z0.600 F10800.000
G1 X105.392 Y91.638
G1 Z0.200
G1 E0.80000 F2100.00000
G1 F1200.000
G1 X105.038 Y91.891 E0.01365
G1 X104.793 Y92.124 E0.01061
G1 X104.576 Y92.383 E0.01058
G1 X104.386 Y92.670 E0.01080
G1 X104.378 Y91.639 E0.03234
G1 X105.332 Y91.638 E0.02993
G1 F8640.000
G1 X105.038 Y91.891 E-0.08960
G1 X104.793 Y92.124 E-0.07813
G1 X104.576 Y92.383 E-0.07792
G1 X104.386 Y92.670 E-0.07951
G1 X104.378 Y91.639 E-0.23817
G1 X105.229 Y91.638 E-0.19667
G1 E-0.04000 F2100.00000
G1 Z0.600 F10800.000
G1 X103.997 Y91.262
G1 Z0.200
G1 E0.80000 F2100.00000
G1 F1200.000
G1 X105.579 Y91.261 E0.04960
G1 X107.069 Y91.215 E0.04674
G1 X108.061 Y91.254 E0.03113
G1 X109.061 Y91.262 E0.03136
G1 X140.939 Y91.262 E0.99949
G1 X141.939 Y91.254 E0.03137
G1 X142.931 Y91.214 E0.03113
G1 X144.421 Y91.261 E0.04673
G1 X146.003 Y91.262 E0.04960
G1 X145.976 Y94.300 E0.09526
G1 X145.655 Y98.229 E0.12360
G1 X145.501 Y99.698 E0.04631
G1 X145.318 Y101.164 E0.04633
G1 X145.108 Y102.627 E0.04633
G1 X144.870 Y104.085 E0.04633
G1 X144.604 Y105.539 E0.04633
G1 X144.311 Y106.987 E0.04633
G1 X143.990 Y108.429 E0.04633
G1 X143.641 Y109.865 E0.04633
G1 X143.266 Y111.294 E0.04633
G1 X142.863 Y112.715 E0.04633
G1 X142.433 Y114.129 E0.04633
G1 X141.977 Y115.534 E0.04633
G1 X141.494 Y116.930 E0.04633
G1 X140.985 Y118.315 E0.04626
G1 X140.728 Y118.953 E0.02156
G1 X140.448 Y119.579 E0.02149
G1 X140.142 Y120.192 E0.02149
G1 X139.810 Y120.797 E0.02162
G1 X134.027 Y130.846 E0.36354
G1 X132.877 Y130.393 E0.03876
G1 X132.114 Y130.135 E0.02523
G1 X131.345 Y129.904 E0.02518
G1 X130.568 Y129.700 E0.02518
G1 X129.785 Y129.522 E0.02518
G1 X128.996 Y129.371 E0.02518
G1 X128.203 Y129.248 E0.02518
G1 X127.405 Y129.152 E0.02518
G1 X126.605 Y129.083 E0.02518
G1 X125.803 Y129.042 E0.02518
G1 X125.000 Y129.028 E0.02518
G1 X124.197 Y129.042 E0.02518
G1 X123.395 Y129.083 E0.02518
G1 X122.595 Y129.152 E0.02518
G1 X121.797 Y129.248 E0.02518
G1 X121.004 Y129.371 E0.02518
G1 X120.215 Y129.522 E0.02518
G1 X119.432 Y129.700 E0.02518
G1 X118.655 Y129.904 E0.02518
G1 X117.886 Y130.135 E0.02518
G1 X117.123 Y130.393 E0.02523
G1 X115.973 Y130.846 E0.03876
G1 X110.190 Y120.797 E0.36354
G1 X109.858 Y120.192 E0.02162
G1 X109.552 Y119.579 E0.02149
G1 X109.272 Y118.953 E0.02149
G1 X109.015 Y118.315 E0.02156
G1 X108.506 Y116.930 E0.04626
G1 X108.023 Y115.534 E0.04633
G1 X107.567 Y114.129 E0.04633
G1 X107.137 Y112.715 E0.04633
G1 X106.734 Y111.294 E0.04633
G1 X106.359 Y109.865 E0.04633
G1 X106.010 Y108.429 E0.04633
G1 X105.689 Y106.987 E0.04633
G1 X105.396 Y105.539 E0.04633
G1 X105.130 Y104.085 E0.04633
G1 X104.892 Y102.627 E0.04633
G1 X104.682 Y101.164 E0.04633
G1 X104.499 Y99.698 E0.04633
G1 X104.345 Y98.229 E0.04631
G1 X104.023 Y94.300 E0.12360
G1 X103.998 Y91.322 E0.09338
G1 X104.347 Y91.456 F10800.000
G1 X104.671 Y91.827
G1 F1200.000
G1 X104.570 Y92.085 E0.00235
G1 X104.339 Y92.853 F10800.000
G1 F1200.000
G1 X104.282 Y93.166 E0.00531
G1 X104.264 Y93.274 E0.00144
G1 X104.247 Y93.381 E0.00111
G1 X104.228 Y93.582 E0.00145
G1 F8640.000
G1 X104.247 Y93.381 E-0.04659
G1 E-0.75341 F2100.00000
G1 Z0.600 F10800.000
G1 X104.299 Y95.074
G1 Z0.200
G1 E0.80000 F2100.00000
G1 F1200.000
G1 X104.337 Y95.282 E0.00154
G1 X104.364 Y95.388 E0.00113
G1 X104.391 Y95.494 E0.00146
G1 X104.473 Y95.789 E0.00516
G1 F8640.000
G1 X104.391 Y95.494 E-0.07066
G1 E-0.72934 F2100.00000
G1 Z0.600 F10800.000
G1 X105.610 Y91.723
G1 Z0.200
G1 E0.80000 F2100.00000
G1 F1200.000
G1 X105.682 Y91.558 E0.00274
G1 X105.901 Y91.512 E0.00342
G1 X106.267 Y91.451 E0.00237
G1 F8640.000
G1 X105.901 Y91.512 E-0.08563
G1 E-0.71437 F2100.00000
