; generated by PrusaSlicer 2.2.0+win64 on 2021-02-18 at 19:43:39 UTC

; 

; external perimeters extrusion width = 0.45mm
; perimeters extrusion width = 0.45mm
; infill extrusion width = 0.45mm
; solid infill extrusion width = 0.45mm
; top infill extrusion width = 0.40mm
; first layer extrusion width = 0.42mm

M73 P0 R10
M73 Q0 S10
M201 X1000 Y1000 Z200 E5000 ; sets maximum accelerations, mm/sec^2
M203 X200 Y200 Z12 E120 ; sets maximum feedrates, mm/sec
M204 P1250 R1250 T1250 ; sets acceleration (P, T) and retract acceleration (R), mm/sec^2
M205 X8.00 Y8.00 Z0.40 E4.50 ; sets the jerk limits, mm/sec
M205 S0 T0 ; sets the minimum extruding and travel feed rate, mm/sec
M107
M862.3 P "MK3SMMU2S" ; printer model check
M862.1 P0.4 ; nozzle diameter check
M115 U3.9.3 ; tell printer latest fw version
G90 ; use absolute coordinates
M83 ; extruder relative mode
M104 S215 ; set extruder temp
M140 S60 ; set bed temp
Tx
M190 S60 ; wait for bed temp
M109 S215 ; wait for extruder temp
G28 W ; home all without mesh bed level
G80 ; mesh bed leveling

;go outside print area
G1 Y-3.0 F1000.0
G1 Z0.4 F1000.0
; select extruder
Tc
; purge line
G1 X55.0 F2000.0
G1 Z0.3 F1000.0
G92 E0.0
G1 X240.0 E25.0 F2200.0
M73 Q1 S10
M73 P1 R10
G1 Y-2.0 F1000.0
G1 X55.0 E25 F1400.0
G1 Z0.20 F1000.0
G1 X5.0 E4.0 F1000.0

M221 S95
G92 E0.0

; Don't change E values below. Excessive value can damage the printer.

M907 E538 ; set extruder motor current
G21 ; set units to millimeters
G90 ; use absolute coordinates
M83 ; use relative distances for extrusion
M900 K0.05 ; Filament gcode LA 1.5
M900 K30 ; Filament gcode LA 1.0
;BEFORE_LAYER_CHANGE
G92 E0.0
;0.2


G1 E-0.80000 F2100.00000
G1 Z0.400 F10800.000
;AFTER_LAYER_CHANGE
;0.2
G1 X99.814 Y77.451
G1 Z0.200
G1 E0.80000 F2100.00000
M204 S1000
G1 F1200.000
G1 X100.176 Y77.110 E0.01562
G1 X100.605 Y76.849 E0.01574
G1 X101.079 Y76.685 E0.01574
G1 X101.577 Y76.623 E0.01574
G1 X148.386 Y76.623 E1.46767
G1 X148.971 Y76.697 E0.01846
G1 X149.516 Y76.910 E0.01835
G1 X149.992 Y77.250 E0.01835
G1 X150.372 Y77.699 E0.01846
G1 X157.103 Y89.351 E0.42191
G1 X157.315 Y89.872 E0.01763
G1 X157.398 Y90.425 E0.01752
G1 X157.365 Y119.902 E0.92423
G1 X157.090 Y120.673 E0.02567
G1 X150.186 Y132.549 E0.43070
G1 X149.818 Y132.895 E0.01585
G1 X149.381 Y133.157 E0.01597
G1 X148.899 Y133.320 E0.01597
G1 X148.396 Y133.377 E0.01585
G1 X101.591 Y133.377 E1.46755
G1 X100.779 Y133.224 E0.02590
G1 X100.068 Y132.803 E0.02590
G1 X99.569 Y132.207 E0.02437
G1 X92.906 Y120.665 E0.41785
G1 X92.680 Y120.109 E0.01882
G1 X92.601 Y119.511 E0.01894
G1 X92.635 Y90.098 E0.92220
G1 X92.910 Y89.327 E0.02567
G1 X99.784 Y77.503 E0.42882
; printing object M8NutOutline.stl id:0 copy 2
G1 F8640.000
G1 X100.176 Y77.110 E-0.12835
G1 X100.605 Y76.849 E-0.11588
G1 X101.079 Y76.685 E-0.11588
G1 X101.577 Y76.623 E-0.11588
G1 X102.807 Y76.623 E-0.28401
G1 E-0.04000 F2100.00000
G1 Z0.600 F10800.000
G1 X104.050 Y83.213
G1 Z0.200
G1 E0.80000 F2100.00000
G1 F1200.000
G1 X112.464 Y83.213 E0.26383
G1 X116.671 Y90.500 E0.26383
G1 X112.464 Y97.787 E0.26383
G1 X104.050 Y97.787 E0.26383
G1 X99.842 Y90.500 E0.26383
G1 X104.020 Y83.265 E0.26195
G1 X104.267 Y83.590 F10800.000
G1 F1200.000
G1 X112.246 Y83.590 E0.25018
G1 X116.236 Y90.500 E0.25018
G1 X112.246 Y97.410 E0.25018
G1 X104.267 Y97.410 E0.25018
G1 X100.278 Y90.500 E0.25018
G1 X104.237 Y83.642 E0.24829
G1 X104.267 Y83.190 F10800.000
G1 F8640.000
G1 X107.529 Y83.621 E-0.76000
G1 E-0.04000 F2100.00000
G1 Z0.600 F10800.000
G1 X102.072 Y79.787
G1 Z0.200
G1 E0.80000 F2100.00000
G1 F1200.000
G1 X114.442 Y79.787 E0.38786
G1 X120.627 Y90.500 E0.38786
G1 X114.442 Y101.213 E0.38786
G1 X102.072 Y101.213 E0.38786
G1 X95.887 Y90.500 E0.38786
G1 X102.042 Y79.839 E0.38598
G1 X101.854 Y79.410 F10800.000
G1 F1200.000
G1 X114.660 Y79.410 E0.40151
G1 X121.062 Y90.500 E0.40151
G1 X114.660 Y101.590 E0.40151
G1 X101.854 Y101.590 E0.40151
G1 X95.451 Y90.500 E0.40151
G1 X101.824 Y79.462 E0.39963
G1 X102.200 Y79.610 F10800.000
G1 F8640.000
G1 X105.115 Y79.449 E-0.76000
G1 E-0.04000 F2100.00000
G1 Z0.600 F10800.000
G1 X109.273 Y79.900
G1 Z0.200
G1 E0.80000 F2100.00000
G1 F1200.000
G1 X112.303 Y82.930 E0.13612
G1 X111.763 Y82.930 E0.01716
G1 X108.903 Y80.070 E0.12850
G1 X108.363 Y80.070 E0.01716
G1 X111.223 Y82.930 E0.12850
G1 X110.682 Y82.930 E0.01716
G1 X107.822 Y80.070 E0.12850
G1 X107.282 Y80.070 E0.01716
G1 X110.142 Y82.930 E0.12850
G1 X109.602 Y82.930 E0.01716
G1 X106.742 Y80.070 E0.12850
G1 X106.201 Y80.070 E0.01716
G1 X109.062 Y82.930 E0.12850
G1 X108.521 Y82.930 E0.01716
G1 X105.661 Y80.070 E0.12850
G1 X105.121 Y80.070 E0.01716
G1 X107.981 Y82.930 E0.12850
G1 X107.441 Y82.930 E0.01716
G1 X104.580 Y80.070 E0.12850
G1 X104.040 Y80.070 E0.01716
G1 X106.900 Y82.930 E0.12850
G1 X106.360 Y82.930 E0.01716
G1 X103.500 Y80.070 E0.12850
G1 X102.960 Y80.070 E0.01716
G1 X105.820 Y82.930 E0.12850
G1 X105.279 Y82.930 E0.01716
G1 X102.419 Y80.070 E0.12850
G1 X102.235 Y80.070 E0.00585
G1 X102.105 Y80.296 E0.00828
G1 X104.739 Y82.930 E0.11836
G1 X104.199 Y82.930 E0.01716
G1 X101.907 Y80.638 E0.10297
G1 X101.709 Y80.981 E0.01256
G1 X103.803 Y83.075 E0.09407
G1 X103.605 Y83.417 E0.01256
G1 X101.511 Y81.323 E0.09407
G1 X101.314 Y81.666 E0.01256
G1 X103.407 Y83.760 E0.09407
G1 X103.210 Y84.102 E0.01256
G1 X101.116 Y82.008 E0.09407
G1 X100.918 Y82.351 E0.01256
G1 X103.012 Y84.445 E0.09407
G1 X102.814 Y84.787 E0.01256
G1 X100.720 Y82.693 E0.09407
G1 X100.523 Y83.036 E0.01256
G1 X102.616 Y85.130 E0.09407
G1 X102.419 Y85.472 E0.01256
G1 X100.325 Y83.378 E0.09407
G1 X100.127 Y83.721 E0.01256
G1 X102.221 Y85.815 E0.09407
G1 X102.023 Y86.157 E0.01256
G1 X99.929 Y84.064 E0.09407
G1 X99.732 Y84.406 E0.01256
G1 X101.825 Y86.500 E0.09407
G1 X101.628 Y86.842 E0.01256
G1 X99.534 Y84.749 E0.09407
G1 X99.336 Y85.091 E0.01256
G1 X101.430 Y87.185 E0.09407
G1 X101.232 Y87.528 E0.01256
G1 X99.138 Y85.434 E0.09407
G1 X98.940 Y85.776 E0.01256
G1 X101.034 Y87.870 E0.09407
G1 X100.837 Y88.213 E0.01256
G1 X98.743 Y86.119 E0.09407
G1 X98.545 Y86.461 E0.01256
G1 X100.639 Y88.555 E0.09407
G1 X100.441 Y88.898 E0.01256
G1 X98.347 Y86.804 E0.09407
G1 X98.149 Y87.146 E0.01256
G1 X100.243 Y89.240 E0.09407
G1 X100.045 Y89.583 E0.01256
G1 X97.952 Y87.489 E0.09407
G1 X97.754 Y87.831 E0.01256
G1 X99.848 Y89.925 E0.09407
G1 X99.650 Y90.268 E0.01256
G1 X97.556 Y88.174 E0.09407
G1 X97.358 Y88.516 E0.01256
G1 X99.754 Y90.912 E0.10761
G1 X100.492 Y92.190 E0.04689
G1 X97.161 Y88.859 E0.14965
G1 X96.963 Y89.202 E0.01256
G1 X101.230 Y93.469 E0.19170
G1 X101.968 Y94.747 E0.04689
G1 X96.765 Y89.544 E0.23374
G1 X96.567 Y89.887 E0.01256
G1 X102.706 Y96.025 E0.27578
G1 X103.444 Y97.304 E0.04689
G1 X96.370 Y90.229 E0.31783
G1 X96.213 Y90.500 E0.00993
G1 X96.368 Y90.768 E0.00982
G1 X106.530 Y100.930 E0.45656
G1 X107.070 Y100.930 E0.01716
G1 X104.210 Y98.070 E0.12850
G1 X104.751 Y98.070 E0.01716
G1 X107.611 Y100.930 E0.12850
G1 X108.151 Y100.930 E0.01716
G1 X105.291 Y98.070 E0.12850
G1 X105.831 Y98.070 E0.01716
G1 X108.691 Y100.930 E0.12850
G1 X109.232 Y100.930 E0.01716
G1 X106.371 Y98.070 E0.12850
G1 X106.912 Y98.070 E0.01716
G1 X109.772 Y100.930 E0.12850
G1 X110.312 Y100.930 E0.01716
G1 X107.452 Y98.070 E0.12850
G1 X107.992 Y98.070 E0.01716
G1 X110.853 Y100.930 E0.12850
G1 X111.393 Y100.930 E0.01716
G1 X108.533 Y98.070 E0.12850
G1 X109.073 Y98.070 E0.01716
G1 X111.933 Y100.930 E0.12850
G1 X112.473 Y100.930 E0.01716
G1 X109.613 Y98.070 E0.12850
G1 X110.154 Y98.070 E0.01716
G1 X113.014 Y100.930 E0.12850
G1 X113.554 Y100.930 E0.01716
G1 X110.694 Y98.070 E0.12850
G1 X111.234 Y98.070 E0.01716
G1 X114.094 Y100.930 E0.12850
G1 X114.279 Y100.930 E0.00585
G1 X114.409 Y100.704 E0.00828
G1 X111.774 Y98.070 E0.11836
G1 X112.315 Y98.070 E0.01716
G1 X114.607 Y100.362 E0.10297
G1 X114.805 Y100.019 E0.01256
G1 X112.711 Y97.926 E0.09407
G1 X112.908 Y97.583 E0.01256
G1 X115.002 Y99.677 E0.09407
G1 X115.200 Y99.334 E0.01256
G1 X113.106 Y97.240 E0.09407
G1 X113.304 Y96.898 E0.01256
G1 X115.398 Y98.992 E0.09407
G1 X115.596 Y98.649 E0.01256
G1 X113.502 Y96.555 E0.09407
G1 X113.699 Y96.213 E0.01256
G1 X115.793 Y98.307 E0.09407
G1 X115.991 Y97.964 E0.01256
G1 X113.897 Y95.870 E0.09407
G1 X114.095 Y95.528 E0.01256
G1 X116.189 Y97.622 E0.09407
G1 X116.387 Y97.279 E0.01256
G1 X114.293 Y95.185 E0.09407
G1 X114.491 Y94.843 E0.01256
G1 X116.584 Y96.937 E0.09407
G1 X116.782 Y96.594 E0.01256
G1 X114.688 Y94.500 E0.09407
G1 X114.886 Y94.158 E0.01256
G1 X116.980 Y96.251 E0.09407
G1 X117.178 Y95.909 E0.01256
G1 X115.084 Y93.815 E0.09407
G1 X115.282 Y93.473 E0.01256
G1 X117.375 Y95.566 E0.09407
G1 X117.573 Y95.224 E0.01256
G1 X115.479 Y93.130 E0.09407
G1 X115.677 Y92.787 E0.01256
G1 X117.771 Y94.881 E0.09407
G1 X117.969 Y94.539 E0.01256
G1 X115.875 Y92.445 E0.09407
G1 X116.073 Y92.102 E0.01256
G1 X118.166 Y94.196 E0.09407
G1 X118.364 Y93.854 E0.01256
G1 X116.270 Y91.760 E0.09407
G1 X116.468 Y91.417 E0.01256
G1 X118.562 Y93.511 E0.09407
G1 X118.760 Y93.169 E0.01256
G1 X116.666 Y91.075 E0.09407
G1 X116.864 Y90.732 E0.01256
G1 X118.958 Y92.826 E0.09407
G1 X119.155 Y92.484 E0.01256
G1 X116.760 Y90.088 E0.10761
G1 X116.022 Y88.810 E0.04689
G1 X119.353 Y92.141 E0.14965
G1 X119.551 Y91.798 E0.01256
G1 X115.284 Y87.532 E0.19169
G1 X114.546 Y86.253 E0.04689
G1 X119.749 Y91.456 E0.23374
G1 X119.946 Y91.113 E0.01256
G1 X113.808 Y84.975 E0.27578
G1 X113.070 Y83.697 E0.04689
G1 X120.144 Y90.771 E0.31782
G1 X120.301 Y90.500 E0.00994
G1 X120.146 Y90.233 E0.00981
G1 X109.983 Y80.070 E0.45657
G1 X110.524 Y80.070 E0.01716
G1 X119.408 Y88.954 E0.39914
G1 X118.670 Y87.676 E0.04689
G1 X111.064 Y80.070 E0.34170
M73 Q11 S9
G1 X111.604 Y80.070 E0.01716
G1 X117.932 Y86.397 E0.28427
M73 P11 R9
G1 X117.194 Y85.119 E0.04689
G1 X112.145 Y80.070 E0.22684
G1 X112.685 Y80.070 E0.01716
G1 X116.456 Y83.841 E0.16941
G1 X115.718 Y82.562 E0.04689
G1 X113.225 Y80.070 E0.11198
G1 X113.766 Y80.070 E0.01716
G1 X115.443 Y81.748 E0.07537
G1 F8640.000
G1 X113.766 Y80.070 E-0.54783
G1 X113.225 Y80.070 E-0.12476
G1 X113.493 Y80.338 E-0.08741
G1 E-0.04000 F2100.00000
G1 Z0.600 F10800.000
G1 X106.160 Y101.100
G1 Z0.200
G1 E0.80000 F2100.00000
G1 F1200.000
G1 X97.106 Y92.046 E0.40675
G1 X97.844 Y93.324 E0.04689
G1 X105.450 Y100.930 E0.34170
G1 X104.909 Y100.930 E0.01716
G1 X98.582 Y94.603 E0.28427
G1 X99.320 Y95.881 E0.04689
G1 X104.369 Y100.930 E0.22683
G1 X103.829 Y100.930 E0.01716
G1 X100.058 Y97.159 E0.16940
G1 X100.796 Y98.438 E0.04689
G1 X103.288 Y100.930 E0.11197
G1 X102.748 Y100.930 E0.01716
G1 X101.071 Y99.253 E0.07536
; stop printing object M8NutOutline.stl id:0 copy 2
; printing object M8NutOutline.stl id:0 copy 3
G1 F8640.000
G1 X102.748 Y100.930 E-0.54779
G1 X103.288 Y100.930 E-0.12476
G1 X103.021 Y100.662 E-0.08745
G1 E-0.04000 F2100.00000
G1 Z0.600 F10800.000
G1 X104.050 Y112.213
G1 Z0.200
G1 E0.80000 F2100.00000
G1 F1200.000
G1 X112.464 Y112.213 E0.26383
G1 X116.671 Y119.500 E0.26383
G1 X112.464 Y126.787 E0.26383
G1 X104.050 Y126.787 E0.26383
G1 X99.842 Y119.500 E0.26383
G1 X104.020 Y112.265 E0.26195
G1 X104.267 Y112.590 F10800.000
G1 F1200.000
G1 X112.246 Y112.590 E0.25018
G1 X116.236 Y119.500 E0.25018
G1 X112.246 Y126.410 E0.25018
G1 X104.267 Y126.410 E0.25018
G1 X100.278 Y119.500 E0.25018
G1 X104.237 Y112.642 E0.24829
G1 X104.267 Y112.190 F10800.000
G1 F8640.000
G1 X107.529 Y112.621 E-0.76000
G1 E-0.04000 F2100.00000
G1 Z0.600 F10800.000
G1 X102.072 Y108.787
G1 Z0.200
G1 E0.80000 F2100.00000
G1 F1200.000
G1 X114.442 Y108.787 E0.38786
G1 X120.627 Y119.500 E0.38786
G1 X114.442 Y130.213 E0.38786
G1 X102.072 Y130.213 E0.38786
G1 X95.887 Y119.500 E0.38786
G1 X102.042 Y108.839 E0.38598
G1 X101.854 Y108.410 F10800.000
G1 F1200.000
G1 X114.660 Y108.410 E0.40151
G1 X121.062 Y119.500 E0.40151
G1 X114.660 Y130.590 E0.40151
G1 X101.854 Y130.590 E0.40151
G1 X95.451 Y119.500 E0.40151
G1 X101.824 Y108.462 E0.39963
G1 X102.200 Y108.610 F10800.000
G1 F8640.000
G1 X105.115 Y108.449 E-0.76000
G1 E-0.04000 F2100.00000
G1 Z0.600 F10800.000
G1 X109.273 Y108.900
G1 Z0.200
G1 E0.80000 F2100.00000
G1 F1200.000
G1 X112.303 Y111.930 E0.13612
G1 X111.763 Y111.930 E0.01716
G1 X108.903 Y109.070 E0.12850
G1 X108.363 Y109.070 E0.01716
G1 X111.223 Y111.930 E0.12850
G1 X110.682 Y111.930 E0.01716
G1 X107.822 Y109.070 E0.12850
G1 X107.282 Y109.070 E0.01716
G1 X110.142 Y111.930 E0.12850
G1 X109.602 Y111.930 E0.01716
G1 X106.742 Y109.070 E0.12850
G1 X106.201 Y109.070 E0.01716
G1 X109.062 Y111.930 E0.12850
G1 X108.521 Y111.930 E0.01716
G1 X105.661 Y109.070 E0.12850
G1 X105.121 Y109.070 E0.01716
G1 X107.981 Y111.930 E0.12850
G1 X107.441 Y111.930 E0.01716
G1 X104.580 Y109.070 E0.12850
G1 X104.040 Y109.070 E0.01716
G1 X106.900 Y111.930 E0.12850
G1 X106.360 Y111.930 E0.01716
G1 X103.500 Y109.070 E0.12850
G1 X102.960 Y109.070 E0.01716
G1 X105.820 Y111.930 E0.12850
G1 X105.279 Y111.930 E0.01716
G1 X102.419 Y109.070 E0.12850
G1 X102.235 Y109.070 E0.00585
G1 X102.105 Y109.296 E0.00828
G1 X104.739 Y111.930 E0.11836
G1 X104.199 Y111.930 E0.01716
G1 X101.907 Y109.638 E0.10297
G1 X101.709 Y109.981 E0.01256
G1 X103.803 Y112.075 E0.09407
G1 X103.605 Y112.417 E0.01256
G1 X101.511 Y110.323 E0.09407
G1 X101.314 Y110.666 E0.01256
G1 X103.407 Y112.760 E0.09407
G1 X103.210 Y113.102 E0.01256
G1 X101.116 Y111.008 E0.09407
G1 X100.918 Y111.351 E0.01256
G1 X103.012 Y113.445 E0.09407
G1 X102.814 Y113.787 E0.01256
G1 X100.720 Y111.693 E0.09407
G1 X100.523 Y112.036 E0.01256
G1 X102.616 Y114.130 E0.09407
G1 X102.419 Y114.472 E0.01256
G1 X100.325 Y112.378 E0.09407
G1 X100.127 Y112.721 E0.01256
G1 X102.221 Y114.815 E0.09407
G1 X102.023 Y115.157 E0.01256
G1 X99.929 Y113.064 E0.09407
G1 X99.732 Y113.406 E0.01256
G1 X101.825 Y115.500 E0.09407
G1 X101.628 Y115.842 E0.01256
G1 X99.534 Y113.749 E0.09407
G1 X99.336 Y114.091 E0.01256
G1 X101.430 Y116.185 E0.09407
G1 X101.232 Y116.528 E0.01256
G1 X99.138 Y114.434 E0.09407
G1 X98.940 Y114.776 E0.01256
G1 X101.034 Y116.870 E0.09407
G1 X100.837 Y117.213 E0.01256
G1 X98.743 Y115.119 E0.09407
G1 X98.545 Y115.461 E0.01256
G1 X100.639 Y117.555 E0.09407
G1 X100.441 Y117.898 E0.01256
G1 X98.347 Y115.804 E0.09407
G1 X98.149 Y116.146 E0.01256
G1 X100.243 Y118.240 E0.09407
G1 X100.045 Y118.583 E0.01256
G1 X97.952 Y116.489 E0.09407
G1 X97.754 Y116.831 E0.01256
G1 X99.848 Y118.925 E0.09407
G1 X99.650 Y119.268 E0.01256
G1 X97.556 Y117.174 E0.09407
G1 X97.358 Y117.516 E0.01256
G1 X99.754 Y119.912 E0.10761
G1 X100.492 Y121.190 E0.04689
G1 X97.161 Y117.859 E0.14965
G1 X96.963 Y118.202 E0.01256
G1 X101.230 Y122.469 E0.19170
G1 X101.968 Y123.747 E0.04689
G1 X96.765 Y118.544 E0.23374
G1 X96.567 Y118.887 E0.01256
G1 X102.706 Y125.025 E0.27578
G1 X103.444 Y126.304 E0.04689
G1 X96.370 Y119.229 E0.31783
G1 X96.213 Y119.500 E0.00993
G1 X96.368 Y119.768 E0.00982
G1 X106.530 Y129.930 E0.45656
G1 X107.070 Y129.930 E0.01716
G1 X104.210 Y127.070 E0.12850
G1 X104.751 Y127.070 E0.01716
G1 X107.611 Y129.930 E0.12850
G1 X108.151 Y129.930 E0.01716
G1 X105.291 Y127.070 E0.12850
G1 X105.831 Y127.070 E0.01716
G1 X108.691 Y129.930 E0.12850
G1 X109.232 Y129.930 E0.01716
G1 X106.371 Y127.070 E0.12850
G1 X106.912 Y127.070 E0.01716
G1 X109.772 Y129.930 E0.12850
G1 X110.312 Y129.930 E0.01716
G1 X107.452 Y127.070 E0.12850
G1 X107.992 Y127.070 E0.01716
G1 X110.853 Y129.930 E0.12850
G1 X111.393 Y129.930 E0.01716
G1 X108.533 Y127.070 E0.12850
G1 X109.073 Y127.070 E0.01716
G1 X111.933 Y129.930 E0.12850
G1 X112.473 Y129.930 E0.01716
G1 X109.613 Y127.070 E0.12850
G1 X110.154 Y127.070 E0.01716
G1 X113.014 Y129.930 E0.12850
G1 X113.554 Y129.930 E0.01716
G1 X110.694 Y127.070 E0.12850
G1 X111.234 Y127.070 E0.01716
G1 X114.094 Y129.930 E0.12850
G1 X114.279 Y129.930 E0.00585
G1 X114.409 Y129.704 E0.00828
G1 X111.774 Y127.070 E0.11836
G1 X112.315 Y127.070 E0.01716
G1 X114.607 Y129.362 E0.10297
G1 X114.805 Y129.019 E0.01256
G1 X112.711 Y126.926 E0.09407
G1 X112.908 Y126.583 E0.01256
G1 X115.002 Y128.677 E0.09407
G1 X115.200 Y128.334 E0.01256
G1 X113.106 Y126.240 E0.09407
G1 X113.304 Y125.898 E0.01256
G1 X115.398 Y127.992 E0.09407
G1 X115.596 Y127.649 E0.01256
G1 X113.502 Y125.555 E0.09407
G1 X113.699 Y125.213 E0.01256
