; generated by PrusaSlicer 2.2.0+win64 on 2021-02-24 at 02:51:26 UTC

; 

; external perimeters extrusion width = 0.60mm
; perimeters extrusion width = 0.50mm
; infill extrusion width = 0.50mm
; solid infill extrusion width = 0.50mm
; top infill extrusion width = 0.45mm
; first layer extrusion width = 0.42mm

M73 P0 R47
M73 Q0 S47
M201 X1000 Y1000 Z200 E5000 ; sets maximum accelerations, mm/sec^2
M203 X200 Y200 Z12 E120 ; sets maximum feedrates, mm/sec
M204 P1250 R1250 T1250 ; sets acceleration (P, T) and retract acceleration (R), mm/sec^2
M205 X8.00 Y8.00 Z0.40 E4.50 ; sets the jerk limits, mm/sec
M205 S0 T0 ; sets the minimum extruding and travel feed rate, mm/sec
M107
M862.3 P "MK3SMMU2S" ; printer model check
M862.1 P0.4 ; nozzle diameter check
M115 U3.9.3 ; tell printer latest fw version
G90 ; use absolute coordinates
M83 ; extruder relative mode
M104 S215 ; set extruder temp
M140 S60 ; set bed temp
Tx
M190 S60 ; wait for bed temp
M109 S215 ; wait for extruder temp
G28 W ; home all without mesh bed level
G80 ; mesh bed leveling

;go outside print area
G1 Y-3.0 F1000.0
G1 Z0.4 F1000.0
; select extruder
Tc
; purge line
G1 X55.0 F2000.0
G1 Z0.3 F1000.0
G92 E0.0
G1 X240.0 E25.0 F2200.0
M73 Q0 S47
M73 P0 R46
G1 Y-2.0 F1000.0
G1 X55.0 E25 F1400.0
G1 Z0.20 F1000.0
G1 X5.0 E4.0 F1000.0

M221 S95
G92 E0.0

; Don't change E values below. Excessive value can damage the printer.

M907 E538 ; set extruder motor current
G21 ; set units to millimeters
G90 ; use absolute coordinates
M83 ; use relative distances for extrusion
M900 K0.05 ; Filament gcode LA 1.5
M900 K30 ; Filament gcode LA 1.0
;BEFORE_LAYER_CHANGE
G92 E0.0
;0.2


G1 E-0.80000 F2100.00000
G1 Z0.400 F10800.000
;AFTER_LAYER_CHANGE
;0.2
G1 X103.764 Y87.722
G1 Z0.200
G1 E0.80000 F2100.00000
M204 S1000
G1 F1200.000
G1 X105.642 Y85.641 E0.08790
G1 X107.724 Y83.762 E0.08790
G1 X109.983 Y82.109 E0.08778
G1 X112.403 Y80.693 E0.08790
G1 X114.919 Y79.547 E0.08670
G1 X116.780 Y78.887 E0.06190
G1 X119.470 Y78.188 E0.08715
G1 X122.202 Y77.766 E0.08667
G1 X125.005 Y77.623 E0.08802
G1 X127.801 Y77.767 E0.08778
G1 X130.568 Y78.195 E0.08778
G1 X133.280 Y78.905 E0.08790
G1 X135.870 Y79.874 E0.08670
G1 X138.382 Y81.117 E0.08790
G1 X140.049 Y82.130 E0.06116
G1 X142.278 Y83.764 E0.08667
G1 X144.359 Y85.642 E0.08790
G1 X146.238 Y87.724 E0.08790
G1 X147.891 Y89.983 E0.08778
G1 X149.307 Y92.403 E0.08790
G1 X150.453 Y94.919 E0.08670
G1 X151.113 Y96.780 E0.06190
G1 X151.812 Y99.470 E0.08715
G1 X152.234 Y102.202 E0.08667
G1 X152.377 Y105.001 E0.08790
G1 X152.233 Y107.801 E0.08790
G1 X151.805 Y110.568 E0.08778
G1 X151.095 Y113.280 E0.08790
G1 X150.126 Y115.870 E0.08670
G1 X148.883 Y118.382 E0.08790
G1 X147.870 Y120.049 E0.06116
G1 X146.236 Y122.278 E0.08667
G1 X144.358 Y124.359 E0.08790
G1 X142.276 Y126.238 E0.08790
G1 X140.017 Y127.891 E0.08778
G1 X137.597 Y129.307 E0.08790
G1 X135.081 Y130.453 E0.08670
G1 X133.220 Y131.113 E0.06190
G1 X130.530 Y131.812 E0.08715
G1 X127.798 Y132.234 E0.08667
G1 X124.999 Y132.377 E0.08790
G1 X122.199 Y132.233 E0.08790
G1 X119.432 Y131.805 E0.08778
G1 X116.720 Y131.095 E0.08790
G1 X114.130 Y130.126 E0.08670
G1 X111.618 Y128.883 E0.08790
G1 X109.951 Y127.870 E0.06116
G1 X107.722 Y126.236 E0.08667
G1 X105.641 Y124.358 E0.08790
G1 X103.762 Y122.276 E0.08790
G1 X102.109 Y120.017 E0.08778
G1 X100.693 Y117.597 E0.08790
G1 X99.547 Y115.081 E0.08670
G1 X98.887 Y113.220 E0.06190
G1 X98.188 Y110.530 E0.08715
G1 X97.766 Y107.798 E0.08667
G1 X97.623 Y104.999 E0.08790
G1 X97.767 Y102.199 E0.08790
G1 X98.195 Y99.432 E0.08778
G1 X98.905 Y96.720 E0.08790
G1 X99.874 Y94.130 E0.08670
G1 X101.117 Y91.618 E0.08790
G1 X102.130 Y89.951 E0.06116
G1 X103.729 Y87.770 E0.08479
; printing object Part511.stl id:0 copy 0
G1 F8640.000
G1 X105.642 Y85.641 E-0.66109
G1 X105.960 Y85.354 E-0.09891
G1 E-0.04000 F2100.00000
G1 Z0.600 F10800.000
G1 X121.275 Y101.992
G1 Z0.200
G1 E0.80000 F2100.00000
G1 F1200.000
G1 X121.543 Y101.687 E0.01274
G1 X121.837 Y101.406 E0.01274
G1 X122.141 Y101.160 E0.01227
G1 X122.489 Y100.924 E0.01318
G1 X122.845 Y100.725 E0.01277
G1 X123.215 Y100.557 E0.01274
G1 X123.598 Y100.422 E0.01274
G1 X123.991 Y100.320 E0.01274
G1 X124.392 Y100.251 E0.01274
G1 X124.797 Y100.217 E0.01274
G1 X125.203 Y100.217 E0.01274
G1 X125.608 Y100.251 E0.01274
G1 X126.009 Y100.320 E0.01274
G1 X126.402 Y100.422 E0.01274
G1 X126.785 Y100.557 E0.01274
G1 X127.155 Y100.725 E0.01274
G1 X127.497 Y100.916 E0.01227
G1 X127.846 Y101.150 E0.01318
G1 X128.163 Y101.406 E0.01277
G1 X128.457 Y101.687 E0.01274
G1 X128.725 Y101.992 E0.01274
G1 X128.967 Y102.319 E0.01274
G1 X129.180 Y102.665 E0.01274
G1 X129.363 Y103.028 E0.01274
G1 X129.514 Y103.405 E0.01274
G1 X129.633 Y103.794 E0.01274
G1 X129.719 Y104.191 E0.01274
G1 X129.771 Y104.594 E0.01274
G1 X129.788 Y105.000 E0.01274
G1 X129.771 Y105.391 E0.01227
G1 X129.719 Y105.808 E0.01318
G1 X129.633 Y106.206 E0.01277
G1 X129.514 Y106.595 E0.01274
G1 X129.363 Y106.972 E0.01274
G1 X129.180 Y107.335 E0.01274
G1 X128.967 Y107.681 E0.01274
G1 X128.725 Y108.008 E0.01274
G1 X128.457 Y108.313 E0.01274
G1 X128.163 Y108.594 E0.01274
G1 X127.847 Y108.849 E0.01274
G1 X127.510 Y109.077 E0.01274
G1 X127.155 Y109.275 E0.01274
G1 X126.785 Y109.443 E0.01274
G1 X126.402 Y109.578 E0.01274
G1 X126.009 Y109.680 E0.01274
G1 X125.608 Y109.749 E0.01274
G1 X125.203 Y109.783 E0.01274
G1 X124.797 Y109.783 E0.01274
G1 X124.392 Y109.749 E0.01274
G1 X123.991 Y109.680 E0.01274
G1 X123.598 Y109.578 E0.01274
G1 X123.215 Y109.443 E0.01274
G1 X122.845 Y109.275 E0.01274
G1 X122.490 Y109.077 E0.01274
G1 X122.153 Y108.849 E0.01274
G1 X121.837 Y108.594 E0.01274
G1 X121.543 Y108.313 E0.01274
G1 X121.275 Y108.008 E0.01274
G1 X121.042 Y107.693 E0.01227
G1 X120.821 Y107.336 E0.01318
G1 X120.637 Y106.972 E0.01277
G1 X120.486 Y106.595 E0.01274
G1 X120.367 Y106.206 E0.01274
G1 X120.281 Y105.809 E0.01274
G1 X120.229 Y105.406 E0.01274
G1 X120.212 Y105.000 E0.01274
G1 X120.229 Y104.609 E0.01227
G1 X120.281 Y104.192 E0.01318
G1 X120.367 Y103.794 E0.01277
G1 X120.486 Y103.405 E0.01274
G1 X120.637 Y103.028 E0.01274
G1 X120.820 Y102.665 E0.01274
G1 X121.033 Y102.319 E0.01274
G1 X121.239 Y102.040 E0.01086
G1 X121.542 Y102.265 F10800.000
G1 F1200.000
G1 X121.816 Y101.948 E0.01311
G1 X122.086 Y101.689 E0.01174
G1 X122.366 Y101.463 E0.01129
G1 X122.687 Y101.245 E0.01218
G1 X123.014 Y101.062 E0.01175
G1 X123.356 Y100.908 E0.01174
G1 X123.709 Y100.783 E0.01174
G1 X124.071 Y100.689 E0.01174
G1 X124.440 Y100.625 E0.01174
G1 X124.813 Y100.594 E0.01174
G1 X125.187 Y100.594 E0.01174
G1 X125.560 Y100.625 E0.01174
G1 X125.929 Y100.689 E0.01174
G1 X126.291 Y100.783 E0.01174
G1 X126.644 Y100.908 E0.01174
G1 X126.986 Y101.062 E0.01174
G1 X127.300 Y101.237 E0.01129
G1 X127.622 Y101.454 E0.01217
G1 X127.914 Y101.689 E0.01175
G1 X128.184 Y101.948 E0.01174
G1 X128.431 Y102.229 E0.01174
G1 X128.654 Y102.530 E0.01174
G1 X128.850 Y102.849 E0.01174
G1 X129.019 Y103.183 E0.01174
G1 X129.158 Y103.531 E0.01174
G1 X129.268 Y103.889 E0.01174
G1 X129.347 Y104.255 E0.01174
G1 X129.394 Y104.626 E0.01174
G1 X129.410 Y105.000 E0.01174
G1 X129.395 Y105.360 E0.01129
G1 X129.347 Y105.745 E0.01218
G1 X129.268 Y106.111 E0.01175
G1 X129.158 Y106.469 E0.01174
G1 X129.019 Y106.817 E0.01174
G1 X128.850 Y107.151 E0.01174
G1 X128.654 Y107.470 E0.01174
G1 X128.431 Y107.771 E0.01174
G1 X128.184 Y108.052 E0.01174
G1 X127.914 Y108.311 E0.01174
G1 X127.623 Y108.546 E0.01174
G1 X127.312 Y108.756 E0.01174
G1 X126.986 Y108.938 E0.01174
G1 X126.644 Y109.092 E0.01174
G1 X126.291 Y109.217 E0.01174
G1 X125.929 Y109.311 E0.01174
G1 X125.560 Y109.375 E0.01174
G1 X125.187 Y109.406 E0.01174
G1 X124.813 Y109.406 E0.01174
G1 X124.440 Y109.375 E0.01174
G1 X124.071 Y109.311 E0.01174
G1 X123.709 Y109.217 E0.01174
G1 X123.356 Y109.092 E0.01174
G1 X123.014 Y108.938 E0.01174
G1 X122.688 Y108.756 E0.01174
G1 X122.377 Y108.546 E0.01174
G1 X122.086 Y108.311 E0.01174
G1 X121.816 Y108.052 E0.01174
G1 X121.569 Y107.771 E0.01174
G1 X121.354 Y107.481 E0.01129
G1 X121.150 Y107.151 E0.01217
G1 X120.981 Y106.817 E0.01175
G1 X120.842 Y106.469 E0.01174
G1 X120.732 Y106.111 E0.01174
G1 X120.653 Y105.745 E0.01174
G1 X120.606 Y105.374 E0.01174
G1 X120.590 Y105.000 E0.01174
G1 X120.605 Y104.640 E0.01129
G1 X120.653 Y104.255 E0.01218
G1 X120.732 Y103.889 E0.01175
G1 X120.842 Y103.531 E0.01174
G1 X120.981 Y103.183 E0.01174
G1 X121.150 Y102.849 E0.01174
G1 X121.346 Y102.530 E0.01174
G1 X121.507 Y102.313 E0.00848
G1 X121.396 Y101.892 F10800.000
G1 F8640.000
G1 X121.816 Y101.948 E-0.11038
G1 X122.086 Y101.689 E-0.08644
G1 X122.366 Y101.463 E-0.08313
G1 X122.687 Y101.245 E-0.08966
G1 X123.014 Y101.062 E-0.08652
G1 X123.356 Y100.908 E-0.08644
G1 X123.709 Y100.783 E-0.08644
G1 X124.071 Y100.689 E-0.08644
G1 X124.261 Y100.656 E-0.04454
G1 E-0.04000 F2100.00000
G1 Z0.600 F10800.000
G1 X105.935 Y90.080
G1 Z0.200
G1 E0.80000 F2100.00000
G1 F1200.000
G1 X106.750 Y89.087 E0.04029
G1 X107.304 Y88.473 E0.02592
G1 X107.879 Y87.879 E0.02592
G1 X108.473 Y87.304 E0.02592
G1 X109.087 Y86.750 E0.02592
G1 X109.720 Y86.218 E0.02592
G1 X110.370 Y85.707 E0.02592
G1 X111.037 Y85.219 E0.02592
G1 X111.720 Y84.754 E0.02592
G1 X112.419 Y84.312 E0.02592
G1 X113.133 Y83.895 E0.02592
G1 X113.861 Y83.502 E0.02592
G1 X114.601 Y83.134 E0.02592
G1 X115.354 Y82.792 E0.02592
G1 X116.117 Y82.475 E0.02592
G1 X116.892 Y82.185 E0.02592
G1 X117.675 Y81.922 E0.02592
G1 X118.467 Y81.685 E0.02592
G1 X119.267 Y81.476 E0.02592
G1 X120.074 Y81.294 E0.02592
G1 X120.886 Y81.139 E0.02592
G1 X121.703 Y81.013 E0.02592
G1 X122.524 Y80.914 E0.02592
G1 X123.348 Y80.844 E0.02592
G1 X124.173 Y80.801 E0.02592
G1 X125.003 Y80.787 E0.02603
G1 X125.827 Y80.801 E0.02582
G1 X126.652 Y80.844 E0.02592
G1 X127.476 Y80.914 E0.02592
G1 X128.300 Y81.013 E0.02603
G1 X129.114 Y81.139 E0.02582
G1 X129.926 Y81.294 E0.02592
G1 X130.733 Y81.476 E0.02592
G1 X131.533 Y81.685 E0.02592
G1 X132.325 Y81.922 E0.02592
G1 X133.108 Y82.185 E0.02592
G1 X133.883 Y82.475 E0.02592
G1 X134.646 Y82.792 E0.02592
G1 X135.399 Y83.134 E0.02592
G1 X136.139 Y83.502 E0.02592
G1 X136.867 Y83.895 E0.02592
G1 X137.583 Y84.314 E0.02603
G1 X138.280 Y84.754 E0.02582
G1 X138.963 Y85.219 E0.02592
G1 X139.630 Y85.707 E0.02592
G1 X140.280 Y86.218 E0.02592
G1 X140.913 Y86.750 E0.02592
G1 X141.527 Y87.304 E0.02592
G1 X142.121 Y87.879 E0.02592
G1 X142.696 Y88.473 E0.02592
G1 X143.250 Y89.087 E0.02592
G1 X143.782 Y89.720 E0.02592
G1 X144.293 Y90.370 E0.02592
G1 X144.781 Y91.037 E0.02592
G1 X145.246 Y91.720 E0.02592
G1 X145.688 Y92.419 E0.02592
G1 X146.105 Y93.133 E0.02592
G1 X146.498 Y93.861 E0.02592
G1 X146.866 Y94.601 E0.02592
G1 X147.208 Y95.354 E0.02592
G1 X147.525 Y96.117 E0.02592
G1 X147.815 Y96.892 E0.02592
G1 X148.078 Y97.675 E0.02592
G1 X148.315 Y98.467 E0.02592
G1 X148.524 Y99.267 E0.02592
G1 X148.706 Y100.074 E0.02592
G1 X148.861 Y100.886 E0.02592
G1 X148.987 Y101.703 E0.02592
G1 X149.086 Y102.524 E0.02592
G1 X149.156 Y103.348 E0.02592
G1 X149.199 Y104.173 E0.02592
G1 X149.213 Y105.000 E0.02592
G1 X149.199 Y105.827 E0.02592
G1 X149.156 Y106.652 E0.02592
G1 X149.086 Y107.476 E0.02592
G1 X148.987 Y108.300 E0.02603
G1 X148.861 Y109.114 E0.02582
G1 X148.706 Y109.926 E0.02592
G1 X148.524 Y110.733 E0.02592
G1 X148.315 Y111.533 E0.02592
G1 X148.078 Y112.325 E0.02592
G1 X147.815 Y113.108 E0.02592
G1 X147.523 Y113.886 E0.02603
G1 X147.208 Y114.646 E0.02582
G1 X146.866 Y115.399 E0.02592
G1 X146.498 Y116.139 E0.02592
G1 X146.105 Y116.867 E0.02592
G1 X145.688 Y117.581 E0.02592
G1 X145.246 Y118.280 E0.02592
G1 X144.781 Y118.963 E0.02592
G1 X144.293 Y119.630 E0.02592
G1 X143.782 Y120.280 E0.02592
G1 X143.250 Y120.913 E0.02592
G1 X142.696 Y121.527 E0.02592
G1 X142.121 Y122.121 E0.02592
G1 X141.527 Y122.696 E0.02592
G1 X140.913 Y123.250 E0.02592
G1 X140.280 Y123.782 E0.02592
G1 X139.630 Y124.293 E0.02592
G1 X138.963 Y124.781 E0.02592
G1 X138.280 Y125.246 E0.02592
G1 X137.581 Y125.688 E0.02592
G1 X136.867 Y126.105 E0.02592
G1 X136.139 Y126.498 E0.02592
G1 X135.399 Y126.866 E0.02592
G1 X134.646 Y127.208 E0.02592
G1 X133.883 Y127.525 E0.02592
G1 X133.108 Y127.815 E0.02592
G1 X132.325 Y128.078 E0.02592
G1 X131.533 Y128.315 E0.02592
G1 X130.733 Y128.524 E0.02592
G1 X129.926 Y128.706 E0.02592
G1 X129.114 Y128.861 E0.02592
G1 X128.297 Y128.987 E0.02592
G1 X127.476 Y129.086 E0.02592
G1 X126.652 Y129.156 E0.02592
G1 X125.827 Y129.199 E0.02592
G1 X125.000 Y129.213 E0.02592
G1 X124.173 Y129.199 E0.02592
G1 X123.348 Y129.156 E0.02592
G1 X122.524 Y129.086 E0.02592
G1 X121.700 Y128.987 E0.02603
G1 X120.886 Y128.861 E0.02582
G1 X120.074 Y128.706 E0.02592
G1 X119.267 Y128.524 E0.02592
G1 X118.467 Y128.315 E0.02592
G1 X117.675 Y128.078 E0.02592
G1 X116.892 Y127.815 E0.02592
G1 X116.114 Y127.523 E0.02603
G1 X115.354 Y127.208 E0.02582
G1 X114.601 Y126.866 E0.02592
G1 X113.861 Y126.498 E0.02592
G1 X113.133 Y126.105 E0.02592
G1 X112.419 Y125.688 E0.02592
G1 X111.720 Y125.246 E0.02592
G1 X111.037 Y124.781 E0.02592
G1 X110.370 Y124.293 E0.02592
G1 X109.720 Y123.782 E0.02592
G1 X109.087 Y123.250 E0.02592
G1 X108.473 Y122.696 E0.02592
G1 X107.879 Y122.121 E0.02592
G1 X107.304 Y121.527 E0.02592
G1 X106.750 Y120.913 E0.02592
G1 X106.218 Y120.280 E0.02592
G1 X105.707 Y119.630 E0.02592
G1 X105.219 Y118.963 E0.02592
G1 X104.754 Y118.280 E0.02592
G1 X104.312 Y117.581 E0.02592
G1 X103.895 Y116.867 E0.02592
G1 X103.502 Y116.139 E0.02592
G1 X103.134 Y115.399 E0.02592
G1 X102.792 Y114.646 E0.02592
G1 X102.475 Y113.883 E0.02592
G1 X102.185 Y113.108 E0.02592
G1 X101.922 Y112.325 E0.02592
G1 X101.685 Y111.533 E0.02592
G1 X101.476 Y110.733 E0.02592
G1 X101.294 Y109.926 E0.02592
G1 X101.139 Y109.114 E0.02592
G1 X101.013 Y108.297 E0.02592
G1 X100.914 Y107.476 E0.02592
G1 X100.844 Y106.652 E0.02592
G1 X100.801 Y105.827 E0.02592
G1 X100.787 Y105.000 E0.02592
G1 X100.801 Y104.173 E0.02592
G1 X100.844 Y103.348 E0.02592
G1 X100.914 Y102.524 E0.02592
G1 X101.013 Y101.700 E0.02603
G1 X101.139 Y100.886 E0.02582
G1 X101.294 Y100.074 E0.02592
G1 X101.476 Y99.267 E0.02592
G1 X101.685 Y98.467 E0.02592
G1 X101.922 Y97.675 E0.02592
G1 X102.185 Y96.892 E0.02592
G1 X102.477 Y96.114 E0.02603
G1 X102.792 Y95.354 E0.02582
G1 X103.134 Y94.601 E0.02592
G1 X103.502 Y93.861 E0.02592
G1 X103.895 Y93.133 E0.02592
G1 X104.312 Y92.419 E0.02592
G1 X104.754 Y91.720 E0.02592
G1 X105.219 Y91.037 E0.02592
G1 X105.898 Y90.127 E0.03559
G1 X105.601 Y89.894 F10800.000
G1 F1200.000
G1 X106.466 Y88.839 E0.04277
G1 X107.029 Y88.216 E0.02633
G1 X107.612 Y87.612 E0.02633
G1 X108.216 Y87.029 E0.02633
G1 X108.839 Y86.466 E0.02633
G1 X109.482 Y85.925 E0.02633
G1 X110.142 Y85.407 E0.02633
G1 X110.819 Y84.911 E0.02633
G1 X111.514 Y84.438 E0.02633
G1 X112.223 Y83.990 E0.02633
G1 X112.948 Y83.566 E0.02633
G1 X113.687 Y83.167 E0.02633
G1 X114.439 Y82.793 E0.02633
G1 X115.203 Y82.446 E0.02633
G1 X115.979 Y82.125 E0.02633
G1 X116.765 Y81.830 E0.02633
G1 X117.561 Y81.562 E0.02633
G1 X118.366 Y81.322 E0.02633
G1 X119.178 Y81.109 E0.02633
G1 X119.997 Y80.924 E0.02633
G1 X120.822 Y80.768 E0.02633
G1 X121.652 Y80.639 E0.02633
G1 X122.485 Y80.539 E0.02633
G1 X123.322 Y80.467 E0.02633
G1 X124.160 Y80.424 E0.02633
G1 X125.003 Y80.410 E0.02643
G1 X125.840 Y80.424 E0.02622
G1 X126.678 Y80.467 E0.02633
G1 X127.515 Y80.539 E0.02633
G1 X128.352 Y80.640 E0.02643
G1 X129.178 Y80.768 E0.02622
G1 X130.003 Y80.924 E0.02633
G1 X130.822 Y81.109 E0.02633
G1 X131.634 Y81.322 E0.02633
G1 X132.439 Y81.562 E0.02633
G1 X133.235 Y81.830 E0.02633
G1 X134.021 Y82.125 E0.02633
G1 X134.797 Y82.446 E0.02633
G1 X135.561 Y82.793 E0.02633
G1 X136.313 Y83.167 E0.02633
G1 X137.052 Y83.566 E0.02633
G1 X137.779 Y83.992 E0.02643
G1 X138.486 Y84.438 E0.02622
G1 X139.181 Y84.911 E0.02633
G1 X139.858 Y85.407 E0.02633
G1 X140.518 Y85.925 E0.02633
G1 X141.161 Y86.466 E0.02633
G1 X141.784 Y87.029 E0.02633
G1 X142.388 Y87.612 E0.02633
G1 X142.971 Y88.216 E0.02633
G1 X143.534 Y88.839 E0.02633
G1 X144.075 Y89.482 E0.02633
G1 X144.593 Y90.142 E0.02633
G1 X145.089 Y90.819 E0.02633
G1 X145.562 Y91.514 E0.02633
G1 X146.010 Y92.223 E0.02633
G1 X146.434 Y92.948 E0.02633
G1 X146.833 Y93.687 E0.02633
G1 X147.207 Y94.439 E0.02633
