; generated by PrusaSlicer 2.3.0+win64 on 2021-03-07 at 16:59:52 UTC

; 

; external perimeters extrusion width = 0.45mm
; perimeters extrusion width = 0.45mm
; infill extrusion width = 0.45mm
; solid infill extrusion width = 0.45mm
; top infill extrusion width = 0.40mm
; support material extrusion width = 0.35mm
; first layer extrusion width = 0.42mm

M73 P0 R104
M73 Q0 S106
M201 X1000 Y1000 Z200 E5000 ; sets maximum accelerations, mm/sec^2
M203 X200 Y200 Z12 E120 ; sets maximum feedrates, mm/sec
M204 P1250 R1250 T1250 ; sets acceleration (P, T) and retract acceleration (R), mm/sec^2
M205 X8.00 Y8.00 Z0.40 E4.50 ; sets the jerk limits, mm/sec
M205 S0 T0 ; sets the minimum extruding and travel feed rate, mm/sec
M107
;TYPE:Custom
M862.3 P "MK3SMMU2S" ; printer model check
M862.1 P0.4 ; nozzle diameter check
M115 U3.9.3 ; tell printer latest fw version
G90 ; use absolute coordinates
M83 ; extruder relative mode
M104 S215 ; set extruder temp
M140 S60 ; set bed temp
Tx
M190 S60 ; wait for bed temp
M109 S215 ; wait for extruder temp
G28 W ; home all without mesh bed level
G80 ; mesh bed leveling

;go outside print area
G1 Y-3.0 F1000.0
G1 Z0.4 F1000.0
; select extruder
Tc
; purge line
G1 X55.0 F2000.0
G1 Z0.3 F1000.0
G92 E0.0
G1 X240.0 E25.0 F2200.0
G1 Y-2.0 F1000.0
G1 X55.0 E25 F1400.0
G1 Z0.20 F1000.0
G1 X5.0 E4.0 F1000.0

M221 S95
G92 E0.0

; Don't change E values below. Excessive value can damage the printer.

M907 E538 ; set extruder motor current
G21 ; set units to millimeters
G90 ; use absolute coordinates
M83 ; use relative distances for extrusion
M900 K0.05 ; Filament gcode LA 1.5
M900 K30 ; Filament gcode LA 1.0
;LAYER_CHANGE
;Z:0.2
;HEIGHT:0.2
;BEFORE_LAYER_CHANGE
G92 E0.0
;0.2


G1 E-0.80000 F2100.000
G1 Z0.400 F10800.000
;AFTER_LAYER_CHANGE
;0.2
G1 X80.401 Y82.741
G1 Z0.200
G1 E0.80000 F2100.000
M204 S1000
;TYPE:Skirt
;WIDTH:0.42
G1 F1200.000
G1 X80.930 Y82.377 E0.02012
G1 X81.448 Y82.188 E0.01728
G1 X81.991 Y82.123 E0.01716
G1 X168.004 Y82.123 E2.69686
G1 X168.899 Y82.299 E0.02860
G1 X169.662 Y82.800 E0.02860
G1 X170.179 Y83.551 E0.02860
G1 X170.376 Y84.446 E0.02872
G1 X170.376 Y125.572 E1.28950
G1 X170.272 Y126.198 E0.01989
G1 X170.005 Y126.777 E0.02000
G1 X169.593 Y127.264 E0.02000
G1 X169.070 Y127.623 E0.01989
G1 X168.552 Y127.812 E0.01728
G1 X168.009 Y127.877 E0.01716
G1 X81.973 Y127.877 E2.69758
G1 X81.335 Y127.782 E0.02024
G1 X80.742 Y127.517 E0.02036
G1 X80.243 Y127.101 E0.02036
G1 X79.877 Y126.570 E0.02024
G1 X79.689 Y126.056 E0.01716
G1 X79.623 Y125.513 E0.01716
G1 X79.624 Y84.443 E1.28771
G1 X79.724 Y83.813 E0.02000
G1 X79.991 Y83.229 E0.02012
G1 X80.363 Y82.787 E0.01812
; printing object ReductionGearBracket.stl id:0 copy 0
;WIPE_START
G1 F8640.000
G1 X80.930 Y82.377 E-0.16158
G1 X81.448 Y82.188 E-0.12724
G1 X81.991 Y82.123 E-0.12637
G1 X83.485 Y82.123 E-0.34481
;WIPE_END
G1 E-0.04000 F2100.000
G1 Z0.600 F10800.000
G1 X155.166 Y112.542
G1 Z0.200
G1 E0.80000 F2100.000
;TYPE:Support material
G1 F1200.000
G1 X155.166 Y97.703 E0.46525
G1 X154.884 Y97.421 E0.01251
G1 X154.412 Y97.421 E0.01480
G1 X154.412 Y112.579 E0.47527
G1 X153.658 Y112.579 E0.02365
G1 X153.658 Y97.421 E0.47527
G1 X153.343 Y97.421 E0.00988
G1 X153.343 Y96.177 E0.03899
G1 X152.904 Y95.902 E0.01624
G1 X152.904 Y114.098 E0.57051
G1 X152.150 Y114.508 E0.02691
G1 X152.150 Y95.492 E0.59620
G1 X151.396 Y95.159 E0.02586
G1 X151.396 Y114.841 E0.61712
G1 X151.274 Y114.886 E0.00406
G1 X150.641 Y114.886 E0.01984
G1 X150.641 Y95.114 E0.61995
G1 X149.887 Y95.114 E0.02365
G1 X149.887 Y114.886 E0.61995
G1 X149.133 Y114.886 E0.02365
G1 X149.133 Y95.114 E0.61995
G1 X148.379 Y95.114 E0.02365
G1 X148.379 Y114.886 E0.61995
G1 X147.625 Y114.886 E0.02365
G1 X147.625 Y95.114 E0.61995
G1 X146.871 Y95.114 E0.02365
G1 X146.871 Y114.886 E0.61995
G1 X146.116 Y114.886 E0.02365
G1 X146.116 Y95.114 E0.61995
G1 X145.362 Y95.114 E0.02365
G1 X145.362 Y114.886 E0.61995
G1 X144.608 Y114.886 E0.02365
G1 X144.608 Y95.114 E0.61995
G1 X143.854 Y95.114 E0.02365
G1 X143.854 Y114.886 E0.61995
G1 X143.726 Y114.886 E0.00402
G1 X143.100 Y114.624 E0.02127
G1 X143.100 Y95.376 E0.60354
M73 Q0 S105
G1 X142.346 Y95.755 E0.02647
G1 X142.346 Y114.245 E0.57975
G1 X141.591 Y113.778 E0.02781
G1 X141.591 Y96.222 E0.55048
G1 X140.837 Y96.774 E0.02931
G1 X140.837 Y113.226 E0.51586
G1 X140.492 Y112.929 E0.01429
G1 X140.492 Y112.579 E0.01098
G1 X140.116 Y112.579 E0.01179
G1 X140.083 Y112.548 E0.00142
G1 X140.083 Y97.452 E0.47330
G1 X139.904 Y97.626 E0.00782
G1 X139.329 Y98.276 E0.02721
G1 X139.329 Y111.724 E0.42165
G1 X139.085 Y111.424 E0.01212
G1 X138.575 Y110.685 E0.02817
G1 X138.575 Y98.998 E0.36644
;WIPE_START
G1 F8640.000
G1 X138.575 Y102.289 E-0.76000
;WIPE_END
G1 E-0.04000 F2100.000
G1 Z0.600 F10800.000
G1 X134.042 Y116.963
M73 P0 R103
G1 Z0.200
G1 E0.80000 F2100.000
;TYPE:Perimeter
G1 F1200.000
G1 X136.084 Y120.500 E0.12806
G1 X134.042 Y124.037 E0.12806
G1 X129.958 Y124.037 E0.12806
G1 X127.916 Y120.500 E0.12806
G1 X129.958 Y116.963 E0.12806
G1 X133.982 Y116.963 E0.12618
G1 X133.824 Y117.340 F10800.000
;TYPE:External perimeter
G1 F1200.000
G1 X135.649 Y120.500 E0.11441
G1 X133.824 Y123.660 E0.11441
G1 X130.176 Y123.660 E0.11441
G1 X128.351 Y120.500 E0.11441
G1 X130.176 Y117.340 E0.11441
G1 X133.764 Y117.340 E0.11253
G1 X134.171 Y117.140 F10800.000
;WIPE_START
G1 F8640.000
G1 X135.450 Y120.167 E-0.76000
;WIPE_END
G1 E-0.04000 F2100.000
G1 Z0.600 F10800.000
G1 X121.747 Y119.671
G1 Z0.200
G1 E0.80000 F2100.000
;TYPE:Perimeter
G1 F1200.000
G1 X121.814 Y120.071 E0.01272
G1 X121.838 Y120.500 E0.01348
G1 X121.814 Y120.929 E0.01348
G1 X121.747 Y121.329 E0.01272
G1 X121.621 Y121.770 E0.01437
G1 X121.470 Y122.141 E0.01255
G1 X121.264 Y122.519 E0.01352
G1 X121.034 Y122.851 E0.01265
G1 X120.752 Y123.176 E0.01349
G1 X120.435 Y123.466 E0.01347
G1 X120.109 Y123.707 E0.01271
G1 X119.711 Y123.934 E0.01437
G1 X119.344 Y124.095 E0.01257
G1 X118.932 Y124.223 E0.01351
G1 X118.537 Y124.300 E0.01265
G1 X118.107 Y124.337 E0.01351
G1 X117.678 Y124.325 E0.01345
G1 X117.277 Y124.269 E0.01271
G1 X116.833 Y124.155 E0.01437
G1 X116.457 Y124.014 E0.01259
G1 X116.073 Y123.819 E0.01349
G1 X115.736 Y123.599 E0.01265
G1 X115.402 Y123.326 E0.01352
G1 X115.104 Y123.019 E0.01342
G1 X114.854 Y122.698 E0.01272
G1 X114.615 Y122.307 E0.01437
G1 X114.444 Y121.944 E0.01261
G1 X114.305 Y121.537 E0.01347
G1 X114.217 Y121.143 E0.01265
G1 X114.168 Y120.715 E0.01353
G1 X114.168 Y120.286 E0.01343
G1 X114.212 Y119.884 E0.01270
G1 X114.313 Y119.437 E0.01437
G1 X114.444 Y119.055 E0.01263
G1 X114.628 Y118.668 E0.01346
G1 X114.839 Y118.324 E0.01265
G1 X115.103 Y117.982 E0.01355
G1 X115.402 Y117.674 E0.01346
G1 X115.736 Y117.401 E0.01352
G1 X116.073 Y117.181 E0.01265
G1 X116.457 Y116.985 E0.01350
G1 X116.859 Y116.835 E0.01346
G1 X117.252 Y116.736 E0.01271
G1 X117.706 Y116.674 E0.01437
G1 X118.108 Y116.663 E0.01258
G1 X118.537 Y116.700 E0.01350
G1 X118.932 Y116.777 E0.01265
G1 X119.344 Y116.905 E0.01351
G1 X119.738 Y117.078 E0.01348
G1 X120.110 Y117.295 E0.01353
G1 X120.435 Y117.534 E0.01265
G1 X120.752 Y117.824 E0.01347
G1 X121.034 Y118.149 E0.01349
G1 X121.264 Y118.481 E0.01265
G1 X121.470 Y118.859 E0.01352
G1 X121.621 Y119.230 E0.01255
G1 X121.731 Y119.613 E0.01249
G1 X121.368 Y119.717 F10800.000
;TYPE:External perimeter
G1 F1200.000
G1 X121.439 Y120.113 E0.01259
G1 X121.461 Y120.500 E0.01217
G1 X121.439 Y120.887 E0.01217
G1 X121.379 Y121.246 E0.01140
G1 X121.264 Y121.646 E0.01306
G1 X121.129 Y121.979 E0.01126
G1 X120.942 Y122.321 E0.01222
G1 X120.736 Y122.619 E0.01137
G1 X120.481 Y122.913 E0.01218
G1 X120.196 Y123.175 E0.01215
G1 X119.903 Y123.390 E0.01139
G1 X119.541 Y123.597 E0.01306
G1 X119.212 Y123.741 E0.01127
G1 X118.840 Y123.857 E0.01220
G1 X118.484 Y123.926 E0.01137
G1 X118.097 Y123.959 E0.01220
G1 X117.710 Y123.948 E0.01213
G1 X117.350 Y123.898 E0.01139
G1 X116.946 Y123.795 E0.01306
G1 X116.609 Y123.669 E0.01129
G1 X116.263 Y123.492 E0.01219
G1 X115.959 Y123.294 E0.01137
G1 X115.658 Y123.047 E0.01221
G1 X115.388 Y122.771 E0.01210
G1 X115.165 Y122.483 E0.01141
G1 X114.948 Y122.128 E0.01306
G1 X114.794 Y121.802 E0.01131
G1 X114.668 Y121.435 E0.01217
G1 X114.589 Y121.081 E0.01137
G1 X114.545 Y120.693 E0.01223
G1 X114.545 Y120.307 E0.01210
G1 X114.585 Y119.946 E0.01139
G1 X114.676 Y119.540 E0.01306
G1 X114.794 Y119.198 E0.01133
G1 X114.960 Y118.848 E0.01215
G1 X115.150 Y118.539 E0.01137
G1 X115.388 Y118.230 E0.01224
G1 X115.658 Y117.953 E0.01211
G1 X115.959 Y117.706 E0.01221
G1 X116.263 Y117.508 E0.01137
G1 X116.609 Y117.331 E0.01219
G1 X116.972 Y117.196 E0.01214
G1 X117.324 Y117.107 E0.01139
G1 X117.737 Y117.051 E0.01306
G1 X118.097 Y117.041 E0.01128
G1 X118.484 Y117.074 E0.01219
G1 X118.840 Y117.143 E0.01137
G1 X119.212 Y117.259 E0.01220
G1 X119.566 Y117.414 E0.01214
G1 X119.903 Y117.610 E0.01223
G1 X120.196 Y117.825 E0.01137
G1 X120.481 Y118.087 E0.01215
G1 X120.736 Y118.381 E0.01218
G1 X120.942 Y118.679 E0.01137
G1 X121.129 Y119.021 E0.01222
G1 X121.264 Y119.354 E0.01126
G1 X121.352 Y119.660 E0.00998
G1 X121.751 Y119.834 F10800.000
;WIPE_START
G1 F8640.000
G1 X121.439 Y120.113 E-0.10652
G1 X121.461 Y120.500 E-0.08959
G1 X121.439 Y120.887 E-0.08959
G1 X121.379 Y121.246 E-0.08392
G1 X121.264 Y121.646 E-0.09621
G1 X121.129 Y121.979 E-0.08289
G1 X120.942 Y122.321 E-0.08999
G1 X120.736 Y122.619 E-0.08374
G1 X120.629 Y122.742 E-0.03754
;WIPE_END
G1 E-0.04000 F2100.000
G1 Z0.600 F10800.000
G1 X90.838 Y120.500
G1 Z0.200
G1 E0.80000 F2100.000
;TYPE:Perimeter
G1 F1200.000
G1 X90.814 Y120.929 E0.01348
G1 X90.747 Y121.329 E0.01272
G1 X90.621 Y121.770 E0.01437
G1 X90.470 Y122.141 E0.01255
G1 X90.264 Y122.519 E0.01352
G1 X90.034 Y122.851 E0.01265
G1 X89.752 Y123.176 E0.01349
G1 X89.435 Y123.466 E0.01347
G1 X89.109 Y123.707 E0.01271
G1 X88.711 Y123.934 E0.01437
G1 X88.344 Y124.095 E0.01257
G1 X87.932 Y124.223 E0.01351
G1 X87.537 Y124.300 E0.01265
G1 X87.107 Y124.337 E0.01351
G1 X86.678 Y124.325 E0.01345
G1 X86.277 Y124.269 E0.01271
G1 X85.833 Y124.155 E0.01437
G1 X85.457 Y124.014 E0.01259
G1 X85.073 Y123.819 E0.01349
G1 X84.736 Y123.599 E0.01265
G1 X84.402 Y123.326 E0.01352
G1 X84.104 Y123.019 E0.01342
G1 X83.854 Y122.698 E0.01272
G1 X83.615 Y122.307 E0.01437
G1 X83.444 Y121.944 E0.01261
G1 X83.305 Y121.537 E0.01347
G1 X83.217 Y121.143 E0.01265
G1 X83.168 Y120.715 E0.01353
G1 X83.168 Y120.286 E0.01343
G1 X83.212 Y119.884 E0.01270
G1 X83.313 Y119.437 E0.01437
G1 X83.444 Y119.055 E0.01263
G1 X83.628 Y118.668 E0.01346
G1 X83.839 Y118.324 E0.01265
G1 X84.103 Y117.982 E0.01355
G1 X84.402 Y117.674 E0.01346
G1 X84.736 Y117.401 E0.01352
G1 X85.073 Y117.181 E0.01265
G1 X85.457 Y116.985 E0.01350
G1 X85.859 Y116.835 E0.01346
M73 P1 R103
G1 X86.252 Y116.736 E0.01271
G1 X86.706 Y116.674 E0.01437
G1 X87.108 Y116.663 E0.01258
G1 X87.537 Y116.700 E0.01350
G1 X87.932 Y116.777 E0.01265
G1 X88.344 Y116.905 E0.01351
G1 X88.738 Y117.078 E0.01348
G1 X89.110 Y117.295 E0.01353
G1 X89.435 Y117.534 E0.01265
G1 X89.752 Y117.824 E0.01347
G1 X90.034 Y118.149 E0.01349
G1 X90.264 Y118.481 E0.01265
G1 X90.470 Y118.859 E0.01352
G1 X90.621 Y119.230 E0.01255
G1 X90.747 Y119.671 E0.01437
G1 X90.814 Y120.071 E0.01272
G1 X90.835 Y120.440 E0.01160
G1 X90.458 Y120.461 F10800.000
;TYPE:External perimeter
G1 F1200.000
G1 X90.439 Y120.887 E0.01337
G1 X90.379 Y121.246 E0.01140
G1 X90.264 Y121.646 E0.01306
G1 X90.129 Y121.979 E0.01126
G1 X89.942 Y122.321 E0.01222
G1 X89.736 Y122.619 E0.01137
G1 X89.481 Y122.913 E0.01218
G1 X89.196 Y123.175 E0.01215
G1 X88.903 Y123.390 E0.01139
G1 X88.541 Y123.597 E0.01306
G1 X88.212 Y123.741 E0.01127
G1 X87.840 Y123.857 E0.01220
M73 Q1 S105
G1 X87.484 Y123.926 E0.01137
G1 X87.097 Y123.959 E0.01220
G1 X86.710 Y123.948 E0.01213
G1 X86.350 Y123.898 E0.01139
G1 X85.946 Y123.795 E0.01306
G1 X85.609 Y123.669 E0.01129
G1 X85.263 Y123.492 E0.01219
G1 X84.959 Y123.294 E0.01137
G1 X84.658 Y123.047 E0.01221
G1 X84.388 Y122.771 E0.01210
G1 X84.165 Y122.483 E0.01141
G1 X83.948 Y122.128 E0.01306
G1 X83.794 Y121.802 E0.01131
G1 X83.668 Y121.435 E0.01217
G1 X83.589 Y121.081 E0.01137
G1 X83.545 Y120.693 E0.01223
G1 X83.545 Y120.307 E0.01210
G1 X83.585 Y119.946 E0.01139
G1 X83.676 Y119.540 E0.01306
G1 X83.794 Y119.198 E0.01133
G1 X83.960 Y118.848 E0.01215
G1 X84.150 Y118.539 E0.01137
G1 X84.388 Y118.230 E0.01224
G1 X84.658 Y117.953 E0.01211
G1 X84.959 Y117.706 E0.01221
G1 X85.263 Y117.508 E0.01137
G1 X85.609 Y117.331 E0.01219
G1 X85.972 Y117.196 E0.01214
G1 X86.324 Y117.107 E0.01139
G1 X86.737 Y117.051 E0.01306
G1 X87.097 Y117.041 E0.01128
G1 X87.484 Y117.074 E0.01219
G1 X87.840 Y117.143 E0.01137
G1 X88.212 Y117.259 E0.01220
G1 X88.566 Y117.414 E0.01214
G1 X88.903 Y117.610 E0.01222
G1 X89.196 Y117.825 E0.01137
G1 X89.481 Y118.087 E0.01215
G1 X89.736 Y118.381 E0.01218
G1 X89.942 Y118.679 E0.01137
G1 X90.129 Y119.021 E0.01222
G1 X90.264 Y119.354 E0.01126
G1 X90.379 Y119.754 E0.01306
G1 X90.439 Y120.113 E0.01140
G1 X90.455 Y120.402 E0.00907
G1 X90.806 Y120.659 F10800.000
;WIPE_START
G1 F8640.000
G1 X90.439 Y120.887 E-0.11224
G1 X90.379 Y121.246 E-0.08392
G1 X90.264 Y121.646 E-0.09621
G1 X90.129 Y121.979 E-0.08289
G1 X89.942 Y122.321 E-0.08999
G1 X89.736 Y122.619 E-0.08374
G1 X89.481 Y122.913 E-0.08971
G1 X89.196 Y123.175 E-0.08948
G1 X89.084 Y123.256 E-0.03182
;WIPE_END
G1 E-0.04000 F2100.000
G1 Z0.600 F10800.000
G1 X87.537 Y93.300
G1 Z0.200
G1 E0.80000 F2100.000
;TYPE:Perimeter
G1 F1200.000
G1 X87.107 Y93.337 E0.01351
G1 X86.678 Y93.325 E0.01345
G1 X86.277 Y93.269 E0.01271
G1 X85.833 Y93.155 E0.01437
G1 X85.457 Y93.014 E0.01259
G1 X85.073 Y92.819 E0.01349
G1 X84.736 Y92.599 E0.01265
G1 X84.402 Y92.326 E0.01352
G1 X84.104 Y92.019 E0.01342
G1 X83.854 Y91.698 E0.01272
G1 X83.615 Y91.307 E0.01437
G1 X83.444 Y90.944 E0.01261
G1 X83.305 Y90.537 E0.01347
G1 X83.217 Y90.143 E0.01265
G1 X83.168 Y89.715 E0.01353
G1 X83.168 Y89.286 E0.01343
G1 X83.212 Y88.884 E0.01270
G1 X83.313 Y88.437 E0.01437
G1 X83.444 Y88.055 E0.01263
G1 X83.628 Y87.668 E0.01346
G1 X83.839 Y87.324 E0.01265
G1 X84.103 Y86.982 E0.01355
G1 X84.402 Y86.674 E0.01346
G1 X84.736 Y86.401 E0.01352
G1 X85.073 Y86.181 E0.01265
G1 X85.457 Y85.985 E0.01350
G1 X85.859 Y85.835 E0.01346
G1 X86.252 Y85.736 E0.01271
G1 X86.706 Y85.674 E0.01437
G1 X87.108 Y85.663 E0.01258
G1 X87.537 Y85.700 E0.01350
G1 X87.932 Y85.777 E0.01265
G1 X88.344 Y85.905 E0.01351
G1 X88.738 Y86.078 E0.01348
G1 X89.110 Y86.295 E0.01353
G1 X89.435 Y86.534 E0.01265
G1 X89.752 Y86.824 E0.01347
G1 X90.034 Y87.149 E0.01349
G1 X90.264 Y87.481 E0.01265
G1 X90.470 Y87.859 E0.01352
G1 X90.621 Y88.230 E0.01255
G1 X90.747 Y88.671 E0.01437
G1 X90.814 Y89.071 E0.01272
G1 X90.838 Y89.500 E0.01348
G1 X90.814 Y89.929 E0.01348
G1 X90.747 Y90.329 E0.01272
G1 X90.621 Y90.770 E0.01437
G1 X90.470 Y91.141 E0.01255
G1 X90.264 Y91.519 E0.01352
G1 X90.034 Y91.851 E0.01265
G1 X89.752 Y92.176 E0.01349
G1 X89.435 Y92.466 E0.01347
G1 X89.109 Y92.707 E0.01271
G1 X88.711 Y92.934 E0.01437
G1 X88.344 Y93.095 E0.01257
G1 X87.932 Y93.223 E0.01351
G1 X87.595 Y93.289 E0.01076
G1 X87.523 Y92.919 F10800.000
;TYPE:External perimeter
G1 F1200.000
G1 X87.097 Y92.959 E0.01343
G1 X86.710 Y92.948 E0.01213
G1 X86.350 Y92.898 E0.01139
G1 X85.946 Y92.795 E0.01306
G1 X85.609 Y92.669 E0.01129
G1 X85.263 Y92.492 E0.01219
G1 X84.959 Y92.294 E0.01137
G1 X84.658 Y92.047 E0.01221
G1 X84.388 Y91.771 E0.01210
G1 X84.165 Y91.483 E0.01141
G1 X83.948 Y91.128 E0.01306
G1 X83.794 Y90.802 E0.01131
G1 X83.668 Y90.435 E0.01217
G1 X83.589 Y90.081 E0.01137
G1 X83.545 Y89.693 E0.01223
G1 X83.545 Y89.307 E0.01210
G1 X83.585 Y88.946 E0.01139
G1 X83.676 Y88.540 E0.01306
G1 X83.794 Y88.198 E0.01133
G1 X83.960 Y87.848 E0.01215
G1 X84.150 Y87.539 E0.01137
G1 X84.388 Y87.230 E0.01224
G1 X84.658 Y86.953 E0.01211
G1 X84.959 Y86.706 E0.01221
G1 X85.263 Y86.508 E0.01137
G1 X85.609 Y86.331 E0.01219
G1 X85.972 Y86.196 E0.01214
G1 X86.324 Y86.107 E0.01139
G1 X86.737 Y86.051 E0.01306
G1 X87.097 Y86.041 E0.01128
G1 X87.484 Y86.074 E0.01219
G1 X87.840 Y86.143 E0.01137
G1 X88.212 Y86.259 E0.01220
G1 X88.566 Y86.414 E0.01214
G1 X88.903 Y86.610 E0.01223
G1 X89.196 Y86.825 E0.01137
G1 X89.481 Y87.087 E0.01215
