; generated by PrusaSlicer 2.2.0+win64 on 2021-01-05 at 23:30:43 UTC

; 

; external perimeters extrusion width = 0.45mm
; perimeters extrusion width = 0.45mm
; infill extrusion width = 0.45mm
; solid infill extrusion width = 0.45mm
; top infill extrusion width = 0.40mm
; first layer extrusion width = 0.42mm

M73 P0 R2
M73 Q0 S2
M201 X1000 Y1000 Z200 E5000 ; sets maximum accelerations, mm/sec^2
M203 X200 Y200 Z12 E120 ; sets maximum feedrates, mm/sec
M204 P1250 R1250 T1250 ; sets acceleration (P, T) and retract acceleration (R), mm/sec^2
M205 X8.00 Y8.00 Z0.40 E4.50 ; sets the jerk limits, mm/sec
M205 S0 T0 ; sets the minimum extruding and travel feed rate, mm/sec
M107
M862.3 P "MK3SMMU2S" ; printer model check
M862.1 P0.4 ; nozzle diameter check
M115 U3.9.1 ; tell printer latest fw version
G90 ; use absolute coordinates
M83 ; extruder relative mode
M104 S215 ; set extruder temp
M140 S60 ; set bed temp
Tx
M190 S60 ; wait for bed temp
M109 S215 ; wait for extruder temp
G28 W ; home all without mesh bed level
G80 ; mesh bed leveling

;go outside print area
G1 Y-3.0 F1000.0
G1 Z0.4 F1000.0
; select extruder
Tc
; purge line
G1 X55.0 F2000.0
G1 Z0.3 F1000.0
G92 E0.0
G1 X240.0 E25.0 F2200.0
M73 Q6 S2
M73 P6 R2
G1 Y-2.0 F1000.0
G1 X55.0 E25 F1400.0
G1 Z0.20 F1000.0
G1 X5.0 E4.0 F1000.0

M221 S95
G92 E0.0

; Don't change E values below. Excessive value can damage the printer.

G21 ; set units to millimeters
G90 ; use absolute coordinates
M83 ; use relative distances for extrusion
M900 K0.05 ; Filament gcode LA 1.5
M900 K30 ; Filament gcode LA 1.0
;BEFORE_LAYER_CHANGE
G92 E0.0
;0.2


G1 E-0.80000 F2100.00000
G1 Z0.600 F10800.000
;AFTER_LAYER_CHANGE
;0.2
G1 X119.881 Y99.893
G1 Z0.200
G1 E0.80000 F2100.00000
M204 S1000
G1 F900
G1 X120.980 Y98.989 E0.04462
G1 X122.261 Y98.308 E0.04547
G1 X123.655 Y97.895 E0.04560
G1 X125.074 Y97.769 E0.04465
G1 X126.388 Y97.903 E0.04142
G1 X127.779 Y98.324 E0.04558
G1 X129.037 Y99.001 E0.04478
G1 X130.156 Y99.930 E0.04560
G1 X131.066 Y101.064 E0.04560
G1 X131.721 Y102.333 E0.04478
G1 X132.093 Y103.596 E0.04128
G1 X132.231 Y105.039 E0.04544
G1 X132.082 Y106.464 E0.04492
G1 X131.645 Y107.851 E0.04560
G1 X130.940 Y109.123 E0.04560
G1 X130.017 Y110.207 E0.04465
G1 X128.986 Y111.033 E0.04141
G1 X127.703 Y111.707 E0.04544
G1 X126.332 Y112.108 E0.04478
G1 X124.891 Y112.230 E0.04533
G1 X123.468 Y112.067 E0.04492
G1 X122.212 Y111.672 E0.04128
G1 X120.959 Y110.997 E0.04462
G1 X119.841 Y110.067 E0.04560
G1 X118.934 Y108.936 E0.04547
G1 X118.279 Y107.667 E0.04478
G1 X117.907 Y106.404 E0.04128
G1 X117.769 Y104.961 E0.04544
G1 X117.918 Y103.540 E0.04478
G1 X118.343 Y102.177 E0.04478
G1 X119.037 Y100.909 E0.04533
G1 X119.843 Y99.939 E0.03953
G1 X120.131 Y100.178 F10800.000
G1 F900
G1 X121.186 Y99.305 E0.04292
G1 X122.403 Y98.657 E0.04323
G1 X123.724 Y98.266 E0.04323
G1 X125.073 Y98.146 E0.04246
G1 X126.309 Y98.272 E0.03894
G1 X127.629 Y98.670 E0.04323
G1 X128.826 Y99.313 E0.04259
G1 X129.886 Y100.193 E0.04323
G1 X130.749 Y101.269 E0.04323
G1 X131.372 Y102.476 E0.04259
G1 X131.723 Y103.666 E0.03890
G1 X131.854 Y105.035 E0.04314
G1 X131.712 Y106.386 E0.04259
G1 X131.299 Y107.702 E0.04323
G1 X130.631 Y108.908 E0.04323
G1 X129.753 Y109.938 E0.04246
G1 X128.781 Y110.717 E0.03903
G1 X127.563 Y111.357 E0.04314
G1 X126.259 Y111.737 E0.04259
G1 X124.894 Y111.853 E0.04297
G1 X123.545 Y111.698 E0.04259
G1 X122.361 Y111.325 E0.03890
G1 X121.171 Y110.685 E0.04237
G1 X120.108 Y109.801 E0.04336
G1 X119.248 Y108.728 E0.04310
G1 X118.628 Y107.524 E0.04246
G1 X118.277 Y106.334 E0.03890
G1 X118.146 Y104.965 E0.04314
G1 X118.287 Y103.618 E0.04246
G1 X118.690 Y102.325 E0.04246
G1 X119.350 Y101.119 E0.04310
G1 X120.093 Y100.224 E0.03646
G1 X120.382 Y100.464 F10800.000
G1 F900
G1 X121.398 Y99.617 E0.04148
G1 X122.548 Y99.005 E0.04085
G1 X123.798 Y98.635 E0.04085
G1 X125.073 Y98.524 E0.04014
G1 X126.236 Y98.642 E0.03665
G1 X127.483 Y99.018 E0.04084
G1 X128.614 Y99.625 E0.04026
G1 X129.617 Y100.457 E0.04085
G1 X130.435 Y101.477 E0.04097
G1 X131.023 Y102.618 E0.04026
G1 X131.352 Y103.736 E0.03653
G1 X131.477 Y105.032 E0.04084
G1 X131.343 Y106.309 E0.04026
G1 X130.953 Y107.552 E0.04085
G1 X130.319 Y108.695 E0.04097
G1 X129.489 Y109.669 E0.04014
G1 X128.576 Y110.400 E0.03665
G1 X127.423 Y111.006 E0.04084
G1 X126.191 Y111.367 E0.04026
G1 X124.900 Y111.476 E0.04062
G1 X123.625 Y111.329 E0.04026
G1 X122.510 Y110.979 E0.03665
G1 X121.386 Y110.375 E0.04001
G1 X120.380 Y109.540 E0.04097
G1 X119.565 Y108.523 E0.04085
G1 X118.977 Y107.382 E0.04026
G1 X118.648 Y106.264 E0.03653
G1 X118.523 Y104.968 E0.04084
G1 X118.656 Y103.694 E0.04014
G1 X119.037 Y102.472 E0.04014
G1 X119.663 Y101.330 E0.04085
G1 X120.344 Y100.510 E0.03339
G1 F8640.000
G1 X121.398 Y99.617 E-0.31912
G1 X122.548 Y99.005 E-0.30087
G1 X123.130 Y98.833 E-0.14001
G1 E-0.04000 F2100.00000
G1 Z0.800 F10800.000
G1 X122.350 Y103.413
G1 Z0.200
G1 E0.80000 F2100.00000
G1 F900
G1 X122.579 Y103.083 E0.01258
G1 X122.955 Y102.686 E0.01715
G1 X123.267 Y102.443 E0.01240
G1 X123.727 Y102.186 E0.01654
G1 X124.104 Y102.045 E0.01259
G1 X124.639 Y101.933 E0.01715
G1 X125.034 Y101.912 E0.01240
G1 X125.553 Y101.962 E0.01634
G1 X125.832 Y102.026 E0.00900
G1 X126.199 Y102.154 E0.01218
G1 X126.452 Y102.275 E0.00878
G1 X126.789 Y102.482 E0.01240
G1 X127.196 Y102.827 E0.01674
G1 X127.534 Y103.234 E0.01657
G1 X127.738 Y103.572 E0.01240
G1 X127.861 Y103.837 E0.00916
G1 X128.015 Y104.330 E0.01618
G1 X128.076 Y104.726 E0.01258
G1 X128.076 Y105.274 E0.01716
G1 X128.015 Y105.670 E0.01258
G1 X127.859 Y106.168 E0.01636
G1 X127.686 Y106.523 E0.01240
G1 X127.530 Y106.771 E0.00916
G1 X127.204 Y107.163 E0.01598
G1 X126.994 Y107.357 E0.00898
G1 X126.677 Y107.594 E0.01240
G1 X126.211 Y107.841 E0.01654
G1 X125.832 Y107.974 E0.01259
G1 X125.553 Y108.038 E0.00899
G1 X125.046 Y108.088 E0.01597
G1 X124.760 Y108.079 E0.00898
G1 X124.368 Y108.023 E0.01240
G1 X123.863 Y107.872 E0.01654
G1 X123.506 Y107.702 E0.01241
G1 X123.257 Y107.549 E0.00916
G1 X122.861 Y107.228 E0.01598
G1 X122.664 Y107.020 E0.00898
G1 X122.425 Y106.705 E0.01240
G1 X122.175 Y106.248 E0.01634
G1 X122.072 Y105.980 E0.00899
G1 X121.970 Y105.598 E0.01240
G1 X121.913 Y105.080 E0.01634
G1 X121.919 Y104.793 E0.00899
G1 X121.970 Y104.401 E0.01240
G1 X122.118 Y103.888 E0.01674
G1 X122.324 Y103.467 E0.01470
G1 X122.471 Y104.024 F10800.000
G1 F900
G1 X122.676 Y103.604 E0.01465
G1 X122.877 Y103.315 E0.01104
G1 X123.032 Y103.136 E0.00743
G1 X123.203 Y102.971 E0.00743
G1 X123.476 Y102.758 E0.01087
G1 X123.886 Y102.529 E0.01474
G1 X124.216 Y102.405 E0.01104
G1 X124.446 Y102.347 E0.00743
G1 X124.680 Y102.309 E0.00743
G1 X125.026 Y102.290 E0.01087
G1 X125.492 Y102.335 E0.01467
G1 X125.727 Y102.389 E0.00758
G1 X126.055 Y102.504 E0.01090
G1 X126.271 Y102.606 E0.00750
G1 X126.567 Y102.788 E0.01087
G1 X126.927 Y103.093 E0.01481
G1 X127.226 Y103.453 E0.01464
G1 X127.404 Y103.749 E0.01087
G1 X127.509 Y103.974 E0.00775
G1 X127.647 Y104.415 E0.01450
G1 X127.700 Y104.763 E0.01104
G1 X127.710 Y105.000 E0.00743
G1 X127.700 Y105.237 E0.00743
G1 X127.647 Y105.585 E0.01104
G1 X127.508 Y106.028 E0.01457
G1 X127.356 Y106.340 E0.01087
G1 X127.224 Y106.549 E0.00775
G1 X126.930 Y106.903 E0.01443
G1 X126.753 Y107.067 E0.00757
G1 X126.475 Y107.274 E0.01087
G1 X126.060 Y107.495 E0.01474
G1 X125.727 Y107.611 E0.01104
G1 X125.492 Y107.665 E0.00758
G1 X125.034 Y107.710 E0.01443
G1 X124.792 Y107.702 E0.00757
G1 X124.449 Y107.654 E0.01087
G1 X123.999 Y107.519 E0.01474
G1 X123.686 Y107.370 E0.01087
G1 X123.475 Y107.241 E0.00775
G1 X123.118 Y106.951 E0.01443
G1 X122.952 Y106.775 E0.00757
G1 X122.742 Y106.499 E0.01087
G1 X122.518 Y106.089 E0.01467
G1 X122.431 Y105.863 E0.00758
G1 X122.342 Y105.528 E0.01087
G1 X122.290 Y105.063 E0.01467
G1 X122.296 Y104.822 E0.00758
G1 X122.340 Y104.478 E0.01087
G1 X122.454 Y104.082 E0.01293
G1 X122.222 Y103.711 F10800.000
G1 X121.703 Y103.803
G1 F900
G1 X121.772 Y103.615 E0.00630
G1 X121.929 Y103.296 E0.01116
G1 X122.117 Y102.994 E0.01116
G1 X122.335 Y102.712 E0.01116
G1 X122.580 Y102.454 E0.01116
G1 X122.850 Y102.223 E0.01116
G1 X123.142 Y102.019 E0.01116
G1 X123.453 Y101.847 E0.01116
G1 X123.780 Y101.706 E0.01116
G1 X124.120 Y101.600 E0.01116
G1 X124.468 Y101.528 E0.01116
G1 X124.827 Y101.492 E0.01130
G1 X125.414 Y101.512 E0.01843
G1 X125.765 Y101.572 E0.01116
G1 X126.108 Y101.667 E0.01116
G1 X126.439 Y101.796 E0.01116
G1 X126.756 Y101.958 E0.01116
G1 X127.055 Y102.152 E0.01116
G1 X127.332 Y102.374 E0.01116
G1 X127.586 Y102.624 E0.01116
G1 X127.816 Y102.901 E0.01131
G1 X128.127 Y103.400 E0.01842
G1 X128.272 Y103.725 E0.01116
G1 X128.385 Y104.062 E0.01116
G1 X128.462 Y104.410 E0.01116
G1 X128.504 Y104.763 E0.01116
G1 X128.510 Y105.119 E0.01116
G1 X128.480 Y105.473 E0.01116
G1 X128.414 Y105.823 E0.01116
G1 X128.314 Y106.164 E0.01116
G1 X128.179 Y106.493 E0.01116
G1 X128.012 Y106.807 E0.01116
G1 X127.813 Y107.103 E0.01116
G1 X127.583 Y107.380 E0.01131
G1 X127.150 Y107.777 E0.01842
G1 X126.858 Y107.981 E0.01116
G1 X126.547 Y108.153 E0.01116
G1 X126.220 Y108.294 E0.01116
G1 X125.880 Y108.400 E0.01116
G1 X125.295 Y108.500 E0.01862
G1 X124.941 Y108.512 E0.01111
G1 X124.586 Y108.488 E0.01116
G1 X124.235 Y108.428 E0.01116
G1 X123.892 Y108.333 E0.01116
G1 X123.561 Y108.204 E0.01116
G1 X123.244 Y108.042 E0.01116
G1 X122.945 Y107.848 E0.01116
G1 X122.664 Y107.623 E0.01130
G1 X122.259 Y107.197 E0.01843
G1 X122.051 Y106.908 E0.01116
G1 X121.873 Y106.600 E0.01116
G1 X121.728 Y106.275 E0.01116
G1 X121.615 Y105.938 E0.01116
G1 X121.538 Y105.590 E0.01116
G1 X121.496 Y105.237 E0.01116
G1 X121.490 Y104.881 E0.01116
G1 X121.520 Y104.522 E0.01131
G1 X121.558 Y104.298 E0.00713
G1 X121.682 Y103.860 E0.01427
G1 X121.328 Y103.729 F10800.000
G1 F900
G1 X121.426 Y103.466 E0.00878
G1 X121.599 Y103.112 E0.01235
G1 X121.807 Y102.778 E0.01235
G1 X122.049 Y102.466 E0.01235
G1 X122.320 Y102.181 E0.01235
G1 X122.619 Y101.924 E0.01235
G1 X122.942 Y101.699 E0.01235
G1 X123.287 Y101.508 E0.01235
G1 X123.649 Y101.352 E0.01235
G1 X124.025 Y101.234 E0.01235
G1 X124.411 Y101.155 E0.01235
G1 X124.805 Y101.115 E0.01241
G1 X125.071 Y101.111 E0.00834
G1 X125.459 Y101.137 E0.01220
G1 X125.847 Y101.204 E0.01236
G1 X126.227 Y101.309 E0.01235
G1 X126.594 Y101.452 E0.01235
G1 X126.945 Y101.631 E0.01235
G1 X127.276 Y101.845 E0.01235
G1 X127.583 Y102.092 E0.01235
G1 X127.864 Y102.368 E0.01235
G1 X128.117 Y102.673 E0.01241
G1 X128.265 Y102.885 E0.00813
G1 X128.463 Y103.228 E0.01241
G1 X128.624 Y103.588 E0.01235
G1 X128.749 Y103.962 E0.01235
G1 X128.834 Y104.346 E0.01235
G1 X128.881 Y104.737 E0.01235
G1 X128.888 Y105.131 E0.01235
G1 X128.854 Y105.524 E0.01235
G1 X128.781 Y105.911 E0.01235
G1 X128.670 Y106.289 E0.01235
G1 X128.521 Y106.654 E0.01235
G1 X128.335 Y107.001 E0.01235
G1 X128.116 Y107.329 E0.01235
G1 X127.863 Y107.633 E0.01241
G1 X127.681 Y107.818 E0.00813
G1 X127.381 Y108.076 E0.01241
G1 X127.058 Y108.301 E0.01235
G1 X126.713 Y108.492 E0.01235
G1 X126.351 Y108.648 E0.01235
G1 X125.975 Y108.766 E0.01235
G1 X125.587 Y108.845 E0.01241
G1 X125.323 Y108.876 E0.00834
G1 X124.934 Y108.889 E0.01220
G1 X124.541 Y108.863 E0.01236
G1 X124.153 Y108.796 E0.01235
G1 X123.773 Y108.691 E0.01235
G1 X123.406 Y108.548 E0.01235
G1 X123.055 Y108.369 E0.01235
G1 X122.724 Y108.155 E0.01235
G1 X122.416 Y107.907 E0.01241
G1 X122.223 Y107.724 E0.00834
G1 X121.965 Y107.433 E0.01220
G1 X121.734 Y107.113 E0.01236
G1 X121.537 Y106.772 E0.01235
G1 X121.376 Y106.412 E0.01235
G1 X121.251 Y106.038 E0.01235
G1 X121.166 Y105.654 E0.01235
G1 X121.119 Y105.263 E0.01235
G1 X121.112 Y104.869 E0.01235
G1 X121.146 Y104.474 E0.01241
G1 X121.189 Y104.219 E0.00813
G1 X121.307 Y103.785 E0.01409
G1 X121.602 Y103.671 F10800.000
G1 X121.889 Y103.912
G1 F900
G1 X121.790 Y104.255 E0.00168
G1 X121.748 Y104.456 F10800.000
G1 F900
G1 X121.725 Y104.635 E0.00080
G1 X121.707 Y105.153 F10800.000
G1 F900
G1 X121.755 Y105.590 E0.00189
G1 X121.803 Y105.800 F10800.000
G1 F900
G1 X121.841 Y105.942 E0.00064
G1 X122.022 Y106.411 F10800.000
G1 F900
G1 X122.198 Y106.735 E0.00173
G1 X122.378 Y106.996 F10800.000
G1 F900
G1 X122.456 Y107.097 E0.00055
G1 X122.753 Y107.414 F10800.000
G1 F900
G1 X123.101 Y107.696 E0.00192
G1 X123.573 Y107.970 F10800.000
G1 F900
G1 X123.694 Y108.027 E0.00058
G1 X123.871 Y108.097 F10800.000
G1 F900
G1 X124.240 Y108.208 E0.00179
G1 X124.528 Y108.261 F10800.000
G1 F900
G1 X124.660 Y108.279 E0.00058
G1 X125.150 Y108.292 F10800.000
G1 F900
G1 X125.541 Y108.253 E0.00173
G1 X126.061 Y108.120 F10800.000
G1 F900
G1 X126.196 Y108.072 E0.00062
G1 X126.372 Y107.997 F10800.000
G1 F900
G1 X126.731 Y107.807 E0.00188
G1 X126.949 Y107.657 F10800.000
G1 F900
G1 X127.059 Y107.574 E0.00060
G1 X127.385 Y107.278 F10800.000
G1 F900
G1 X127.670 Y106.935 E0.00195
G1 X127.946 Y106.477 F10800.000
G1 F900
G1 X128.008 Y106.349 E0.00062
G1 X128.082 Y106.169 F10800.000
G1 F900
G1 X128.202 Y105.787 E0.00183
G1 X128.252 Y105.531 F10800.000
G1 F900
G1 X128.274 Y105.387 E0.00064
G1 X128.262 Y104.534 F10800.000
G1 F900
G1 X128.240 Y104.390 E0.00063
G1 X128.198 Y104.201 F10800.000
G1 F900
G1 X128.083 Y103.830 E0.00179
G1 X127.804 Y103.268 F10800.000
G1 F900
G1 X127.744 Y103.170 E0.00049
G1 X127.677 Y103.073 F10800.000
G1 F900
G1 X127.393 Y102.732 E0.00195
G1 X127.268 Y102.609 F10800.000
G1 F900
G1 X126.996 Y102.378 E0.00168
G1 X126.715 Y102.186 F10800.000
G1 F900
G1 X126.614 Y102.124 E0.00051
G1 X126.123 Y101.902 F10800.000
G1 F900
G1 X125.983 Y101.854 E0.00065
G1 X125.498 Y101.743 F10800.000
G1 F900
G1 X125.142 Y101.708 E0.00168
G1 X124.935 Y101.703 F10800.000
G1 F900
G1 X124.755 Y101.713 E0.00080
G1 X123.925 Y101.884 F10800.000
G1 F900
G1 X123.781 Y101.938 E0.00068
G1 X123.589 Y102.020 F10800.000
G1 F900
G1 X123.206 Y102.234 E0.00192
G1 X123.040 Y102.350 F10800.000
G1 F900
G1 X122.922 Y102.442 E0.00065
G1 X122.339 Y103.056 F10800.000
G1 F900
G1 X122.251 Y103.182 E0.00068
G1 X122.140 Y103.358 F10800.000
G1 F900
G1 X121.950 Y103.747 E0.00190
M106 S255
;BEFORE_LAYER_CHANGE
G92 E0.0
;0.4


G1 F8640.000
G1 X122.140 Y103.358 E-0.10005
G1 E-0.69995 F2100.00000
G1 Z0.800 F10800.000
;AFTER_LAYER_CHANGE
;0.4
M104 S210 ; set temperature
G1 X118.343 Y102.177
G1 Z0.400
G1 E0.80000 F2100.00000
G1 F900
G1 X119.037 Y100.909 E0.04533
G1 X119.881 Y99.893 E0.04141
G1 X120.980 Y98.989 E0.04462
G1 X122.261 Y98.308 E0.04547
G1 X123.655 Y97.895 E0.04560
G1 X125.074 Y97.769 E0.04465
G1 X126.388 Y97.903 E0.04142
G1 X127.779 Y98.324 E0.04558
G1 X129.037 Y99.001 E0.04478
G1 X130.156 Y99.930 E0.04560
G1 X131.066 Y101.064 E0.04560
G1 X131.721 Y102.333 E0.04478
G1 X132.093 Y103.596 E0.04128
G1 X132.231 Y105.039 E0.04544
G1 X132.082 Y106.464 E0.04492
G1 X131.645 Y107.851 E0.04560
G1 X130.940 Y109.123 E0.04560
G1 X130.017 Y110.207 E0.04465
G1 X128.986 Y111.033 E0.04141
G1 X127.703 Y111.707 E0.04544
G1 X126.332 Y112.108 E0.04478
G1 X124.891 Y112.230 E0.04533
G1 X123.468 Y112.067 E0.04492
G1 X122.212 Y111.672 E0.04128
G1 X120.959 Y110.997 E0.04462
G1 X119.841 Y110.067 E0.04560
G1 X118.934 Y108.936 E0.04547
G1 X118.279 Y107.667 E0.04478
G1 X117.907 Y106.404 E0.04128
G1 X117.769 Y104.961 E0.04544
G1 X117.918 Y103.540 E0.04478
G1 X118.325 Y102.234 E0.04290
G1 X118.683 Y102.346 F10800.000
G1 F900
G1 X119.350 Y101.119 E0.04378
G1 X120.143 Y100.164 E0.03894
G1 X121.186 Y99.305 E0.04233
G1 X122.403 Y98.657 E0.04323
G1 X123.724 Y98.266 E0.04323
G1 X125.073 Y98.146 E0.04246
G1 X126.309 Y98.272 E0.03894
G1 X127.629 Y98.670 E0.04323
G1 X128.826 Y99.313 E0.04259
G1 X129.886 Y100.193 E0.04323
G1 X130.749 Y101.269 E0.04323
G1 X131.372 Y102.476 E0.04259
G1 X131.723 Y103.666 E0.03890
G1 X131.854 Y105.035 E0.04314
G1 X131.712 Y106.386 E0.04259
G1 X131.299 Y107.702 E0.04323
G1 X130.631 Y108.908 E0.04323
G1 X129.753 Y109.938 E0.04246
G1 X128.781 Y110.717 E0.03903
G1 X127.563 Y111.357 E0.04314
G1 X126.259 Y111.737 E0.04259
G1 X124.894 Y111.853 E0.04297
G1 X123.545 Y111.698 E0.04259
G1 X122.361 Y111.325 E0.03890
G1 X121.171 Y110.685 E0.04237
G1 X120.108 Y109.801 E0.04336
G1 X119.248 Y108.728 E0.04310
G1 X118.628 Y107.524 E0.04246
G1 X118.277 Y106.334 E0.03890
G1 X118.146 Y104.965 E0.04314
