; generated by PrusaSlicer 2.2.0+win64 on 2021-01-13 at 00:32:38 UTC

; 

; external perimeters extrusion width = 0.45mm
; perimeters extrusion width = 0.45mm
; infill extrusion width = 0.45mm
; solid infill extrusion width = 0.45mm
; top infill extrusion width = 0.40mm
; first layer extrusion width = 0.42mm

M73 P0 R43
M73 Q0 S44
M201 X1000 Y1000 Z200 E5000 ; sets maximum accelerations, mm/sec^2
M203 X200 Y200 Z12 E120 ; sets maximum feedrates, mm/sec
M204 P1250 R1250 T1250 ; sets acceleration (P, T) and retract acceleration (R), mm/sec^2
M205 X8.00 Y8.00 Z0.40 E4.50 ; sets the jerk limits, mm/sec
M205 S0 T0 ; sets the minimum extruding and travel feed rate, mm/sec
M107
M862.3 P "MK3SMMU2S" ; printer model check
M862.1 P0.4 ; nozzle diameter check
M115 U3.9.2 ; tell printer latest fw version
G90 ; use absolute coordinates
M83 ; extruder relative mode
M104 S215 ; set extruder temp
M140 S60 ; set bed temp
Tx
M190 S60 ; wait for bed temp
M109 S215 ; wait for extruder temp
G28 W ; home all without mesh bed level
G80 ; mesh bed leveling

;go outside print area
G1 Y-3.0 F1000.0
G1 Z0.4 F1000.0
; select extruder
Tc
; purge line
G1 X55.0 F2000.0
G1 Z0.3 F1000.0
G92 E0.0
G1 X240.0 E25.0 F2200.0
M73 Q0 S43
M73 P0 R43
G1 Y-2.0 F1000.0
G1 X55.0 E25 F1400.0
G1 Z0.20 F1000.0
G1 X5.0 E4.0 F1000.0

M221 S95
G92 E0.0

; Don't change E values below. Excessive value can damage the printer.

M907 E538 ; set extruder motor current
G21 ; set units to millimeters
G90 ; use absolute coordinates
M83 ; use relative distances for extrusion
M900 K0.05 ; Filament gcode LA 1.5
M900 K30 ; Filament gcode LA 1.0
;BEFORE_LAYER_CHANGE
G92 E0.0
;0.2


G1 E-0.80000 F2100.00000
G1 Z0.400 F10800.000
;AFTER_LAYER_CHANGE
;0.2
G1 X136.996 Y95.971
G1 Z0.200
G1 E0.80000 F2100.00000
M204 S1000
G1 F1200.000
G1 X137.604 Y96.784 E0.03183
G1 X137.877 Y97.762 E0.03183
G1 X137.881 Y112.184 E0.45221
G1 X137.778 Y112.769 E0.01860
G1 X137.552 Y113.317 E0.01860
G1 X137.214 Y113.805 E0.01860
G1 X136.779 Y114.208 E0.01860
G1 X136.035 Y114.602 E0.02638
G1 X135.208 Y114.753 E0.02638
G1 X121.846 Y114.754 E0.41894
G1 X120.414 Y114.645 E0.04503
G1 X119.426 Y114.444 E0.03162
G1 X118.491 Y114.151 E0.03072
G1 X116.763 Y113.312 E0.06022
G1 X115.464 Y112.358 E0.05054
G1 X114.124 Y110.931 E0.06137
G1 X113.106 Y109.288 E0.06060
G1 X112.424 Y107.445 E0.06163
G1 X112.126 Y105.502 E0.06163
G1 X112.217 Y103.580 E0.06035
G1 X112.696 Y101.678 E0.06149
G1 X113.373 Y100.206 E0.05080
G1 X114.476 Y98.634 E0.06021
G1 X115.152 Y97.925 E0.03072
G1 X115.935 Y97.257 E0.03226
G1 X117.133 Y96.472 E0.04491
G1 X118.418 Y95.877 E0.04439
G1 X119.477 Y95.543 E0.03483
G1 X120.872 Y95.297 E0.04439
G1 X135.137 Y95.246 E0.44729
G1 X136.135 Y95.434 E0.03183
G1 X136.945 Y95.940 E0.02995
G1 X136.746 Y96.256 F10800.000
G1 F1200.000
G1 X137.276 Y96.971 E0.02792
G1 X137.504 Y97.824 E0.02767
G1 X137.506 Y112.148 E0.44914
G1 X137.413 Y112.673 E0.01668
G1 X137.206 Y113.163 E0.01668
G1 X136.896 Y113.595 E0.01668
G1 X136.500 Y113.945 E0.01657
G1 X135.872 Y114.259 E0.02201
G1 X135.180 Y114.377 E0.02201
G1 X121.848 Y114.377 E0.41803
G1 X120.431 Y114.266 E0.04455
G1 X118.609 Y113.793 E0.05901
G1 X116.906 Y112.957 E0.05949
G1 X115.406 Y111.796 E0.05949
G1 X114.177 Y110.366 E0.05913
G1 X113.252 Y108.704 E0.05961
G1 X112.693 Y106.939 E0.05806
G1 X112.490 Y105.060 E0.05925
G1 X112.607 Y103.523 E0.04834
G1 X113.076 Y101.735 E0.05794
G1 X113.911 Y100.036 E0.05937
G1 X115.071 Y98.539 E0.05937
G1 X116.501 Y97.310 E0.05913
G1 X117.367 Y96.774 E0.03193
G1 X118.611 Y96.206 E0.04286
G1 X119.924 Y95.827 E0.04286
G1 X120.945 Y95.668 E0.03241
G1 X135.137 Y95.623 E0.44497
G1 X136.004 Y95.788 E0.02767
G1 X136.695 Y96.224 E0.02562
; printing object SpoolHolderSupport.stl id:0 copy 0
G1 F8640.000
G1 X137.276 Y96.971 E-0.21862
G1 X137.504 Y97.824 E-0.20374
G1 X137.504 Y99.286 E-0.33764
G1 E-0.04000 F2100.00000
G1 Z0.600 F10800.000
G1 X123.998 Y104.014
G1 Z0.200
G1 E0.80000 F2100.00000
G1 F1200.000
G1 X124.160 Y104.494 E0.01589
G1 X124.213 Y104.969 E0.01497
G1 X124.196 Y105.286 E0.00996
G1 X124.086 Y105.766 E0.01545
G1 X123.878 Y106.211 E0.01540
G1 X123.572 Y106.614 E0.01586
G1 X123.209 Y106.925 E0.01497
G1 X122.938 Y107.088 E0.00992
G1 X122.494 Y107.263 E0.01497
G1 X121.994 Y107.345 E0.01589
G1 X121.488 Y107.317 E0.01589
G1 X121.014 Y107.188 E0.01540
G1 X120.577 Y106.960 E0.01545
G1 X120.324 Y106.768 E0.00996
G1 X119.997 Y106.420 E0.01497
G1 X119.735 Y105.986 E0.01589
G1 X119.574 Y105.506 E0.01589
G1 X119.520 Y105.031 E0.01497
G1 X119.538 Y104.714 E0.00996
G1 X119.647 Y104.234 E0.01545
G1 X119.855 Y103.789 E0.01540
G1 X120.162 Y103.385 E0.01589
G1 X120.548 Y103.057 E0.01589
G1 X120.969 Y102.832 E0.01497
G1 X121.270 Y102.730 E0.00996
G1 X121.757 Y102.655 E0.01544
G1 X122.247 Y102.683 E0.01537
G1 X122.719 Y102.812 E0.01537
G1 X123.157 Y103.040 E0.01545
G1 X123.409 Y103.232 E0.00996
G1 X123.737 Y103.580 E0.01497
G1 X123.967 Y103.963 E0.01401
G1 X123.644 Y104.157 F10800.000
G1 F1200.000
G1 X123.790 Y104.576 E0.01392
G1 X123.835 Y104.980 E0.01272
G1 X123.821 Y105.233 E0.00797
G1 X123.727 Y105.643 E0.01318
G1 X123.554 Y106.015 E0.01288
G1 X123.296 Y106.354 E0.01333
G1 X122.988 Y106.618 E0.01272
G1 X122.771 Y106.748 E0.00795
G1 X122.393 Y106.897 E0.01272
G1 X121.973 Y106.966 E0.01334
G1 X121.549 Y106.943 E0.01334
G1 X121.152 Y106.834 E0.01288
G1 X120.780 Y106.641 E0.01318
G1 X120.577 Y106.487 E0.00797
G1 X120.299 Y106.191 E0.01272
G1 X120.080 Y105.827 E0.01334
G1 X119.944 Y105.424 E0.01334
G1 X119.899 Y105.020 E0.01272
G1 X119.912 Y104.767 E0.00797
G1 X120.006 Y104.357 E0.01318
G1 X120.180 Y103.985 E0.01288
G1 X120.437 Y103.646 E0.01334
G1 X120.761 Y103.370 E0.01334
G1 X121.119 Y103.179 E0.01272
G1 X121.360 Y103.098 E0.00797
G1 X121.776 Y103.033 E0.01318
G1 X122.185 Y103.057 E0.01287
G1 X122.581 Y103.166 E0.01287
G1 X122.954 Y103.359 E0.01318
G1 X123.156 Y103.513 E0.00797
G1 X123.434 Y103.809 E0.01272
G1 X123.613 Y104.106 E0.01086
G1 X124.043 Y104.191 F10800.000
G1 F8640.000
G1 X123.790 Y104.576 E-0.11611
G1 X123.835 Y104.980 E-0.09371
G1 X123.821 Y105.233 E-0.05868
G1 X123.727 Y105.643 E-0.09705
G1 X123.554 Y106.015 E-0.09483
G1 X123.296 Y106.354 E-0.09816
G1 X122.988 Y106.618 E-0.09371
G1 X122.771 Y106.748 E-0.05856
G1 X122.573 Y106.827 E-0.04918
G1 E-0.04000 F2100.00000
G1 Z0.600 F10800.000
G1 X134.346 Y98.787
G1 Z0.200
G1 E0.80000 F2100.00000
G1 F1200.000
G1 X134.346 Y111.213 E0.38959
G1 X121.552 Y111.204 E0.40114
G1 X120.926 Y111.140 E0.01974
G1 X120.310 Y111.014 E0.01973
G1 X119.709 Y110.825 E0.01973
G1 X119.131 Y110.577 E0.01973
G1 X118.581 Y110.272 E0.01973
G1 X118.064 Y109.912 E0.01973
G1 X117.587 Y109.502 E0.01973
G1 X117.153 Y109.046 E0.01973
G1 X116.764 Y108.543 E0.01996
G1 X116.599 Y108.292 E0.00940
G1 X116.289 Y107.736 E0.01996
G1 X116.041 Y107.157 E0.01973
G1 X115.853 Y106.557 E0.01973
G1 X115.726 Y105.941 E0.01973
G1 X115.663 Y105.315 E0.01973
G1 X115.663 Y104.685 E0.01973
G1 X115.726 Y104.059 E0.01973
G1 X115.853 Y103.443 E0.01973
G1 X116.041 Y102.843 E0.01973
G1 X116.289 Y102.264 E0.01973
G1 X116.595 Y101.714 E0.01973
G1 X116.959 Y101.191 E0.01996
G1 X117.148 Y100.959 E0.00940
G1 X117.587 Y100.498 E0.01996
G1 X118.064 Y100.088 E0.01973
G1 X118.581 Y99.728 E0.01973
G1 X119.131 Y99.423 E0.01973
G1 X119.709 Y99.175 E0.01973
G1 X120.317 Y98.984 E0.01996
G1 X120.609 Y98.916 E0.00940
G1 X121.238 Y98.820 E0.01996
G1 X121.884 Y98.787 E0.02028
G1 X134.286 Y98.787 E0.38886
G1 X134.723 Y98.410 F10800.000
G1 F1200.000
G1 X134.723 Y111.590 E0.41325
G1 X121.533 Y111.581 E0.41357
G1 X120.869 Y111.514 E0.02093
G1 X120.215 Y111.379 E0.02093
G1 X119.578 Y111.179 E0.02093
G1 X118.965 Y110.916 E0.02093
G1 X118.381 Y110.592 E0.02093
G1 X117.833 Y110.211 E0.02093
G1 X117.327 Y109.776 E0.02093
G1 X116.867 Y109.292 E0.02093
G1 X116.457 Y108.762 E0.02101
G1 X116.276 Y108.488 E0.01030
G1 X115.951 Y107.902 E0.02101
G1 X115.687 Y107.289 E0.02093
G1 X115.487 Y106.652 E0.02093
G1 X115.353 Y105.998 E0.02093
G1 X115.286 Y105.334 E0.02093
G1 X115.286 Y104.666 E0.02093
G1 X115.353 Y104.002 E0.02093
G1 X115.487 Y103.348 E0.02093
G1 X115.687 Y102.711 E0.02093
G1 X115.951 Y102.098 E0.02093
G1 X116.274 Y101.514 E0.02093
G1 X116.657 Y100.964 E0.02101
G1 X116.865 Y100.710 E0.01030
G1 X117.327 Y100.224 E0.02101
G1 X117.833 Y99.789 E0.02093
G1 X118.381 Y99.408 E0.02093
G1 X118.965 Y99.084 E0.02093
G1 X119.578 Y98.821 E0.02093
G1 X120.218 Y98.620 E0.02101
G1 X120.538 Y98.546 E0.01030
G1 X121.200 Y98.444 E0.02101
G1 X121.875 Y98.410 E0.02118
G1 X134.663 Y98.410 E0.40098
G1 X134.524 Y98.757 F10800.000
G1 F8640.000
G1 X134.678 Y101.701 E-0.76000
G1 E-0.04000 F2100.00000
G1 Z0.600 F10800.000
G1 X134.233 Y99.677
G1 Z0.200
G1 E0.80000 F2100.00000
G1 F1200.000
G1 X133.626 Y99.070 E0.02742
G1 X133.083 Y99.070 E0.01734
G1 X134.063 Y100.051 E0.04428
G1 X134.063 Y100.594 E0.01734
G1 X132.540 Y99.070 E0.06880
G1 X131.997 Y99.070 E0.01734
G1 X134.063 Y101.137 E0.09332
G1 X134.063 Y101.680 E0.01734
G1 X131.454 Y99.070 E0.11785
G1 X130.911 Y99.070 E0.01734
G1 X134.063 Y102.223 E0.14237
G1 X134.063 Y102.766 E0.01734
G1 X130.367 Y99.070 E0.16689
G1 X129.824 Y99.070 E0.01734
G1 X134.063 Y103.309 E0.19141
G1 X134.063 Y103.852 E0.01734
G1 X129.281 Y99.070 E0.21593
G1 X128.738 Y99.070 E0.01734
G1 X134.063 Y104.395 E0.24045
G1 X134.063 Y104.938 E0.01734
G1 X128.195 Y99.070 E0.26498
G1 X127.652 Y99.070 E0.01734
G1 X134.063 Y105.481 E0.28950
G1 X134.063 Y106.024 E0.01734
G1 X127.109 Y99.070 E0.31402
G1 X126.566 Y99.070 E0.01734
G1 X134.063 Y106.567 E0.33854
G1 X134.063 Y107.110 E0.01734
G1 X126.023 Y99.070 E0.36306
G1 X125.480 Y99.070 E0.01734
G1 X134.063 Y107.653 E0.38759
G1 X134.063 Y108.196 E0.01734
G1 X124.937 Y99.070 E0.41211
G1 X124.394 Y99.070 E0.01734
G1 X134.063 Y108.739 E0.43663
G1 X134.063 Y109.282 E0.01734
G1 X123.851 Y99.070 E0.46115
G1 X123.308 Y99.070 E0.01734
G1 X134.063 Y109.826 E0.48567
G1 X134.063 Y110.369 E0.01734
G1 X122.765 Y99.070 E0.51019
G1 X122.222 Y99.070 E0.01734
G1 X134.063 Y110.912 E0.53472
G1 X134.063 Y110.930 E0.00057
G1 X133.538 Y110.929 E0.01678
G1 X121.689 Y99.080 E0.53505
G1 X121.180 Y99.115 E0.01627
G1 X132.995 Y110.929 E0.53347
G1 X132.451 Y110.928 E0.01735
G1 X120.709 Y99.187 E0.53020
G1 X120.273 Y99.294 E0.01433
G1 X131.908 Y110.928 E0.52534
G1 X131.364 Y110.928 E0.01735
G1 X119.860 Y99.424 E0.51947
G1 X119.476 Y99.582 E0.01328
G1 X122.297 Y102.403 E0.12737
G1 X121.724 Y102.374 E0.01831
G1 X119.109 Y99.758 E0.11809
G1 X118.760 Y99.952 E0.01275
G1 X121.254 Y102.447 E0.11264
G1 X120.843 Y102.579 E0.01379
G1 X118.437 Y100.173 E0.10864
G1 X118.127 Y100.406 E0.01238
G1 X120.489 Y102.768 E0.10664
G1 X120.388 Y102.822 E0.00365
G1 X120.178 Y103.000 E0.00880
G1 X117.835 Y100.657 E0.10580
G1 X117.566 Y100.930 E0.01226
G1 X119.899 Y103.264 E0.10536
G1 X119.664 Y103.572 E0.01237
G1 X117.306 Y101.213 E0.10651
G1 X117.072 Y101.523 E0.01238
G1 X119.478 Y103.929 E0.10862
G1 X119.378 Y104.141 E0.00749
G1 X119.335 Y104.330 E0.00616
G1 X116.849 Y101.843 E0.11226
G1 X116.654 Y102.191 E0.01273
G1 X119.250 Y104.788 E0.11726
G1 X119.237 Y105.039 E0.00805
G1 X119.272 Y105.352 E0.01005
G1 X116.473 Y102.553 E0.12637
G1 X116.310 Y102.933 E0.01320
G1 X124.300 Y110.923 E0.36078
G1 X124.843 Y110.924 E0.01735
G1 X121.522 Y107.603 E0.14996
G1 X122.009 Y107.629 E0.01557
G1 X122.080 Y107.617 E0.00229
G1 X125.387 Y110.924 E0.14931
G1 X125.930 Y110.924 E0.01735
G1 X122.547 Y107.541 E0.15278
G1 X122.940 Y107.391 E0.01343
G1 X126.474 Y110.925 E0.15956
G1 X127.017 Y110.925 E0.01735
G1 X123.295 Y107.203 E0.16807
G1 X123.599 Y106.964 E0.01235
G1 X127.560 Y110.925 E0.17889
G1 X128.104 Y110.926 E0.01735
G1 X123.869 Y106.691 E0.19122
G1 X124.104 Y106.382 E0.01237
G1 X128.647 Y110.926 E0.20517
G1 X129.191 Y110.926 E0.01735
G1 X124.281 Y106.017 E0.22169
G1 X124.355 Y105.859 E0.00558
G1 X124.413 Y105.606 E0.00829
G1 X129.734 Y110.927 E0.24028
G1 X130.277 Y110.927 E0.01735
G1 X124.487 Y105.137 E0.26146
G1 X124.497 Y104.961 E0.00563
G1 X124.452 Y104.558 E0.01293
G1 X130.991 Y111.097 E0.29527
G1 F8640.000
G1 X128.663 Y108.770 E-0.76000
G1 E-0.04000 F2100.00000
G1 Z0.600 F10800.000
G1 X123.926 Y111.093
G1 Z0.200
G1 E0.80000 F2100.00000
G1 F1200.000
G1 X116.180 Y103.346 E0.34980
G1 X116.072 Y103.781 E0.01432
G1 X123.213 Y110.922 E0.32245
G1 X122.670 Y110.922 E0.01735
G1 X115.992 Y104.244 E0.30154
G1 X115.945 Y104.741 E0.01593
G1 X122.126 Y110.922 E0.27910
G1 X121.583 Y110.921 E0.01735
G1 X115.945 Y105.284 E0.25456
G1 X116.005 Y105.887 E0.01934
G1 X120.980 Y110.862 E0.22465
G1 X120.285 Y110.710 E0.02272
G1 X116.157 Y106.582 E0.18640
G1 X116.307 Y107.059 E0.01598
G1 X116.469 Y107.436 E0.01311
G1 X119.430 Y110.398 E0.13373
G1 X119.256 Y110.323 E0.00607
G1 X118.731 Y110.032 E0.01918
G1 X118.238 Y109.688 E0.01918
G1 X117.815 Y109.325 E0.01780
G1 X116.661 Y108.171 E0.05210
; stop printing object SpoolHolderSupport.stl id:0 copy 0
M106 S255
;BEFORE_LAYER_CHANGE
G92 E0.0
;0.4


G1 F8640.000
G1 X117.815 Y109.325 E-0.37680
G1 X118.238 Y109.688 E-0.12875
G1 X118.731 Y110.032 E-0.13868
G1 X119.169 Y110.275 E-0.11577
G1 E-0.04000 F2100.00000
G1 Z0.600 F10800.000
;AFTER_LAYER_CHANGE
;0.4
G1 X136.996 Y95.971
G1 Z0.400
G1 E0.80000 F2100.00000
G1 F3000.000
G1 X137.604 Y96.784 E0.03183
G1 X137.877 Y97.762 E0.03183
G1 X137.881 Y112.184 E0.45221
G1 X137.778 Y112.769 E0.01860
G1 X137.552 Y113.317 E0.01860
G1 X137.214 Y113.805 E0.01860
G1 X136.779 Y114.208 E0.01860
G1 X136.035 Y114.602 E0.02638
G1 X135.208 Y114.753 E0.02638
G1 X121.846 Y114.754 E0.41894
G1 X120.414 Y114.645 E0.04503
G1 X119.426 Y114.444 E0.03162
G1 X118.491 Y114.151 E0.03072
G1 X116.763 Y113.312 E0.06022
G1 X115.464 Y112.358 E0.05054
G1 X114.124 Y110.931 E0.06137
G1 X113.106 Y109.288 E0.06060
G1 X112.424 Y107.445 E0.06163
G1 X112.126 Y105.502 E0.06163
G1 X112.217 Y103.580 E0.06035
G1 X112.696 Y101.678 E0.06149
G1 X113.373 Y100.206 E0.05080
G1 X114.476 Y98.634 E0.06021
G1 X115.152 Y97.925 E0.03072
G1 X115.935 Y97.257 E0.03226
G1 X117.133 Y96.472 E0.04491
G1 X118.418 Y95.877 E0.04439
G1 X119.477 Y95.543 E0.03483
G1 X120.872 Y95.297 E0.04439
G1 X135.137 Y95.246 E0.44729
G1 X136.135 Y95.434 E0.03183
G1 X136.945 Y95.940 E0.02995
G1 X136.746 Y96.256 F10800.000
G1 F3000.000
G1 X137.276 Y96.971 E0.02792
G1 X137.504 Y97.824 E0.02767
G1 X137.506 Y112.148 E0.44914
G1 X137.413 Y112.673 E0.01668
G1 X137.206 Y113.163 E0.01668
G1 X136.896 Y113.595 E0.01668
G1 X136.500 Y113.945 E0.01657
G1 X135.872 Y114.259 E0.02201
G1 X135.180 Y114.377 E0.02201
G1 X121.848 Y114.377 E0.41803
G1 X120.431 Y114.266 E0.04455
G1 X118.609 Y113.793 E0.05901
G1 X116.906 Y112.957 E0.05949
G1 X115.406 Y111.796 E0.05949
G1 X114.177 Y110.366 E0.05913
G1 X113.252 Y108.704 E0.05961
G1 X112.693 Y106.939 E0.05806
G1 X112.490 Y105.060 E0.05925
G1 X112.607 Y103.523 E0.04834
G1 X113.076 Y101.735 E0.05794
G1 X113.911 Y100.036 E0.05937
G1 X115.071 Y98.539 E0.05937
G1 X116.501 Y97.310 E0.05913
G1 X117.367 Y96.774 E0.03193
G1 X118.611 Y96.206 E0.04286
G1 X119.924 Y95.827 E0.04286
G1 X120.945 Y95.668 E0.03241
G1 X135.137 Y95.623 E0.44497
G1 X136.004 Y95.788 E0.02767
G1 X136.695 Y96.224 E0.02562
; printing object SpoolHolderSupport.stl id:0 copy 0
G1 F8640.000
G1 X137.276 Y96.971 E-0.21862
G1 X137.504 Y97.824 E-0.20374
G1 X137.504 Y99.286 E-0.33764
G1 E-0.04000 F2100.00000
G1 Z0.800 F10800.000
G1 X123.962 Y104.030
G1 Z0.400
G1 E0.80000 F2100.00000
M204 S800
G1 F1500.000
G1 X124.121 Y104.502 E0.01685
G1 X124.175 Y104.977 E0.01616
G1 X124.128 Y105.458 E0.01636
G1 X124.041 Y105.772 E0.01102
G1 X123.844 Y106.192 E0.01569
G1 X123.544 Y106.587 E0.01681
G1 X123.192 Y106.889 E0.01569
M73 Q2 S42
G1 X122.915 Y107.055 E0.01095
G1 X122.483 Y107.225 E0.01569
G1 X121.992 Y107.306 E0.01685
G1 X121.495 Y107.279 E0.01685
G1 X121.047 Y107.157 E0.01569
G1 X120.752 Y107.020 E0.01102
G1 X120.355 Y106.744 E0.01636
G1 X120.028 Y106.396 E0.01616
G1 X119.771 Y105.970 E0.01685
G1 X119.612 Y105.498 E0.01685
G1 X119.558 Y105.023 E0.01616
G1 X119.605 Y104.542 E0.01636
G1 X119.693 Y104.228 E0.01102
G1 X119.889 Y103.808 E0.01569
G1 X120.190 Y103.412 E0.01685
G1 X120.570 Y103.090 E0.01685
G1 X120.979 Y102.871 E0.01569
