; generated by PrusaSlicer 2.2.0+win64 on 2021-01-04 at 00:16:48 UTC

; 

; external perimeters extrusion width = 0.45mm
; perimeters extrusion width = 0.45mm
; infill extrusion width = 0.45mm
; solid infill extrusion width = 0.45mm
; top infill extrusion width = 0.40mm
; first layer extrusion width = 0.42mm

M73 P0 R58
M73 Q0 S59
M201 X1000 Y1000 Z200 E5000 ; sets maximum accelerations, mm/sec^2
M203 X200 Y200 Z12 E120 ; sets maximum feedrates, mm/sec
M204 P1250 R1250 T1250 ; sets acceleration (P, T) and retract acceleration (R), mm/sec^2
M205 X8.00 Y8.00 Z0.40 E4.50 ; sets the jerk limits, mm/sec
M205 S0 T0 ; sets the minimum extruding and travel feed rate, mm/sec
M107
M862.3 P "MK3SMMU2S" ; printer model check
M862.1 P0.4 ; nozzle diameter check
M115 U3.9.1 ; tell printer latest fw version
G90 ; use absolute coordinates
M83 ; extruder relative mode
M104 S215 ; set extruder temp
M140 S60 ; set bed temp
Tx
M190 S60 ; wait for bed temp
M109 S215 ; wait for extruder temp
G28 W ; home all without mesh bed level
G80 ; mesh bed leveling

;go outside print area
G1 Y-3.0 F1000.0
G1 Z0.4 F1000.0
; select extruder
Tc
; purge line
G1 X55.0 F2000.0
G1 Z0.3 F1000.0
G92 E0.0
G1 X240.0 E25.0 F2200.0
M73 Q0 S59
M73 P0 R58
G1 Y-2.0 F1000.0
G1 X55.0 E25 F1400.0
G1 Z0.20 F1000.0
G1 X5.0 E4.0 F1000.0

M221 S95
G92 E0.0

; Don't change E values below. Excessive value can damage the printer.

M907 E538 ; set extruder motor current
G21 ; set units to millimeters
G90 ; use absolute coordinates
M83 ; use relative distances for extrusion
M900 K0.06 ; Filament gcode LA 1.5
M900 K30 ; Filament gcode LA 1.0
;BEFORE_LAYER_CHANGE
G92 E0.0
;0.2


G1 E-0.80000 F2100.00000
G1 Z0.600 F10800.000
;AFTER_LAYER_CHANGE
;0.2
G1 X104.761 Y86.965
G1 Z0.200
G1 E0.80000 F2100.00000
M204 S1000
G1 F1200.000
G1 X105.198 Y85.154 E0.05842
G1 X105.917 Y83.168 E0.06621
G1 X106.542 Y81.804 E0.04705
G1 X107.555 Y79.998 E0.06492
G1 X108.393 Y78.754 E0.04702
G1 X109.703 Y77.117 E0.06576
G1 X111.175 Y75.601 E0.06626
G1 X112.289 Y74.628 E0.04637
G1 X113.975 Y73.383 E0.06573
G1 X115.253 Y72.592 E0.04709
G1 X117.125 Y71.636 E0.06593
G1 X119.074 Y70.868 E0.06567
G1 X120.519 Y70.430 E0.04734
G1 X122.579 Y69.989 E0.06605
G1 X124.660 Y69.748 E0.06571
G1 X126.139 Y69.698 E0.04639
G1 X128.237 Y69.799 E0.06585
G1 X129.719 Y69.993 E0.04688
G1 X131.776 Y70.436 E0.06596
G1 X133.789 Y71.078 E0.06626
G1 X135.181 Y71.652 E0.04721
G1 X137.052 Y72.611 E0.06593
G1 X138.824 Y73.746 E0.06597
G1 X139.994 Y74.637 E0.04610
G1 X141.557 Y76.044 E0.06597
G1 X142.587 Y77.137 E0.04709
G1 X143.893 Y78.773 E0.06563
G1 X145.053 Y80.554 E0.06662
G1 X146.032 Y82.434 E0.06647
G1 X146.610 Y83.807 E0.04673
G1 X147.272 Y85.837 E0.06692
G1 X147.475 Y86.654 E0.02641
G1 X147.508 Y87.178 E0.01645
G1 X144.068 Y123.210 E1.13489
G1 X143.541 Y125.102 E0.06160
G1 X142.674 Y127.242 E0.07238
G1 X141.894 Y128.741 E0.05299
G1 X141.178 Y129.897 E0.04263
G1 X140.221 Y131.220 E0.05121
G1 X139.345 Y132.265 E0.04274
G1 X138.399 Y133.252 E0.04286
G1 X137.144 Y134.381 E0.05294
G1 X135.850 Y135.374 E0.05115
G1 X134.695 Y136.132 E0.04329
G1 X133.268 Y136.925 E0.05119
G1 X131.733 Y137.627 E0.05293
G1 X130.436 Y138.107 E0.04335
G1 X128.888 Y138.556 E0.05055
G1 X127.537 Y138.845 E0.04334
G1 X125.862 Y139.073 E0.05300
G1 X124.231 Y139.167 E0.05121
G1 X122.872 Y139.146 E0.04263
G1 X121.228 Y138.999 E0.05174
G1 X119.562 Y138.717 E0.05299
G1 X118.220 Y138.384 E0.04335
G1 X116.685 Y137.885 E0.05062
G1 X115.405 Y137.364 E0.04334
G1 X113.890 Y136.610 E0.05305
G1 X112.493 Y135.773 E0.05104
G1 X111.377 Y134.988 E0.04280
G1 X110.101 Y133.944 E0.05169
G1 X108.881 Y132.772 E0.05304
G1 X107.960 Y131.746 E0.04323
G1 X106.973 Y130.471 E0.05056
G1 X106.207 Y129.321 E0.04334
G1 X105.379 Y127.848 E0.05298
G1 X104.692 Y126.365 E0.05123
G1 X104.215 Y125.105 E0.04226
G1 X103.739 Y123.496 E0.05258
G1 X103.670 Y122.893 E0.01906
G1 X104.760 Y87.025 E1.12513
G1 F8640.000
G1 X105.198 Y85.154 E-0.44378
G1 X105.664 Y83.866 E-0.31622
G1 E-0.04000 F2100.00000
G1 Z0.800 F10800.000
G1 X122.409 Y118.835
G1 Z0.200
G1 E0.80000 F2100.00000
G1 F1200.000
G1 X122.859 Y118.657 E0.01517
G1 X123.151 Y118.571 E0.00954
G1 X123.623 Y118.478 E0.01510
G1 X123.996 Y118.440 E0.01174
G1 X124.484 Y118.437 E0.01530
G1 X124.844 Y118.470 E0.01133
G1 X125.201 Y118.531 E0.01138
G1 X125.697 Y118.666 E0.01610
G1 X126.072 Y118.809 E0.01258
G1 X126.552 Y119.050 E0.01685
G1 X126.925 Y119.302 E0.01410
G1 X127.200 Y119.533 E0.01126
G1 X127.611 Y119.969 E0.01880
G1 X127.857 Y120.294 E0.01277
G1 X128.041 Y120.585 E0.01081
G1 X128.290 Y121.069 E0.01706
G1 X128.489 Y121.658 E0.01949
G1 X128.569 Y122.010 E0.01133
G1 X128.636 Y122.670 E0.02079
G1 X128.628 Y123.034 E0.01141
G1 X128.556 Y123.574 E0.01707
G1 X128.441 Y123.997 E0.01376
G1 X128.316 Y124.340 E0.01144
G1 X128.120 Y124.754 E0.01438
G1 X127.897 Y125.130 E0.01369
G1 X127.697 Y125.410 E0.01080
G1 X127.339 Y125.818 E0.01702
G1 X127.091 Y126.050 E0.01064
G1 X126.717 Y126.340 E0.01484
G1 X126.381 Y126.553 E0.01247
G1 X126.090 Y126.705 E0.01029
G1 X125.639 Y126.887 E0.01524
G1 X125.271 Y126.997 E0.01206
G1 X124.901 Y127.070 E0.01182
G1 X124.394 Y127.118 E0.01597
G1 X123.728 Y127.087 E0.02088
G1 X123.219 Y126.988 E0.01626
G1 X122.851 Y126.875 E0.01208
G1 X122.321 Y126.638 E0.01819
G1 X122.018 Y126.457 E0.01108
G1 X121.744 Y126.261 E0.01054
G1 X121.340 Y125.896 E0.01710
G1 X120.972 Y125.499 E0.01695
G1 X120.784 Y125.255 E0.00967
G1 X120.507 Y124.809 E0.01646
G1 X120.309 Y124.401 E0.01422
G1 X120.209 Y124.123 E0.00925
G1 X120.079 Y123.608 E0.01667
G1 X120.029 Y123.312 E0.00941
G1 X119.986 Y122.764 E0.01722
G1 X119.984 Y122.358 E0.01275
G1 X120.017 Y122.005 E0.01112
G1 X120.116 Y121.528 E0.01527
G1 X120.237 Y121.146 E0.01256
G1 X120.355 Y120.866 E0.00953
G1 X120.558 Y120.484 E0.01355
G1 X120.799 Y120.129 E0.01345
G1 X121.087 Y119.785 E0.01407
G1 X121.303 Y119.572 E0.00953
G1 X121.657 Y119.280 E0.01438
G1 X121.912 Y119.105 E0.00969
G1 X122.356 Y118.863 E0.01585
G1 X122.536 Y119.194 F10800.000
G1 F1200.000
G1 X122.982 Y119.014 E0.01507
G1 X123.241 Y118.938 E0.00847
G1 X123.679 Y118.851 E0.01400
G1 X124.016 Y118.817 E0.01062
G1 X124.468 Y118.814 E0.01416
G1 X124.795 Y118.844 E0.01030
G1 X125.120 Y118.900 E0.01034
G1 X125.580 Y119.025 E0.01494
G1 X125.920 Y119.155 E0.01141
G1 X126.361 Y119.376 E0.01549
G1 X126.697 Y119.603 E0.01272
G1 X126.941 Y119.807 E0.00997
G1 X127.323 Y120.213 E0.01747
G1 X127.547 Y120.508 E0.01162
G1 X127.713 Y120.773 E0.00980
G1 X127.942 Y121.216 E0.01566
G1 X128.125 Y121.760 E0.01799
G1 X128.196 Y122.072 E0.01001
G1 X128.259 Y122.684 E0.01932
G1 X128.251 Y123.004 E0.01003
G1 X128.186 Y123.499 E0.01565
G1 X128.081 Y123.883 E0.01246
G1 X127.968 Y124.194 E0.01040
G1 X127.787 Y124.577 E0.01329
G1 X127.581 Y124.924 E0.01262
G1 X127.401 Y125.175 E0.00971
G1 X127.067 Y125.555 E0.01586
G1 X126.846 Y125.763 E0.00951
G1 X126.500 Y126.031 E0.01373
G1 X126.192 Y126.226 E0.01142
G1 X125.932 Y126.362 E0.00922
G1 X125.515 Y126.531 E0.01410
G1 X125.180 Y126.630 E0.01094
G1 X124.846 Y126.696 E0.01068
G1 X124.385 Y126.741 E0.01453
G1 X123.774 Y126.711 E0.01918
G1 X123.311 Y126.622 E0.01478
G1 X122.984 Y126.521 E0.01073
G1 X122.495 Y126.303 E0.01678
G1 X122.224 Y126.142 E0.00988
G1 X121.982 Y125.967 E0.00936
G1 X121.605 Y125.627 E0.01592
G1 X121.260 Y125.255 E0.01589
G1 X121.094 Y125.040 E0.00852
G1 X120.838 Y124.627 E0.01524
G1 X120.657 Y124.255 E0.01298
G1 X120.570 Y124.013 E0.00804
G1 X120.448 Y123.530 E0.01562
G1 X120.403 Y123.266 E0.00841
G1 X120.363 Y122.749 E0.01626
G1 X120.362 Y122.375 E0.01174
G1 X120.391 Y122.060 E0.00989
G1 X120.481 Y121.623 E0.01400
G1 X120.591 Y121.276 E0.01141
G1 X120.696 Y121.028 E0.00845
G1 X120.881 Y120.679 E0.01238
G1 X121.100 Y120.357 E0.01222
G1 X121.365 Y120.041 E0.01292
G1 X121.556 Y119.852 E0.00845
G1 X121.884 Y119.581 E0.01332
G1 X122.109 Y119.427 E0.00856
G1 X122.484 Y119.223 E0.01336
G1 X122.572 Y118.796 F10800.000
G1 F8640.000
G1 X122.982 Y119.014 E-0.12472
G1 X123.241 Y118.938 E-0.06241
G1 X123.679 Y118.851 E-0.10313
G1 X124.016 Y118.817 E-0.07821
G1 X124.468 Y118.814 E-0.10429
G1 X124.795 Y118.844 E-0.07584
G1 X125.120 Y118.900 E-0.07616
G1 X125.580 Y119.025 E-0.11006
G1 X125.682 Y119.064 E-0.02519
G1 E-0.04000 F2100.00000
G1 Z0.800 F10800.000
G1 X140.173 Y122.927
G1 Z0.200
G1 E0.80000 F2100.00000
G1 F1200.000
G1 X139.894 Y123.847 E0.03015
G1 X139.709 Y124.363 E0.01718
G1 X139.258 Y125.443 E0.03670
G1 X138.781 Y126.403 E0.03360
G1 X138.199 Y127.401 E0.03624
G1 X137.601 Y128.290 E0.03359
G1 X136.886 Y129.211 E0.03656
G1 X136.176 Y130.013 E0.03359
G1 X135.754 Y130.444 E0.01890
G1 X135.354 Y130.826 E0.01734
G1 X134.543 Y131.527 E0.03360
G1 X133.614 Y132.230 E0.03654
G1 X132.639 Y132.867 E0.03654
G1 X131.705 Y133.393 E0.03360
G1 X131.211 Y133.641 E0.01734
G1 X130.663 Y133.892 E0.01890
G1 X129.668 Y134.291 E0.03359
G1 X128.555 Y134.653 E0.03670
G1 X128.026 Y134.796 E0.01720
G1 X126.979 Y135.026 E0.03360
G1 X125.827 Y135.200 E0.03655
G1 X124.710 Y135.292 E0.03513
G1 X124.162 Y135.311 E0.01720
G1 X123.041 Y135.292 E0.03513
G1 X121.880 Y135.194 E0.03655
G1 X120.820 Y135.034 E0.03360
G1 X120.282 Y134.926 E0.01721
G1 X119.195 Y134.652 E0.03514
G1 X118.083 Y134.289 E0.03669
G1 X117.571 Y134.093 E0.01719
G1 X116.590 Y133.662 E0.03360
G1 X115.551 Y133.122 E0.03670
G1 X115.078 Y132.845 E0.01719
G1 X114.181 Y132.258 E0.03360
G1 X113.250 Y131.558 E0.03654
G1 X112.369 Y130.795 E0.03653
G1 X111.607 Y130.042 E0.03360
G1 X111.235 Y129.638 E0.01721
G1 X110.519 Y128.776 E0.03514
G1 X109.833 Y127.828 E0.03669
G1 X109.535 Y127.368 E0.01719
G1 X108.996 Y126.442 E0.03360
G1 X108.477 Y125.398 E0.03655
G1 X108.046 Y124.363 E0.03514
G1 X107.861 Y123.847 E0.01719
G1 X107.582 Y122.927 E0.03015
G1 X107.861 Y122.007 E0.03015
G1 X108.046 Y121.491 E0.01720
G1 X108.477 Y120.456 E0.03513
G1 X108.996 Y119.412 E0.03655
G1 X109.535 Y118.486 E0.03360
G1 X109.833 Y118.026 E0.01719
G1 X110.519 Y117.078 E0.03670
G1 X111.203 Y116.253 E0.03359
G1 X111.610 Y115.808 E0.01890
G1 X111.997 Y115.414 E0.01734
G1 X112.784 Y114.686 E0.03360
G1 X113.690 Y113.953 E0.03653
G1 X114.644 Y113.284 E0.03654
G1 X115.560 Y112.727 E0.03360
G1 X116.046 Y112.463 E0.01734
G1 X116.585 Y112.194 E0.01890
G1 X117.566 Y111.763 E0.03359
G1 X118.666 Y111.364 E0.03670
G1 X119.191 Y111.203 E0.01720
G1 X120.229 Y110.940 E0.03360
G1 X121.380 Y110.726 E0.03670
G1 X121.924 Y110.654 E0.01719
G1 X122.991 Y110.565 E0.03358
G1 X124.206 Y110.545 E0.03811
G1 X125.276 Y110.599 E0.03359
G1 X125.822 Y110.653 E0.01720
G1 X126.935 Y110.820 E0.03528
G1 X127.521 Y110.938 E0.01875
G1 X128.560 Y111.202 E0.03359
G1 X129.673 Y111.564 E0.03670
G1 X130.185 Y111.761 E0.01719
G1 X131.166 Y112.192 E0.03360
G1 X132.204 Y112.732 E0.03670
G1 X132.677 Y113.009 E0.01719
G1 X133.574 Y113.596 E0.03360
G1 X134.506 Y114.296 E0.03654
G1 X135.386 Y115.059 E0.03653
G1 X136.149 Y115.812 E0.03360
G1 X136.520 Y116.216 E0.01721
G1 X137.236 Y117.078 E0.03514
G1 X137.922 Y118.026 E0.03669
G1 X138.221 Y118.486 E0.01719
G1 X138.760 Y119.412 E0.03360
G1 X139.279 Y120.456 E0.03655
G1 X139.709 Y121.491 E0.03514
G1 X139.894 Y122.007 E0.01719
G1 X140.156 Y122.870 E0.02827
G1 X140.568 Y122.927 F10800.000
G1 F1200.000
G1 X140.252 Y123.966 E0.03403
G1 X140.061 Y124.499 E0.01778
G1 X139.601 Y125.600 E0.03739
G1 X139.115 Y126.579 E0.03427
G1 X138.517 Y127.605 E0.03723
G1 X137.906 Y128.511 E0.03427
G1 X137.177 Y129.452 E0.03734
G1 X136.452 Y130.270 E0.03427
G1 X136.019 Y130.712 E0.01940
G1 X135.608 Y131.105 E0.01783
G1 X134.781 Y131.820 E0.03427
G1 X133.832 Y132.539 E0.03733
G1 X132.835 Y133.190 E0.03733
G1 X131.882 Y133.726 E0.03427
G1 X131.374 Y133.981 E0.01783
G1 X130.811 Y134.239 E0.01940
G1 X129.797 Y134.646 E0.03427
G1 X128.663 Y135.015 E0.03739
G1 X128.116 Y135.163 E0.01778
G1 X127.048 Y135.397 E0.03427
G1 X125.870 Y135.575 E0.03734
G1 X124.732 Y135.669 E0.03583
G1 X124.165 Y135.688 E0.01779
G1 X123.022 Y135.669 E0.03583
G1 X121.836 Y135.569 E0.03734
G1 X120.755 Y135.406 E0.03427
G1 X120.198 Y135.294 E0.01779
G1 X119.091 Y135.014 E0.03583
G1 X117.957 Y134.645 E0.03739
G1 X117.427 Y134.442 E0.01778
G1 X116.427 Y134.002 E0.03427
G1 X115.369 Y133.452 E0.03739
G1 X114.879 Y133.165 E0.01778
G1 X113.965 Y132.567 E0.03427
G1 X113.013 Y131.852 E0.03734
G1 X112.113 Y131.072 E0.03733
G1 X111.335 Y130.304 E0.03427
G1 X110.951 Y129.886 E0.01779
G1 X110.221 Y129.007 E0.03583
G1 X109.522 Y128.041 E0.03739
G1 X109.213 Y127.565 E0.01778
G1 X108.664 Y126.621 E0.03427
G1 X108.133 Y125.555 E0.03734
G1 X107.695 Y124.499 E0.03583
G1 X107.503 Y123.966 E0.01778
G1 X107.188 Y122.927 E0.03403
G1 X107.503 Y121.888 E0.03403
G1 X107.695 Y121.355 E0.01778
G1 X108.133 Y120.299 E0.03583
G1 X108.664 Y119.233 E0.03734
G1 X109.213 Y118.288 E0.03427
G1 X109.522 Y117.813 E0.01778
G1 X110.221 Y116.846 E0.03739
G1 X110.919 Y116.005 E0.03427
G1 X111.336 Y115.549 E0.01940
G1 X111.735 Y115.143 E0.01783
G1 X112.537 Y114.401 E0.03427
G1 X113.462 Y113.651 E0.03733
G1 X114.438 Y112.968 E0.03734
G1 X115.372 Y112.400 E0.03427
G1 X115.871 Y112.128 E0.01783
G1 X116.425 Y111.852 E0.01940
G1 X117.426 Y111.412 E0.03427
G1 X118.547 Y111.006 E0.03739
G1 X119.089 Y110.840 E0.01778
G1 X120.148 Y110.571 E0.03427
G1 X121.321 Y110.354 E0.03739
G1 X121.883 Y110.279 E0.01778
G1 X122.972 Y110.188 E0.03427
G1 X124.213 Y110.168 E0.03890
G1 X125.304 Y110.223 E0.03427
G1 X125.869 Y110.279 E0.01779
G1 X127.001 Y110.448 E0.03588
G1 X127.605 Y110.571 E0.01934
G1 X128.665 Y110.840 E0.03427
G1 X129.798 Y111.209 E0.03739
G1 X130.328 Y111.412 E0.01778
G1 X131.329 Y111.852 E0.03427
G1 X132.387 Y112.402 E0.03739
G1 X132.876 Y112.689 E0.01778
G1 X133.791 Y113.287 E0.03427
G1 X134.743 Y114.002 E0.03734
G1 X135.642 Y114.782 E0.03733
G1 X136.420 Y115.550 E0.03427
G1 X136.804 Y115.968 E0.01779
G1 X137.534 Y116.847 E0.03583
G1 X138.233 Y117.813 E0.03739
G1 X138.542 Y118.288 E0.01778
G1 X139.092 Y119.233 E0.03427
G1 X139.622 Y120.299 E0.03734
G1 X140.061 Y121.355 E0.03583
G1 X140.252 Y121.888 E0.01778
G1 X140.550 Y122.870 E0.03215
G1 X140.204 Y123.094 F10800.000
G1 F8640.000
G1 X140.252 Y123.966 E-0.26225
G1 X140.061 Y124.499 E-0.13092
G1 X139.601 Y125.600 E-0.27536
G1 X139.425 Y125.954 E-0.09147
G1 E-0.04000 F2100.00000
G1 Z0.800 F10800.000
G1 X137.314 Y117.378
G1 Z0.200
G1 E0.80000 F2100.00000
G1 F1200.000
G1 X135.194 Y115.267 E0.09409
G1 X134.328 Y114.516 E0.03603
G1 X133.411 Y113.828 E0.03605
G1 X132.883 Y113.482 E0.01985
G1 X137.877 Y118.476 E0.22208
G1 X138.510 Y119.546 E0.03911
G1 X138.607 Y119.741 E0.00683
G1 X131.605 Y112.739 E0.31136
G1 X131.043 Y112.447 E0.01991
G1 X130.571 Y112.239 E0.01624
G1 X139.104 Y120.773 E0.37948
G1 X139.476 Y121.679 E0.03081
G1 X129.659 Y111.862 E0.43656
G1 X128.859 Y111.597 E0.02650
G1 X139.742 Y122.480 E0.48397
G1 X139.878 Y122.927 E0.01468
G1 X139.826 Y123.099 E0.00564
G1 X128.106 Y111.378 E0.52118
G1 X127.393 Y111.201 E0.02309
G1 X139.701 Y123.509 E0.54731
G1 X139.570 Y123.913 E0.01335
G1 X126.733 Y111.075 E0.57085
G1 X126.104 Y110.981 E0.01999
G1 X139.427 Y124.304 E0.59245
G1 X139.269 Y124.681 E0.01285
G1 X125.492 Y110.905 E0.61263
G1 X124.917 Y110.864 E0.01814
G1 X139.112 Y125.059 E0.63121
G1 X138.948 Y125.430 E0.01276
G1 X124.354 Y110.836 E0.64899
G1 X123.818 Y110.834 E0.01686
G1 X138.771 Y125.787 E0.66494
G1 X138.594 Y126.145 E0.01255
G1 X123.292 Y110.843 E0.68045
G1 X122.780 Y110.866 E0.01609
G1 X138.407 Y126.493 E0.69489
G1 X138.213 Y126.833 E0.01233
G1 X122.287 Y110.908 E0.70819
G1 X121.800 Y110.956 E0.01537
G1 X138.011 Y127.167 E0.72086
G1 X137.799 Y127.489 E0.01214
G1 X121.332 Y111.023 E0.73224
G1 X120.881 Y111.106 E0.01443
G1 X137.584 Y127.809 E0.74273
G1 X137.368 Y128.128 E0.01211
G1 X120.430 Y111.190 E0.75321
G1 X119.996 Y111.291 E0.01401
G1 X137.135 Y128.429 E0.76214
G1 X136.901 Y128.731 E0.01199
G1 X119.569 Y111.399 E0.77072
G1 X119.148 Y111.512 E0.01372
G1 X126.185 Y118.550 E0.31294
G1 X125.785 Y118.397 E0.01348
G1 X125.390 Y118.289 E0.01286
G1 X118.739 Y111.638 E0.29576
G1 X118.346 Y111.781 E0.01313
G1 X124.743 Y118.177 E0.28443
G1 X124.496 Y118.154 E0.00779
G1 X124.187 Y118.156 E0.00971
G1 X117.954 Y111.923 E0.27718
