; generated by PrusaSlicer 2.2.0+win64 on 2021-01-03 at 15:43:09 UTC

; 

; external perimeters extrusion width = 0.45mm
; perimeters extrusion width = 0.45mm
; infill extrusion width = 0.45mm
; solid infill extrusion width = 0.45mm
; top infill extrusion width = 0.40mm
; first layer extrusion width = 0.42mm

M73 P0 R43
M73 Q0 S43
M201 X1000 Y1000 Z200 E5000 ; sets maximum accelerations, mm/sec^2
M203 X200 Y200 Z12 E120 ; sets maximum feedrates, mm/sec
M204 P1250 R1250 T1250 ; sets acceleration (P, T) and retract acceleration (R), mm/sec^2
M205 X8.00 Y8.00 Z0.40 E4.50 ; sets the jerk limits, mm/sec
M205 S0 T0 ; sets the minimum extruding and travel feed rate, mm/sec
M107
M862.3 P "MK3SMMU2S" ; printer model check
M862.1 P0.4 ; nozzle diameter check
M115 U3.9.1 ; tell printer latest fw version
G90 ; use absolute coordinates
M83 ; extruder relative mode
M104 S215 ; set extruder temp
M140 S60 ; set bed temp
Tx
M190 S60 ; wait for bed temp
M109 S215 ; wait for extruder temp
G28 W ; home all without mesh bed level
G80 ; mesh bed leveling

;go outside print area
G1 Y-3.0 F1000.0
G1 Z0.4 F1000.0
; select extruder
Tc
; purge line
G1 X55.0 F2000.0
G1 Z0.3 F1000.0
G92 E0.0
G1 X240.0 E25.0 F2200.0
M73 Q0 S43
M73 P0 R43
G1 Y-2.0 F1000.0
G1 X55.0 E25 F1400.0
G1 Z0.20 F1000.0
G1 X5.0 E4.0 F1000.0

M221 S95
G92 E0.0

; Don't change E values below. Excessive value can damage the printer.

M907 E538 ; set extruder motor current
G21 ; set units to millimeters
G90 ; use absolute coordinates
M83 ; use relative distances for extrusion
M900 K0.06 ; Filament gcode LA 1.5
M900 K30 ; Filament gcode LA 1.0
;BEFORE_LAYER_CHANGE
G92 E0.0
;0.2


G1 E-0.80000 F2100.00000
G1 Z0.600 F10800.000
;AFTER_LAYER_CHANGE
;0.2
G1 X103.246 Y104.998
G1 Z0.200
G1 E0.80000 F2100.00000
M204 S1000
G1 F1200.000
G1 X103.500 Y103.661 E0.04269
G1 X104.169 Y101.610 E0.06764
G1 X105.033 Y99.631 E0.06771
G1 X105.758 Y98.288 E0.04783
G1 X106.931 Y96.485 E0.06745
G1 X108.258 Y94.822 E0.06670
G1 X109.310 Y93.705 E0.04812
G1 X110.907 Y92.268 E0.06736
G1 X112.626 Y90.997 E0.06703
G1 X113.931 Y90.189 E0.04812
G1 X115.835 Y89.217 E0.06703
G1 X117.811 Y88.438 E0.06661
G1 X119.293 Y87.989 E0.04854
G1 X121.378 Y87.542 E0.06686
G1 X122.868 Y87.348 E0.04712
G1 X125.004 Y87.246 E0.06704
G1 X127.136 Y87.349 E0.06690
G1 X128.650 Y87.547 E0.04790
G1 X130.738 Y87.997 E0.06696
G1 X132.780 Y88.648 E0.06719
G1 X134.203 Y89.235 E0.04825
G1 X136.102 Y90.208 E0.06690
G1 X137.378 Y90.999 E0.04708
G1 X139.094 Y92.268 E0.06692
G1 X140.683 Y93.698 E0.06703
G1 X141.738 Y94.817 E0.04824
G1 X143.064 Y96.478 E0.06662
G1 X144.236 Y98.277 E0.06732
G1 X144.962 Y99.622 E0.04790
G1 X145.825 Y101.593 E0.06747
G1 X146.496 Y103.648 E0.06780
G1 X146.752 Y104.993 E0.04291
G1 X146.501 Y106.337 E0.04287
G1 X145.830 Y108.395 E0.06789
G1 X144.967 Y110.368 E0.06750
G1 X144.242 Y111.712 E0.04787
G1 X143.069 Y113.515 E0.06745
G1 X141.742 Y115.178 E0.06670
G1 X140.690 Y116.295 E0.04812
G1 X139.093 Y117.732 E0.06736
G1 X137.374 Y119.003 E0.06703
G1 X136.069 Y119.811 E0.04812
G1 X134.165 Y120.783 E0.06703
G1 X132.189 Y121.562 E0.06661
G1 X130.707 Y122.011 E0.04854
G1 X128.622 Y122.458 E0.06686
G1 X127.132 Y122.652 E0.04712
G1 X125.000 Y122.754 E0.06692
G1 X122.864 Y122.651 E0.06703
G1 X121.353 Y122.453 E0.04779
G1 X119.266 Y122.004 E0.06694
G1 X117.248 Y121.362 E0.06641
G1 X115.797 Y120.765 E0.04917
G1 X113.898 Y119.792 E0.06690
G1 X112.622 Y119.001 E0.04708
G1 X110.906 Y117.732 E0.06692
G1 X109.317 Y116.302 E0.06703
G1 X108.262 Y115.183 E0.04824
G1 X106.936 Y113.522 E0.06662
G1 X105.762 Y111.719 E0.06745
G1 X105.035 Y110.372 E0.04799
G1 X104.175 Y108.407 E0.06725
G1 X103.504 Y106.352 E0.06780
G1 X103.257 Y105.057 E0.04132
G1 X103.623 Y104.999 F10800.000
G1 F1200.000
G1 X103.867 Y103.750 E0.03990
G1 X104.536 Y101.705 E0.06746
G1 X105.390 Y99.759 E0.06662
G1 X106.413 Y97.933 E0.06564
G1 X107.257 Y96.679 E0.04738
G1 X108.567 Y95.042 E0.06576
G1 X110.039 Y93.526 E0.06626
G1 X111.147 Y92.558 E0.04613
G1 X112.839 Y91.308 E0.06596
G1 X114.112 Y90.520 E0.04693
G1 X115.989 Y89.561 E0.06609
G1 X117.938 Y88.793 E0.06567
G1 X119.383 Y88.355 E0.04734
G1 X121.443 Y87.914 E0.06605
G1 X123.525 Y87.673 E0.06571
G1 X125.003 Y87.623 E0.04639
G1 X127.101 Y87.724 E0.06585
G1 X128.583 Y87.918 E0.04688
G1 X130.640 Y88.361 E0.06596
G1 X132.627 Y88.994 E0.06538
G1 X134.041 Y89.575 E0.04792
G1 X135.913 Y90.534 E0.06597
G1 X137.164 Y91.310 E0.04614
G1 X138.852 Y92.557 E0.06581
G1 X139.960 Y93.525 E0.04614
G1 X141.428 Y95.036 E0.06604
G1 X142.737 Y96.671 E0.06568
G1 X143.582 Y97.924 E0.04738
G1 X144.605 Y99.750 E0.06563
G1 X145.457 Y101.686 E0.06632
G1 X146.130 Y103.739 E0.06776
G1 X146.375 Y104.992 E0.04002
G1 X146.134 Y106.249 E0.04012
G1 X145.461 Y108.304 E0.06779
G1 X144.610 Y110.240 E0.06629
G1 X143.587 Y112.067 E0.06567
G1 X142.743 Y113.321 E0.04738
G1 X141.433 Y114.958 E0.06576
G1 X139.961 Y116.474 E0.06626
G1 X138.853 Y117.442 E0.04613
G1 X137.161 Y118.692 E0.06596
G1 X135.888 Y119.480 E0.04693
G1 X134.011 Y120.439 E0.06609
G1 X132.062 Y121.207 E0.06567
G1 X130.617 Y121.645 E0.04734
G1 X128.557 Y122.086 E0.06605
G1 X127.101 Y122.276 E0.04605
G1 X125.001 Y122.377 E0.06593
G1 X122.899 Y122.276 E0.06597
G1 X121.417 Y122.082 E0.04688
G1 X119.360 Y121.639 E0.06596
G1 X117.373 Y121.006 E0.06538
G1 X115.959 Y120.425 E0.04792
G1 X114.087 Y119.466 E0.06597
G1 X112.836 Y118.690 E0.04614
G1 X111.148 Y117.443 E0.06581
G1 X109.581 Y116.033 E0.06609
G1 X108.549 Y114.938 E0.04721
G1 X107.243 Y113.302 E0.06563
G1 X106.089 Y111.531 E0.06626
G1 X105.374 Y110.206 E0.04721
G1 X104.531 Y108.282 E0.06587
G1 X103.870 Y106.261 E0.06668
G1 X103.634 Y105.057 E0.03843
G1 F8640.000
G1 X103.867 Y103.750 E-0.30671
G1 X104.478 Y101.884 E-0.45329
G1 E-0.04000 F2100.00000
G1 Z0.800 F10800.000
G1 X121.125 Y105.116
G1 Z0.200
G1 E0.80000 F2100.00000
G1 F1200.000
G1 X121.118 Y104.562 E0.01740
G1 X121.153 Y104.119 E0.01392
G1 X121.211 Y103.788 E0.01055
G1 X121.319 Y103.392 E0.01286
G1 X121.474 Y102.993 E0.01343
G1 X121.675 Y102.603 E0.01375
G1 X121.852 Y102.328 E0.01026
G1 X122.136 Y101.968 E0.01437
G1 X122.407 Y101.689 E0.01219
G1 X122.765 Y101.387 E0.01470
G1 X123.028 Y101.205 E0.01001
G1 X123.442 Y100.972 E0.01491
G1 X123.734 Y100.841 E0.01003
G1 X124.246 Y100.671 E0.01691
G1 X124.732 Y100.571 E0.01557
G1 X125.086 Y100.534 E0.01115
G1 X125.583 Y100.528 E0.01557
G1 X126.033 Y100.571 E0.01419
G1 X126.429 Y100.647 E0.01264
G1 X126.818 Y100.758 E0.01267
G1 X127.198 Y100.904 E0.01276
G1 X127.569 Y101.086 E0.01296
G1 X128.000 Y101.353 E0.01589
G1 X128.284 Y101.589 E0.01159
G1 X128.543 Y101.835 E0.01121
G1 X128.883 Y102.237 E0.01650
G1 X129.168 Y102.660 E0.01599
G1 X129.333 Y102.971 E0.01102
G1 X129.475 Y103.298 E0.01120
G1 X129.618 Y103.744 E0.01468
G1 X129.691 Y104.073 E0.01056
G1 X129.753 Y104.630 E0.01759
G1 X129.753 Y105.106 E0.01491
G1 X129.716 Y105.463 E0.01125
G1 X129.640 Y105.878 E0.01322
G1 X129.536 Y106.209 E0.01090
G1 X129.372 Y106.612 E0.01365
G1 X129.195 Y106.954 E0.01205
G1 X128.942 Y107.349 E0.01472
G1 X128.647 Y107.719 E0.01484
G1 X128.310 Y108.063 E0.01510
G1 X128.037 Y108.292 E0.01117
G1 X127.633 Y108.571 E0.01539
G1 X127.332 Y108.740 E0.01081
G1 X127.019 Y108.885 E0.01084
G1 X126.477 Y109.068 E0.01792
G1 X126.141 Y109.143 E0.01079
G1 X125.637 Y109.204 E0.01593
G1 X125.236 Y109.209 E0.01259
G1 X124.720 Y109.160 E0.01624
G1 X124.339 Y109.080 E0.01219
G1 X123.919 Y108.948 E0.01382
G1 X123.587 Y108.805 E0.01133
G1 X123.275 Y108.637 E0.01113
G1 X122.975 Y108.440 E0.01124
G1 X122.582 Y108.115 E0.01601
G1 X122.277 Y107.796 E0.01383
G1 X121.927 Y107.360 E0.01753
G1 X121.756 Y107.098 E0.00982
G1 X121.505 Y106.633 E0.01656
G1 X121.359 Y106.285 E0.01183
G1 X121.261 Y105.950 E0.01094
G1 X121.157 Y105.426 E0.01673
G1 X121.131 Y105.176 E0.00789
G1 X121.506 Y105.137 F10800.000
G1 F1200.000
G1 X121.496 Y104.574 E0.01763
G1 X121.528 Y104.166 E0.01283
G1 X121.579 Y103.870 E0.00944
G1 X121.677 Y103.510 E0.01168
G1 X121.818 Y103.148 E0.01218
G1 X122.002 Y102.792 E0.01256
G1 X122.159 Y102.547 E0.00913
G1 X122.420 Y102.217 E0.01320
G1 X122.664 Y101.965 E0.01099
G1 X122.994 Y101.687 E0.01353
G1 X123.228 Y101.525 E0.00890
G1 X123.612 Y101.309 E0.01382
G1 X123.871 Y101.193 E0.00890
G1 X124.343 Y101.036 E0.01561
G1 X124.790 Y100.944 E0.01429
G1 X125.108 Y100.911 E0.01003
G1 X125.567 Y100.905 E0.01439
G1 X125.979 Y100.945 E0.01300
G1 X126.341 Y101.015 E0.01155
G1 X126.698 Y101.116 E0.01163
G1 X127.047 Y101.250 E0.01172
G1 X127.386 Y101.416 E0.01185
G1 X127.779 Y101.659 E0.01448
G1 X128.033 Y101.871 E0.01037
G1 X128.269 Y102.094 E0.01017
G1 X128.582 Y102.465 E0.01520
G1 X128.844 Y102.855 E0.01473
G1 X128.993 Y103.134 E0.00994
G1 X129.121 Y103.431 E0.01014
G1 X129.253 Y103.843 E0.01356
G1 X129.318 Y104.135 E0.00938
G1 X129.376 Y104.651 E0.01629
G1 X129.376 Y105.086 E0.01364
G1 X129.342 Y105.409 E0.01018
G1 X129.273 Y105.787 E0.01204
G1 X129.181 Y106.081 E0.00967
G1 X129.029 Y106.454 E0.01263
G1 X128.868 Y106.765 E0.01098
G1 X128.635 Y107.129 E0.01355
G1 X128.364 Y107.469 E0.01362
G1 X128.053 Y107.786 E0.01392
G1 X127.808 Y107.992 E0.01005
G1 X127.433 Y108.251 E0.01427
G1 X127.161 Y108.404 E0.00979
G1 X126.879 Y108.534 E0.00975
G1 X126.375 Y108.704 E0.01666
G1 X126.078 Y108.771 E0.00957
G1 X125.612 Y108.827 E0.01472
G1 X125.251 Y108.832 E0.01130
G1 X124.777 Y108.786 E0.01494
G1 X124.435 Y108.715 E0.01095
G1 X124.050 Y108.594 E0.01264
G1 X123.751 Y108.465 E0.01021
G1 X123.468 Y108.313 E0.01008
G1 X123.200 Y108.137 E0.01006
G1 X122.839 Y107.838 E0.01468
G1 X122.561 Y107.547 E0.01263
G1 X122.233 Y107.138 E0.01644
G1 X122.080 Y106.904 E0.00875
G1 X121.846 Y106.470 E0.01549
G1 X121.715 Y106.159 E0.01058
G1 X121.628 Y105.860 E0.00975
G1 X121.512 Y105.196 E0.02113
G1 X121.145 Y104.965 F10800.000
G1 F8640.000
G1 X121.496 Y104.574 E-0.14367
G1 X121.528 Y104.166 E-0.09452
G1 X121.579 Y103.870 E-0.06951
G1 X121.677 Y103.510 E-0.08602
G1 X121.818 Y103.148 E-0.08969
G1 X122.002 Y102.792 E-0.09250
G1 X122.159 Y102.547 E-0.06725
G1 X122.420 Y102.217 E-0.09721
G1 X122.479 Y102.156 E-0.01962
G1 E-0.04000 F2100.00000
G1 Z0.800 F10800.000
G1 X134.391 Y100.947
G1 Z0.200
G1 E0.80000 F2100.00000
G1 F1200.000
G1 X134.391 Y100.472 E0.01489
G1 X134.448 Y100.200 E0.00872
G1 X134.541 Y99.938 E0.00872
G1 X134.787 Y99.533 E0.01489
G1 X134.991 Y99.315 E0.00935
G1 X135.379 Y99.041 E0.01489
G1 X135.652 Y98.922 E0.00935
G1 X136.117 Y98.825 E0.01489
G1 X136.416 Y98.825 E0.00935
G1 X136.900 Y98.926 E0.01553
G1 X137.358 Y99.163 E0.01616
G1 X137.720 Y99.501 E0.01553
G1 X137.880 Y99.728 E0.00872
G1 X138.008 Y99.975 E0.00872
G1 X138.142 Y100.452 E0.01553
G1 X138.142 Y100.947 E0.01553
G1 X138.085 Y101.219 E0.00872
G1 X137.992 Y101.481 E0.00872
G1 X137.736 Y101.904 E0.01549
G1 X137.391 Y102.228 E0.01482
G1 X137.139 Y102.385 E0.00933
G1 X136.881 Y102.498 E0.00884
G1 X136.416 Y102.594 E0.01489
G1 X136.117 Y102.594 E0.00935
G1 X135.633 Y102.494 E0.01553
G1 X135.193 Y102.266 E0.01553
G1 X134.977 Y102.090 E0.00872
G1 X134.788 Y101.888 E0.00868
G1 X134.552 Y101.502 E0.01419
G1 X134.448 Y101.223 E0.00933
G1 X134.403 Y101.006 E0.00696
G1 X134.772 Y100.929 F10800.000
G1 F1200.000
G1 X134.768 Y100.511 E0.01311
G1 X134.812 Y100.302 E0.00669
G1 X134.883 Y100.101 E0.00669
G1 X135.090 Y99.762 E0.01246
G1 X135.240 Y99.600 E0.00692
G1 X135.565 Y99.371 E0.01246
G1 X135.767 Y99.283 E0.00692
G1 X136.156 Y99.202 E0.01246
G1 X136.377 Y99.202 E0.00692
G1 X136.773 Y99.285 E0.01269
G1 X137.139 Y99.474 E0.01291
G1 X137.434 Y99.750 E0.01269
G1 X137.557 Y99.925 E0.00669
G1 X137.656 Y100.114 E0.00669
G1 X137.765 Y100.504 E0.01269
G1 X137.765 Y100.909 E0.01269
G1 X137.721 Y101.117 E0.00669
G1 X137.650 Y101.319 E0.00669
G1 X137.440 Y101.664 E0.01267
G1 X137.160 Y101.928 E0.01206
G1 X136.963 Y102.051 E0.00728
G1 X136.766 Y102.136 E0.00674
G1 X136.377 Y102.217 E0.01246
G1 X136.156 Y102.217 E0.00692
G1 X135.760 Y102.135 E0.01269
G1 X135.401 Y101.949 E0.01269
G1 X135.235 Y101.814 E0.00669
G1 X135.090 Y101.658 E0.00668
G1 X134.892 Y101.337 E0.01183
G1 X134.812 Y101.119 E0.00728
G1 X134.785 Y100.988 E0.00419
G1 X134.407 Y100.766 F10800.000
G1 F8640.000
G1 X134.768 Y100.511 E-0.11018
G1 X134.812 Y100.302 E-0.04928
G1 X134.883 Y100.101 E-0.04929
G1 X135.090 Y99.762 E-0.09175
G1 X135.240 Y99.600 E-0.05095
G1 X135.565 Y99.371 E-0.09175
G1 X135.767 Y99.283 E-0.05095
G1 X136.156 Y99.202 E-0.09175
G1 X136.377 Y99.202 E-0.05095
G1 X136.773 Y99.285 E-0.09343
G1 X136.887 Y99.344 E-0.02973
G1 E-0.04000 F2100.00000
G1 Z0.800 F10800.000
G1 X136.900 Y107.506
G1 Z0.200
G1 E0.80000 F2100.00000
G1 F1200.000
G1 X137.358 Y107.744 E0.01616
G1 X137.720 Y108.082 E0.01553
G1 X137.880 Y108.309 E0.00872
G1 X138.008 Y108.556 E0.00872
G1 X138.142 Y109.032 E0.01553
G1 X138.142 Y109.528 E0.01553
G1 X138.085 Y109.800 E0.00872
G1 X137.992 Y110.062 E0.00872
G1 X137.735 Y110.485 E0.01553
G1 X137.373 Y110.823 E0.01553
G1 X137.136 Y110.967 E0.00872
G1 X136.881 Y111.078 E0.00872
G1 X136.416 Y111.175 E0.01489
G1 X136.119 Y111.175 E0.00931
G1 X135.675 Y111.084 E0.01419
G1 X135.401 Y110.969 E0.00933
G1 X135.160 Y110.823 E0.00884
G1 X134.813 Y110.499 E0.01489
G1 X134.653 Y110.272 E0.00872
G1 X134.525 Y110.025 E0.00872
G1 X134.391 Y109.548 E0.01553
G1 X134.391 Y109.053 E0.01553
G1 X134.448 Y108.781 E0.00872
G1 X134.541 Y108.519 E0.00872
G1 X134.787 Y108.113 E0.01489
G1 X134.991 Y107.895 E0.00935
G1 X135.379 Y107.621 E0.01489
G1 X135.652 Y107.502 E0.00935
G1 X136.117 Y107.406 E0.01489
G1 X136.416 Y107.406 E0.00935
G1 X136.842 Y107.494 E0.01365
G1 X136.765 Y107.863 F10800.000
G1 F1200.000
G1 X137.139 Y108.055 E0.01316
G1 X137.434 Y108.331 E0.01269
G1 X137.557 Y108.505 E0.00669
G1 X137.656 Y108.695 E0.00669
G1 X137.765 Y109.084 E0.01269
G1 X137.765 Y109.489 E0.01269
G1 X137.721 Y109.698 E0.00669
G1 X137.650 Y109.899 E0.00669
G1 X137.440 Y110.245 E0.01269
G1 X137.144 Y110.521 E0.01269
G1 X136.962 Y110.632 E0.00669
G1 X136.766 Y110.717 E0.00669
G1 X136.377 Y110.798 E0.01246
G1 X136.157 Y110.798 E0.00691
G1 X135.787 Y110.722 E0.01183
G1 X135.573 Y110.632 E0.00728
G1 X135.389 Y110.521 E0.00674
G1 X135.099 Y110.250 E0.01246
G1 X134.976 Y110.075 E0.00669
G1 X134.877 Y109.886 E0.00669
G1 X134.768 Y109.496 E0.01269
G1 X134.768 Y109.091 E0.01269
G1 X134.812 Y108.883 E0.00669
G1 X134.883 Y108.681 E0.00669
G1 X135.090 Y108.342 E0.01246
G1 X135.240 Y108.181 E0.00692
G1 X135.565 Y107.951 E0.01246
G1 X135.767 Y107.864 E0.00692
G1 X136.156 Y107.783 E0.01246
G1 X136.377 Y107.783 E0.00692
G1 X136.706 Y107.851 E0.01055
G1 X137.074 Y107.609 F10800.000
G1 F8640.000
G1 X137.139 Y108.055 E-0.11034
G1 X137.434 Y108.331 E-0.09343
G1 X137.557 Y108.505 E-0.04929
G1 X137.656 Y108.695 E-0.04929
G1 X137.765 Y109.084 E-0.09343
G1 X137.765 Y109.489 E-0.09343
G1 X137.721 Y109.698 E-0.04928
G1 X137.650 Y109.899 E-0.04929
G1 X137.440 Y110.245 E-0.09343
G1 X137.190 Y110.478 E-0.07881
G1 E-0.04000 F2100.00000
G1 Z0.800 F10800.000
G1 X143.185 Y105.000
G1 Z0.200
G1 E0.80000 F2100.00000
G1 F1200.000
G1 X142.911 Y106.000 E0.03252
G1 X142.722 Y106.577 E0.01902
G1 X142.515 Y107.147 E0.01901
G1 X142.041 Y108.278 E0.03846
G1 X141.496 Y109.372 E0.03832
G1 X140.881 Y110.427 E0.03828
G1 X140.550 Y110.936 E0.01905
G1 X139.829 Y111.935 E0.03861
G1 X139.454 Y112.404 E0.01886
G1 X138.639 Y113.328 E0.03862
G1 X138.219 Y113.759 E0.01886
G1 X137.321 Y114.595 E0.03847
G1 X136.371 Y115.370 E0.03847
G1 X135.887 Y115.728 E0.01886
G1 X134.861 Y116.409 E0.03862
G1 X134.345 Y116.718 E0.01886
G1 X133.262 Y117.294 E0.03847
G1 X132.148 Y117.796 E0.03831
G1 X130.999 Y118.227 E0.03847
G1 X130.426 Y118.410 E0.01886
G1 X129.241 Y118.727 E0.03847
G1 X128.037 Y118.965 E0.03847
G1 X127.442 Y119.053 E0.01886
G1 X126.221 Y119.173 E0.03846
G1 X124.995 Y119.213 E0.03847
G1 X123.783 Y119.173 E0.03802
G1 X122.562 Y119.053 E0.03847
G1 X121.352 Y118.854 E0.03847
G1 X120.764 Y118.728 E0.01886
G1 X119.579 Y118.412 E0.03847
G1 X118.421 Y118.020 E0.03831
G1 X117.287 Y117.552 E0.03846
G1 X116.743 Y117.296 E0.01886
G1 X115.660 Y116.720 E0.03847
G1 X114.616 Y116.074 E0.03847
G1 X114.121 Y115.733 E0.01886
G1 X113.142 Y114.986 E0.03862
G1 X112.682 Y114.598 E0.01886
