; generated by PrusaSlicer 2.2.0+win64 on 2021-01-02 at 02:49:25 UTC

; 

; external perimeters extrusion width = 0.45mm
; perimeters extrusion width = 0.45mm
; infill extrusion width = 0.45mm
; solid infill extrusion width = 0.45mm
; top infill extrusion width = 0.40mm
; first layer extrusion width = 0.42mm

M73 P0 R89
M73 Q0 S90
M201 X1000 Y1000 Z200 E5000 ; sets maximum accelerations, mm/sec^2
M203 X200 Y200 Z12 E120 ; sets maximum feedrates, mm/sec
M204 P1250 R1250 T1250 ; sets acceleration (P, T) and retract acceleration (R), mm/sec^2
M205 X8.00 Y8.00 Z0.40 E4.50 ; sets the jerk limits, mm/sec
M205 S0 T0 ; sets the minimum extruding and travel feed rate, mm/sec
M107
M862.3 P "MK3SMMU2S" ; printer model check
M862.1 P0.4 ; nozzle diameter check
M115 U3.9.1 ; tell printer latest fw version
G90 ; use absolute coordinates
M83 ; extruder relative mode
M104 S215 ; set extruder temp
M140 S60 ; set bed temp
Tx
M190 S60 ; wait for bed temp
M109 S215 ; wait for extruder temp
G28 W ; home all without mesh bed level
G80 ; mesh bed leveling

;go outside print area
G1 Y-3.0 F1000.0
G1 Z0.4 F1000.0
; select extruder
Tc
; purge line
G1 X55.0 F2000.0
G1 Z0.3 F1000.0
G92 E0.0
G1 X240.0 E25.0 F2200.0
M73 Q0 S90
M73 P0 R89
G1 Y-2.0 F1000.0
G1 X55.0 E25 F1400.0
G1 Z0.20 F1000.0
G1 X5.0 E4.0 F1000.0

M221 S95
G92 E0.0

; Don't change E values below. Excessive value can damage the printer.

M907 E538 ; set extruder motor current
G21 ; set units to millimeters
G90 ; use absolute coordinates
M83 ; use relative distances for extrusion
M900 K0.06 ; Filament gcode LA 1.5
M900 K30 ; Filament gcode LA 1.0
;BEFORE_LAYER_CHANGE
G92 E0.0
;0.2


G1 E-0.80000 F2100.00000
G1 Z0.600 F10800.000
;AFTER_LAYER_CHANGE
;0.2
G1 X101.761 Y79.201
G1 Z0.200
G1 E0.80000 F2100.00000
M204 S1000
G1 F1200.000
G1 X102.146 Y78.512 E0.02473
G1 X102.511 Y78.147 E0.01621
G1 X102.951 Y77.867 E0.01633
G1 X103.437 Y77.691 E0.01621
G1 X103.953 Y77.623 E0.01633
G1 X146.004 Y77.623 E1.31847
G1 X146.892 Y77.797 E0.02837
G1 X147.653 Y78.292 E0.02849
G1 X148.172 Y79.034 E0.02837
G1 X148.376 Y79.919 E0.02849
G1 X148.377 Y130.023 E1.57097
G1 X148.239 Y130.799 E0.02473
G1 X147.854 Y131.488 E0.02473
G1 X147.483 Y131.858 E0.01645
G1 X147.036 Y132.140 E0.01657
G1 X146.541 Y132.315 E0.01645
G1 X146.020 Y132.377 E0.01645
G1 X103.973 Y132.377 E1.31835
G1 X103.197 Y132.237 E0.02473
G1 X102.512 Y131.854 E0.02461
G1 X102.142 Y131.483 E0.01645
G1 X101.860 Y131.036 E0.01657
G1 X101.684 Y130.537 E0.01657
G1 X101.623 Y130.016 E0.01645
G1 X101.623 Y79.977 E1.56894
G1 X101.751 Y79.260 E0.02285
G1 F8640.000
G1 X102.146 Y78.512 E-0.19524
G1 X102.511 Y78.147 E-0.11938
G1 X102.951 Y77.867 E-0.12025
G1 X103.437 Y77.691 E-0.11938
G1 X103.953 Y77.623 E-0.12025
G1 X104.324 Y77.623 E-0.08551
G1 E-0.04000 F2100.00000
G1 Z0.800 F10800.000
G1 X125.000 Y86.728
G1 Z0.200
G1 E0.80000 F2100.00000
G1 F1200.000
G1 X125.921 Y86.987 E0.02999
G1 X126.635 Y87.219 E0.02354
G1 X127.339 Y87.479 E0.02354
G1 X128.033 Y87.767 E0.02354
G1 X128.714 Y88.083 E0.02354
G1 X129.382 Y88.425 E0.02354
G1 X130.036 Y88.794 E0.02354
G1 X130.675 Y89.189 E0.02354
G1 X131.298 Y89.608 E0.02354
G1 X131.903 Y90.053 E0.02354
G1 X132.490 Y90.521 E0.02354
G1 X133.058 Y91.012 E0.02354
G1 X133.606 Y91.525 E0.02354
G1 X134.133 Y92.060 E0.02354
G1 X134.638 Y92.616 E0.02354
G1 X135.121 Y93.191 E0.02354
G1 X135.581 Y93.785 E0.02354
G1 X136.016 Y94.397 E0.02354
G1 X136.427 Y95.025 E0.02354
G1 X136.812 Y95.670 E0.02354
G1 X137.171 Y96.329 E0.02354
G1 X137.503 Y97.002 E0.02354
G1 X137.811 Y97.692 E0.02367
G1 X138.212 Y98.740 E0.03519
G1 X138.557 Y99.808 E0.03519
G1 X138.750 Y100.537 E0.02367
G1 X138.914 Y101.270 E0.02354
G1 X139.048 Y102.009 E0.02354
G1 X139.153 Y102.753 E0.02354
G1 X139.227 Y103.500 E0.02354
G1 X139.272 Y104.249 E0.02354
G1 X139.287 Y105.000 E0.02354
G1 X139.272 Y105.751 E0.02354
G1 X139.227 Y106.500 E0.02354
G1 X139.153 Y107.247 E0.02354
G1 X139.048 Y107.991 E0.02354
G1 X138.914 Y108.730 E0.02354
G1 X138.750 Y109.463 E0.02354
G1 X138.557 Y110.192 E0.02367
G1 X138.212 Y111.260 E0.03519
G1 X137.811 Y112.308 E0.03519
G1 X137.503 Y112.998 E0.02367
G1 X137.171 Y113.671 E0.02354
G1 X136.812 Y114.330 E0.02354
G1 X136.427 Y114.975 E0.02354
G1 X136.016 Y115.603 E0.02354
G1 X135.581 Y116.215 E0.02354
G1 X135.121 Y116.809 E0.02354
G1 X134.638 Y117.384 E0.02354
G1 X134.133 Y117.940 E0.02354
G1 X133.606 Y118.475 E0.02354
G1 X133.058 Y118.988 E0.02354
G1 X132.490 Y119.479 E0.02354
G1 X131.903 Y119.947 E0.02354
G1 X131.298 Y120.392 E0.02354
G1 X130.675 Y120.811 E0.02354
G1 X130.036 Y121.206 E0.02354
G1 X129.382 Y121.575 E0.02354
G1 X128.714 Y121.917 E0.02354
G1 X128.033 Y122.233 E0.02354
G1 X127.339 Y122.521 E0.02354
G1 X126.635 Y122.781 E0.02354
G1 X125.921 Y123.013 E0.02354
G1 X125.000 Y123.272 E0.02999
G1 X124.079 Y123.013 E0.02999
G1 X123.365 Y122.781 E0.02354
G1 X122.661 Y122.521 E0.02354
G1 X121.967 Y122.233 E0.02354
G1 X121.286 Y121.917 E0.02354
G1 X120.618 Y121.575 E0.02354
G1 X119.964 Y121.206 E0.02354
G1 X119.325 Y120.811 E0.02354
G1 X118.702 Y120.392 E0.02354
G1 X118.097 Y119.947 E0.02354
G1 X117.510 Y119.479 E0.02354
G1 X116.942 Y118.988 E0.02354
G1 X116.394 Y118.475 E0.02354
G1 X115.867 Y117.940 E0.02354
G1 X115.362 Y117.384 E0.02354
G1 X114.879 Y116.809 E0.02354
G1 X114.419 Y116.215 E0.02354
G1 X113.984 Y115.603 E0.02354
G1 X113.573 Y114.975 E0.02354
G1 X113.188 Y114.330 E0.02354
G1 X112.829 Y113.671 E0.02354
G1 X112.497 Y112.998 E0.02354
G1 X112.189 Y112.308 E0.02367
G1 X111.788 Y111.260 E0.03519
G1 X111.443 Y110.192 E0.03519
G1 X111.250 Y109.463 E0.02367
G1 X111.086 Y108.730 E0.02354
G1 X110.952 Y107.991 E0.02354
G1 X110.847 Y107.247 E0.02354
G1 X110.773 Y106.500 E0.02354
G1 X110.728 Y105.751 E0.02354
G1 X110.713 Y105.000 E0.02354
G1 X110.728 Y104.249 E0.02354
G1 X110.773 Y103.500 E0.02354
G1 X110.847 Y102.753 E0.02354
G1 X110.952 Y102.009 E0.02354
G1 X111.086 Y101.270 E0.02354
G1 X111.250 Y100.537 E0.02354
G1 X111.442 Y99.812 E0.02354
G1 X111.663 Y99.094 E0.02354
G1 X111.913 Y98.386 E0.02354
G1 X112.191 Y97.688 E0.02354
G1 X112.497 Y97.002 E0.02354
G1 X112.829 Y96.329 E0.02354
G1 X113.188 Y95.670 E0.02354
G1 X113.573 Y95.025 E0.02354
G1 X113.984 Y94.397 E0.02354
G1 X114.419 Y93.785 E0.02354
G1 X114.879 Y93.191 E0.02354
G1 X115.362 Y92.616 E0.02354
G1 X115.867 Y92.060 E0.02354
G1 X116.394 Y91.525 E0.02354
G1 X116.942 Y91.012 E0.02354
G1 X117.510 Y90.521 E0.02354
G1 X118.097 Y90.053 E0.02354
G1 X118.702 Y89.608 E0.02354
G1 X119.325 Y89.189 E0.02354
G1 X119.964 Y88.794 E0.02354
G1 X120.618 Y88.425 E0.02354
G1 X121.286 Y88.083 E0.02354
G1 X121.967 Y87.767 E0.02354
G1 X122.661 Y87.479 E0.02354
G1 X123.365 Y87.219 E0.02354
G1 X124.079 Y86.987 E0.02354
G1 X124.942 Y86.744 E0.02811
G1 X125.000 Y87.120 F10800.000
G1 F1200.000
G1 X125.811 Y87.348 E0.02643
G1 X126.511 Y87.575 E0.02307
G1 X127.202 Y87.830 E0.02307
G1 X127.881 Y88.113 E0.02307
G1 X128.549 Y88.422 E0.02307
G1 X129.204 Y88.757 E0.02307
G1 X129.845 Y89.119 E0.02307
G1 X130.471 Y89.505 E0.02307
G1 X131.081 Y89.917 E0.02307
G1 X131.674 Y90.352 E0.02307
G1 X132.249 Y90.811 E0.02307
G1 X132.806 Y91.292 E0.02307
G1 X133.343 Y91.795 E0.02307
G1 X133.859 Y92.319 E0.02307
G1 X134.355 Y92.864 E0.02307
G1 X134.828 Y93.427 E0.02307
G1 X135.278 Y94.009 E0.02307
G1 X135.704 Y94.609 E0.02307
G1 X136.107 Y95.225 E0.02307
G1 X136.484 Y95.857 E0.02307
G1 X136.836 Y96.503 E0.02307
G1 X137.162 Y97.163 E0.02307
G1 X137.462 Y97.836 E0.02312
G1 X137.856 Y98.865 E0.03456
G1 X138.195 Y99.914 E0.03456
G1 X138.384 Y100.627 E0.02312
G1 X138.544 Y101.345 E0.02307
G1 X138.676 Y102.069 E0.02307
G1 X138.778 Y102.798 E0.02307
G1 X138.851 Y103.530 E0.02307
G1 X138.895 Y104.264 E0.02307
G1 X138.910 Y105.000 E0.02307
G1 X138.895 Y105.736 E0.02307
G1 X138.851 Y106.470 E0.02307
G1 X138.778 Y107.202 E0.02307
G1 X138.676 Y107.931 E0.02307
G1 X138.544 Y108.655 E0.02307
G1 X138.384 Y109.373 E0.02307
G1 X138.195 Y110.086 E0.02312
G1 X137.856 Y111.135 E0.03456
G1 X137.462 Y112.164 E0.03456
G1 X137.162 Y112.837 E0.02312
G1 X136.836 Y113.497 E0.02307
G1 X136.484 Y114.143 E0.02307
G1 X136.107 Y114.775 E0.02307
G1 X135.704 Y115.391 E0.02307
G1 X135.278 Y115.991 E0.02307
G1 X134.828 Y116.573 E0.02307
G1 X134.355 Y117.136 E0.02307
G1 X133.859 Y117.681 E0.02307
G1 X133.343 Y118.205 E0.02307
G1 X132.806 Y118.708 E0.02307
G1 X132.249 Y119.189 E0.02307
G1 X131.674 Y119.648 E0.02307
G1 X131.081 Y120.083 E0.02307
G1 X130.471 Y120.495 E0.02307
G1 X129.845 Y120.881 E0.02307
G1 X129.204 Y121.243 E0.02307
G1 X128.549 Y121.578 E0.02307
G1 X127.881 Y121.887 E0.02307
G1 X127.202 Y122.170 E0.02307
G1 X126.511 Y122.425 E0.02307
G1 X125.811 Y122.652 E0.02307
G1 X125.000 Y122.880 E0.02643
G1 X124.189 Y122.652 E0.02643
G1 X123.489 Y122.425 E0.02307
G1 X122.798 Y122.170 E0.02307
G1 X122.119 Y121.887 E0.02307
G1 X121.451 Y121.578 E0.02307
G1 X120.796 Y121.243 E0.02307
G1 X120.155 Y120.881 E0.02307
G1 X119.529 Y120.495 E0.02307
G1 X118.919 Y120.083 E0.02307
G1 X118.326 Y119.648 E0.02307
G1 X117.751 Y119.189 E0.02307
G1 X117.194 Y118.708 E0.02307
G1 X116.657 Y118.205 E0.02307
G1 X116.141 Y117.681 E0.02307
G1 X115.645 Y117.136 E0.02307
G1 X115.172 Y116.573 E0.02307
G1 X114.722 Y115.991 E0.02307
G1 X114.296 Y115.391 E0.02307
G1 X113.893 Y114.775 E0.02307
G1 X113.516 Y114.143 E0.02307
G1 X113.164 Y113.497 E0.02307
G1 X112.838 Y112.837 E0.02307
G1 X112.538 Y112.164 E0.02312
G1 X112.144 Y111.135 E0.03456
G1 X111.805 Y110.086 E0.03456
G1 X111.616 Y109.373 E0.02312
G1 X111.456 Y108.655 E0.02307
G1 X111.324 Y107.931 E0.02307
G1 X111.222 Y107.202 E0.02307
G1 X111.149 Y106.470 E0.02307
G1 X111.105 Y105.736 E0.02307
G1 X111.090 Y105.000 E0.02307
G1 X111.105 Y104.264 E0.02307
G1 X111.149 Y103.530 E0.02307
G1 X111.222 Y102.798 E0.02307
G1 X111.324 Y102.069 E0.02307
G1 X111.456 Y101.345 E0.02307
G1 X111.616 Y100.627 E0.02307
G1 X111.805 Y99.916 E0.02307
G1 X112.022 Y99.212 E0.02307
G1 X112.266 Y98.518 E0.02307
G1 X112.539 Y97.835 E0.02307
G1 X112.838 Y97.163 E0.02307
G1 X113.164 Y96.503 E0.02307
G1 X113.516 Y95.857 E0.02307
G1 X113.893 Y95.225 E0.02307
G1 X114.296 Y94.609 E0.02307
G1 X114.722 Y94.009 E0.02307
G1 X115.172 Y93.427 E0.02307
G1 X115.645 Y92.864 E0.02307
G1 X116.141 Y92.319 E0.02307
G1 X116.657 Y91.795 E0.02307
G1 X117.194 Y91.292 E0.02307
G1 X117.751 Y90.811 E0.02307
G1 X118.326 Y90.352 E0.02307
G1 X118.919 Y89.917 E0.02307
G1 X119.529 Y89.505 E0.02307
G1 X120.155 Y89.119 E0.02307
G1 X120.796 Y88.757 E0.02307
G1 X121.451 Y88.422 E0.02307
G1 X122.119 Y88.113 E0.02307
G1 X122.798 Y87.830 E0.02307
G1 X123.489 Y87.575 E0.02307
G1 X124.189 Y87.348 E0.02307
G1 X124.942 Y87.136 E0.02455
G1 X125.229 Y86.792 F10800.000
G1 F8640.000
G1 X125.811 Y87.348 E-0.20658
G1 X126.511 Y87.575 E-0.16991
G1 X127.202 Y87.830 E-0.16991
G1 X127.881 Y88.113 E-0.16991
G1 X128.053 Y88.192 E-0.04370
G1 E-0.04000 F2100.00000
G1 Z0.800 F10800.000
G1 X104.787 Y80.787
G1 Z0.200
G1 E0.80000 F2100.00000
G1 F1200.000
G1 X145.213 Y80.787 E1.26752
G1 X145.213 Y129.213 E1.51836
G1 X104.787 Y129.213 E1.26752
G1 X104.787 Y80.847 E1.51648
G1 X104.410 Y80.410 F10800.000
G1 F1200.000
G1 X145.590 Y80.410 E1.29117
G1 X145.590 Y129.590 E1.54200
G1 X104.410 Y129.590 E1.29117
G1 X104.410 Y80.470 E1.54012
G1 X104.793 Y80.525 F10800.000
G1 F8640.000
G1 X107.701 Y80.465 E-0.76000
G1 E-0.04000 F2100.00000
G1 Z0.800 F10800.000
G1 X122.885 Y80.900
G1 Z0.200
G1 E0.80000 F2100.00000
G1 F1200.000
G1 X131.157 Y89.172 E0.36882
G1 X130.180 Y88.550 E0.03651
G1 X129.764 Y88.316 E0.01506
G1 X122.518 Y81.070 E0.32307
G1 X121.982 Y81.070 E0.01691
G1 X128.657 Y87.744 E0.29759
G1 X127.698 Y87.322 E0.03304
G1 X121.446 Y81.070 E0.27875
G1 X120.910 Y81.070 E0.01691
G1 X126.829 Y86.989 E0.26391
G1 X126.028 Y86.725 E0.02659
G1 X120.373 Y81.070 E0.25212
G1 X119.837 Y81.070 E0.01691
G1 X125.281 Y86.513 E0.24270
G1 X125.000 Y86.434 E0.00919
G1 X124.739 Y86.508 E0.00855
G1 X119.301 Y81.070 E0.24246
G1 X118.765 Y81.070 E0.01691
G1 X124.320 Y86.625 E0.24770
G1 X123.905 Y86.746 E0.01364
G1 X118.229 Y81.070 E0.25309
G1 X117.692 Y81.070 E0.01691
G1 X123.500 Y86.878 E0.25895
G1 X123.101 Y87.015 E0.01330
G1 X117.156 Y81.070 E0.26507
G1 X116.620 Y81.070 E0.01691
G1 X122.710 Y87.160 E0.27152
G1 X122.326 Y87.312 E0.01302
G1 X116.084 Y81.070 E0.27831
G1 X115.548 Y81.070 E0.01691
G1 X121.947 Y87.469 E0.28533
G1 X121.578 Y87.636 E0.01278
G1 X115.011 Y81.070 E0.29276
G1 X114.475 Y81.070 E0.01691
G1 X121.211 Y87.806 E0.30033
M73 Q1 S89
M73 P1 R88
G1 X120.855 Y87.986 E0.01258
G1 X113.939 Y81.070 E0.30836
G1 X113.403 Y81.070 E0.01691
G1 X120.500 Y88.168 E0.31646
G1 X120.157 Y88.360 E0.01242
G1 X112.866 Y81.070 E0.32505
G1 X112.330 Y81.070 E0.01691
G1 X119.814 Y88.554 E0.33368
G1 X119.483 Y88.759 E0.01228
G1 X111.794 Y81.070 E0.34281
G1 X111.258 Y81.070 E0.01691
G1 X119.152 Y88.964 E0.35197
G1 X118.832 Y89.180 E0.01218
G1 X110.722 Y81.070 E0.36160
G1 X110.185 Y81.070 E0.01691
G1 X118.512 Y89.397 E0.37127
G1 X118.203 Y89.624 E0.01209
G1 X109.649 Y81.070 E0.38139
G1 X109.113 Y81.070 E0.01691
G1 X117.895 Y89.852 E0.39156
G1 X117.597 Y90.090 E0.01203
G1 X108.577 Y81.070 E0.40216
G1 X108.041 Y81.070 E0.01691
G1 X117.299 Y90.329 E0.41282
G1 X117.012 Y90.577 E0.01199
G1 X107.504 Y81.070 E0.42390
G1 X106.968 Y81.070 E0.01691
G1 X116.725 Y90.827 E0.43504
G1 X116.449 Y91.086 E0.01196
G1 X106.432 Y81.070 E0.44660
G1 X105.896 Y81.070 E0.01691
G1 X116.173 Y91.347 E0.45821
G1 X115.907 Y91.617 E0.01195
G1 X105.360 Y81.070 E0.47025
G1 X105.070 Y81.070 E0.00913
G1 X105.070 Y81.316 E0.00777
G1 X115.641 Y91.888 E0.47134
G1 X115.386 Y92.169 E0.01197
G1 X105.070 Y81.853 E0.45995
G1 X105.070 Y82.389 E0.01691
G1 X115.131 Y92.450 E0.44859
G1 X114.887 Y92.742 E0.01200
G1 X105.070 Y82.925 E0.43768
G1 X105.070 Y83.461 E0.01691
G1 X114.643 Y93.034 E0.42681
G1 X114.409 Y93.336 E0.01205
G1 X105.070 Y83.997 E0.41638
G1 X105.070 Y84.534 E0.01691
G1 X114.176 Y93.639 E0.40599
G1 X113.953 Y93.953 E0.01212
G1 X105.070 Y85.070 E0.39605
G1 X105.070 Y85.606 E0.01691
G1 X113.731 Y94.267 E0.38616
G1 X113.519 Y94.591 E0.01221
G1 X105.070 Y86.142 E0.37671
G1 X105.070 Y86.678 E0.01691
G1 X113.309 Y94.917 E0.36733
G1 X113.108 Y95.253 E0.01233
G1 X105.070 Y87.215 E0.35839
G1 X105.070 Y87.751 E0.01691
G1 X112.909 Y95.590 E0.34953
G1 X112.720 Y95.938 E0.01246
G1 X105.070 Y88.287 E0.34110
G1 X105.070 Y88.823 E0.01691
G1 X112.534 Y96.288 E0.33280
G1 X112.357 Y96.647 E0.01262
G1 X105.070 Y89.360 E0.32490
G1 X105.070 Y89.896 E0.01691
G1 X112.184 Y97.010 E0.31718
G1 X112.019 Y97.381 E0.01280
G1 X105.070 Y90.432 E0.30981
G1 X105.070 Y90.968 E0.01691
G1 X111.859 Y97.757 E0.30271
G1 X111.706 Y98.141 E0.01301
G1 X105.070 Y91.504 E0.29590
G1 X105.070 Y92.041 E0.01691
G1 X111.562 Y98.532 E0.28944
G1 X111.422 Y98.929 E0.01325
G1 X105.070 Y92.577 E0.28321
G1 X105.070 Y93.113 E0.01691
G1 X111.293 Y99.336 E0.27746
G1 X111.167 Y99.746 E0.01353
G1 X105.070 Y93.649 E0.27184
G1 X105.070 Y94.185 E0.01691
G1 X111.054 Y100.170 E0.26683
G1 X110.946 Y100.598 E0.01392
G1 X105.070 Y94.722 E0.26200
G1 X105.070 Y95.258 E0.01691
G1 X110.848 Y101.036 E0.25764
G1 X110.760 Y101.484 E0.01439
G1 X105.070 Y95.794 E0.25369
G1 X105.070 Y96.330 E0.01691
G1 X110.677 Y101.938 E0.25002
G1 X110.610 Y102.407 E0.01494
G1 X105.070 Y96.866 E0.24703
G1 X105.070 Y97.403 E0.01691
G1 X110.550 Y102.883 E0.24434
G1 X110.501 Y103.370 E0.01544
G1 X105.070 Y97.939 E0.24217
G1 X105.070 Y98.475 E0.01691
G1 X110.467 Y103.872 E0.24064
G1 X110.442 Y104.384 E0.01614
G1 X105.070 Y99.011 E0.23953
G1 X105.070 Y99.548 E0.01691
G1 X110.432 Y104.909 E0.23906
G1 X110.439 Y105.453 E0.01713
G1 X105.070 Y100.084 E0.23939
G1 X105.070 Y100.620 E0.01691
G1 X110.460 Y106.010 E0.24032
G1 X110.497 Y106.583 E0.01810
G1 X105.070 Y101.156 E0.24196
G1 X105.070 Y101.692 E0.01691
G1 X110.556 Y107.179 E0.24462
G1 X110.639 Y107.798 E0.01969
G1 X105.070 Y102.229 E0.24831
G1 X105.070 Y102.765 E0.01691
G1 X110.746 Y108.441 E0.25309
G1 X110.882 Y109.113 E0.02160
G1 X105.070 Y103.301 E0.25913
G1 X105.070 Y103.837 E0.01691
G1 X111.051 Y109.819 E0.26669
G1 X111.269 Y110.572 E0.02472
G1 X105.070 Y104.373 E0.27638
G1 X105.070 Y104.910 E0.01691
