; generated by PrusaSlicer 2.2.0+win64 on 2021-01-05 at 23:32:04 UTC

; 

; external perimeters extrusion width = 0.45mm
; perimeters extrusion width = 0.45mm
; infill extrusion width = 0.45mm
; solid infill extrusion width = 0.45mm
; top infill extrusion width = 0.40mm
; first layer extrusion width = 0.42mm

M73 P0 R10
M73 Q0 S10
M201 X1000 Y1000 Z200 E5000 ; sets maximum accelerations, mm/sec^2
M203 X200 Y200 Z12 E120 ; sets maximum feedrates, mm/sec
M204 P1250 R1250 T1250 ; sets acceleration (P, T) and retract acceleration (R), mm/sec^2
M205 X8.00 Y8.00 Z0.40 E4.50 ; sets the jerk limits, mm/sec
M205 S0 T0 ; sets the minimum extruding and travel feed rate, mm/sec
M107
M862.3 P "MK3SMMU2S" ; printer model check
M862.1 P0.4 ; nozzle diameter check
M115 U3.9.1 ; tell printer latest fw version
G90 ; use absolute coordinates
M83 ; extruder relative mode
M104 S215 ; set extruder temp
M140 S60 ; set bed temp
Tx
M190 S60 ; wait for bed temp
M109 S215 ; wait for extruder temp
G28 W ; home all without mesh bed level
G80 ; mesh bed leveling

;go outside print area
G1 Y-3.0 F1000.0
G1 Z0.4 F1000.0
; select extruder
Tc
; purge line
G1 X55.0 F2000.0
G1 Z0.3 F1000.0
G92 E0.0
G1 X240.0 E25.0 F2200.0
M73 Q1 S10
M73 P1 R10
G1 Y-2.0 F1000.0
G1 X55.0 E25 F1400.0
G1 Z0.20 F1000.0
G1 X5.0 E4.0 F1000.0

M221 S95
G92 E0.0

; Don't change E values below. Excessive value can damage the printer.

G21 ; set units to millimeters
G90 ; use absolute coordinates
M83 ; use relative distances for extrusion
M900 K0.05 ; Filament gcode LA 1.5
M900 K30 ; Filament gcode LA 1.0
;BEFORE_LAYER_CHANGE
G92 E0.0
;0.2


G1 E-0.80000 F2100.00000
G1 Z0.600 F10800.000
;AFTER_LAYER_CHANGE
;0.2
G1 X108.101 Y96.006
G1 Z0.200
G1 E0.80000 F2100.00000
M204 S1000
G1 F1200.000
G1 X108.657 Y95.595 E0.02167
G1 X109.290 Y95.339 E0.02141
G1 X109.971 Y95.246 E0.02154
G1 X140.004 Y95.246 E0.94168
G1 X141.013 Y95.439 E0.03221
G1 X141.878 Y95.985 E0.03208
G1 X142.485 Y96.814 E0.03221
G1 X142.747 Y97.807 E0.03221
G1 X142.744 Y112.233 E0.45234
G1 X142.606 Y112.890 E0.02103
G1 X142.314 Y113.493 E0.02103
G1 X141.884 Y114.009 E0.02103
G1 X141.343 Y114.405 E0.02103
G1 X140.710 Y114.661 E0.02141
G1 X140.029 Y114.754 E0.02154
G1 X109.914 Y114.753 E0.94425
G1 X109.216 Y114.640 E0.02218
G1 X108.569 Y114.353 E0.02218
G1 X108.017 Y113.911 E0.02218
G1 X107.595 Y113.343 E0.02218
G1 X107.342 Y112.722 E0.02103
G1 X107.247 Y112.062 E0.02090
G1 X107.251 Y97.836 E0.44605
G1 X107.377 Y97.161 E0.02154
G1 X107.666 Y96.538 E0.02154
G1 X108.063 Y96.052 E0.01966
G1 X108.353 Y96.291 F10800.000
G1 F1200.000
G1 X108.860 Y95.914 E0.01980
G1 X109.400 Y95.700 E0.01823
G1 X109.976 Y95.623 E0.01823
G1 X140.004 Y95.623 E0.94150
G1 X140.878 Y95.791 E0.02790
G1 X141.631 Y96.271 E0.02802
G1 X142.153 Y96.992 E0.02790
G1 X142.373 Y97.854 E0.02790
G1 X142.370 Y112.179 E0.44914
G1 X142.254 Y112.756 E0.01846
G1 X141.997 Y113.290 E0.01858
G1 X141.618 Y113.741 E0.01846
G1 X141.140 Y114.086 E0.01846
G1 X140.600 Y114.300 E0.01823
G1 X140.024 Y114.377 E0.01823
G1 X109.931 Y114.376 E0.94353
G1 X109.324 Y114.279 E0.01929
G1 X108.758 Y114.027 E0.01941
G1 X108.280 Y113.640 E0.01929
G1 X107.914 Y113.140 E0.01941
G1 X107.702 Y112.608 E0.01799
G1 X107.623 Y112.043 E0.01787
G1 X107.626 Y97.871 E0.44437
G1 X107.735 Y97.280 E0.01882
G1 X107.989 Y96.732 E0.01894
G1 X108.315 Y96.338 E0.01604
G1 F8640.000
G1 X108.860 Y95.914 E-0.15931
G1 X109.400 Y95.700 E-0.13423
G1 X109.976 Y95.623 E-0.13423
G1 X111.415 Y95.623 E-0.33224
G1 E-0.04000 F2100.00000
G1 Z0.800 F10800.000
G1 X123.183 Y103.779
G1 Z0.200
G1 E0.80000 F2100.00000
G1 F1200.000
G1 X123.434 Y103.469 E0.01249
G1 X123.738 Y103.211 E0.01249
G1 X124.073 Y103.018 E0.01215
G1 X124.283 Y102.933 E0.00708
G1 X124.650 Y102.839 E0.01188
G1 X125.047 Y102.811 E0.01248
G1 X125.445 Y102.856 E0.01258
G1 X125.826 Y102.972 E0.01249
G1 X126.180 Y103.156 E0.01249
G1 X126.496 Y103.402 E0.01256
G1 X126.749 Y103.685 E0.01189
G1 X126.875 Y103.872 E0.00707
G1 X127.045 Y104.217 E0.01207
G1 X127.153 Y104.603 E0.01257
G1 X127.190 Y105.000 E0.01249
G1 X127.153 Y105.397 E0.01249
G1 X127.046 Y105.780 E0.01249
G1 X126.871 Y106.138 E0.01249
G1 X126.632 Y106.460 E0.01258
G1 X126.350 Y106.722 E0.01207
G1 X126.166 Y106.852 E0.00707
G1 X125.829 Y107.026 E0.01189
G1 X125.446 Y107.144 E0.01256
G1 X125.050 Y107.189 E0.01249
G1 X124.652 Y107.162 E0.01249
G1 X124.264 Y107.062 E0.01258
G1 X123.915 Y106.900 E0.01207
G1 X123.725 Y106.778 E0.00707
G1 X123.436 Y106.532 E0.01189
G1 X123.183 Y106.222 E0.01256
G1 X122.992 Y105.872 E0.01249
G1 X122.867 Y105.494 E0.01249
G1 X122.813 Y105.097 E0.01258
G1 X122.831 Y104.699 E0.01248
G1 X122.917 Y104.330 E0.01188
G1 X122.997 Y104.119 E0.00708
G1 X123.154 Y103.831 E0.01027
G1 X123.340 Y104.277 F10800.000
G1 F1200.000
G1 X123.497 Y103.990 E0.01026
G1 X123.705 Y103.734 E0.01033
G1 X123.956 Y103.521 E0.01033
G1 X124.239 Y103.357 E0.01026
G1 X124.401 Y103.292 E0.00546
G1 X124.710 Y103.213 E0.01001
G1 X125.039 Y103.190 E0.01032
G1 X125.368 Y103.227 E0.01041
G1 X125.683 Y103.323 E0.01033
G1 X125.976 Y103.475 E0.01033
G1 X126.238 Y103.678 E0.01040
G1 X126.450 Y103.917 E0.01002
G1 X126.548 Y104.061 E0.00546
G1 X126.691 Y104.352 E0.01018
G1 X126.781 Y104.672 E0.01041
G1 X126.811 Y105.000 E0.01033
G1 X126.781 Y105.328 E0.01033
G1 X126.692 Y105.645 E0.01033
G1 X126.547 Y105.941 E0.01033
G1 X126.349 Y106.208 E0.01041
G1 X126.112 Y106.429 E0.01018
G1 X125.969 Y106.529 E0.00546
G1 X125.686 Y106.676 E0.01002
G1 X125.369 Y106.773 E0.01040
G1 X125.041 Y106.810 E0.01033
G1 X124.713 Y106.788 E0.01033
G1 X124.391 Y106.705 E0.01041
G1 X124.097 Y106.569 E0.01018
G1 X123.950 Y106.475 E0.00546
G1 X123.707 Y106.268 E0.01002
G1 X123.497 Y106.010 E0.01040
G1 X123.339 Y105.721 E0.01033
G1 X123.236 Y105.409 E0.01033
G1 X123.191 Y105.080 E0.01041
G1 X123.206 Y104.751 E0.01032
G1 X123.319 Y104.333 E0.01357
G1 X123.142 Y104.017 F10800.000
G1 F8640.000
G1 X123.497 Y103.990 E-0.08927
G1 X123.705 Y103.734 E-0.07607
G1 X123.956 Y103.521 E-0.07607
G1 X124.239 Y103.357 E-0.07553
G1 X124.401 Y103.292 E-0.04024
G1 X124.710 Y103.213 E-0.07375
G1 X125.039 Y103.190 E-0.07602
G1 X125.368 Y103.227 E-0.07664
G1 X125.683 Y103.323 E-0.07607
G1 X125.976 Y103.475 E-0.07607
G1 X126.059 Y103.539 E-0.02428
G1 E-0.04000 F2100.00000
G1 Z0.800 F10800.000
G1 X110.587 Y98.587
G1 Z0.200
G1 E0.80000 F2100.00000
G1 F1200.000
G1 X139.413 Y98.587 E0.90381
G1 X139.413 Y111.413 E0.40215
G1 X110.587 Y111.413 E0.90381
G1 X110.587 Y98.647 E0.40026
G1 X110.210 Y98.210 F10800.000
G1 F1200.000
G1 X139.790 Y98.210 E0.92746
G1 X139.790 Y111.790 E0.42579
G1 X110.210 Y111.790 E0.92746
G1 X110.210 Y98.270 E0.42391
G1 X110.606 Y98.267 F10800.000
G1 F8640.000
G1 X113.501 Y98.263 E-0.76000
G1 E-0.04000 F2100.00000
G1 Z0.800 F10800.000
G1 X110.700 Y110.533
G1 Z0.200
G1 E0.80000 F2100.00000
G1 F1200.000
G1 X111.297 Y111.130 E0.02659
G1 X111.833 Y111.130 E0.01689
G1 X110.870 Y110.167 E0.04292
G1 X110.870 Y109.631 E0.01689
G1 X112.369 Y111.130 E0.06681
G1 X112.905 Y111.130 E0.01689
G1 X110.870 Y109.095 E0.09071
G1 X110.870 Y108.559 E0.01689
G1 X113.441 Y111.130 E0.11460
G1 X113.977 Y111.130 E0.01689
G1 X110.870 Y108.023 E0.13849
G1 X110.870 Y107.487 E0.01689
G1 X114.513 Y111.130 E0.16238
G1 X115.049 Y111.130 E0.01689
G1 X110.870 Y106.951 E0.18627
G1 X110.870 Y106.415 E0.01689
G1 X115.585 Y111.130 E0.21016
G1 X116.121 Y111.130 E0.01689
G1 X110.870 Y105.879 E0.23406
G1 X110.870 Y105.343 E0.01689
G1 X116.657 Y111.130 E0.25795
G1 X117.193 Y111.130 E0.01689
G1 X110.870 Y104.807 E0.28184
G1 X110.870 Y104.271 E0.01689
G1 X117.729 Y111.130 E0.30573
G1 X118.265 Y111.130 E0.01689
G1 X110.870 Y103.735 E0.32962
G1 X110.870 Y103.199 E0.01689
G1 X118.801 Y111.130 E0.35351
G1 X119.337 Y111.130 E0.01689
G1 X110.870 Y102.663 E0.37741
G1 X110.870 Y102.127 E0.01689
G1 X119.873 Y111.130 E0.40130
G1 X120.409 Y111.130 E0.01689
G1 X110.870 Y101.591 E0.42519
G1 X110.870 Y101.055 E0.01689
G1 X120.945 Y111.130 E0.44908
G1 X121.481 Y111.130 E0.01689
G1 X110.870 Y100.519 E0.47297
G1 X110.870 Y99.982 E0.01689
G1 X122.018 Y111.130 E0.49687
G1 X122.554 Y111.130 E0.01689
G1 X110.870 Y99.446 E0.52076
G1 X110.870 Y98.910 E0.01689
G1 X123.090 Y111.130 E0.54465
G1 X123.626 Y111.130 E0.01689
G1 X111.365 Y98.870 E0.54646
G1 X111.901 Y98.870 E0.01689
G1 X124.162 Y111.130 E0.54646
G1 X124.698 Y111.130 E0.01689
G1 X112.437 Y98.870 E0.54646
G1 X112.973 Y98.870 E0.01689
G1 X125.234 Y111.130 E0.54646
G1 X125.770 Y111.130 E0.01689
G1 X113.509 Y98.870 E0.54646
G1 X114.046 Y98.870 E0.01689
G1 X126.306 Y111.130 E0.54646
G1 X126.842 Y111.130 E0.01689
G1 X114.582 Y98.870 E0.54646
G1 X115.118 Y98.870 E0.01689
G1 X127.548 Y111.300 E0.55402
G1 F8640.000
G1 X125.220 Y108.972 E-0.76000
G1 E-0.04000 F2100.00000
G1 Z0.800 F10800.000
G1 X134.516 Y111.300
G1 Z0.200
G1 E0.80000 F2100.00000
G1 F1200.000
G1 X127.289 Y104.073 E0.32212
G1 X127.433 Y104.552 E0.01576
G1 X127.453 Y104.773 E0.00699
G1 X133.810 Y111.130 E0.28336
G1 X133.274 Y111.130 E0.01689
G1 X127.446 Y105.302 E0.25977
G1 X127.433 Y105.448 E0.00463
G1 X127.350 Y105.742 E0.00963
G1 X132.738 Y111.130 E0.24015
G1 X132.202 Y111.130 E0.01689
G1 X127.194 Y106.122 E0.22324
G1 X127.113 Y106.286 E0.00576
G1 X126.989 Y106.453 E0.00657
G1 X131.666 Y111.130 E0.20847
G1 X131.130 Y111.130 E0.01689
G1 X126.743 Y106.743 E0.19555
G1 X126.457 Y106.993 E0.01197
G1 X130.594 Y111.130 E0.18440
G1 X130.058 Y111.130 E0.01689
G1 X126.121 Y107.193 E0.17546
G1 X125.936 Y107.289 E0.00657
G1 X125.741 Y107.349 E0.00643
G1 X129.522 Y111.130 E0.16852
G1 X128.986 Y111.130 E0.01689
G1 X125.301 Y107.445 E0.16425
G1 X125.056 Y107.473 E0.00775
G1 X124.773 Y107.453 E0.00894
G1 X128.450 Y111.130 E0.16387
G1 X127.914 Y111.130 E0.01689
G1 X124.066 Y107.282 E0.17152
G1 X123.778 Y107.149 E0.00999
G1 X123.556 Y107.006 E0.00832
G1 X123.233 Y106.731 E0.01336
G1 X122.947 Y106.380 E0.01425
G1 X122.713 Y105.929 E0.01604
G1 X115.654 Y98.870 E0.31463
G1 X116.190 Y98.870 E0.01689
G1 X122.545 Y105.225 E0.28326
G1 X122.529 Y105.109 E0.00369
G1 X122.549 Y104.693 E0.01314
G1 X116.726 Y98.870 E0.25953
G1 X117.262 Y98.870 E0.01689
G1 X122.644 Y104.253 E0.23992
M73 Q10 S9
G1 X122.739 Y104.000 E0.00850
G1 X122.806 Y103.878 E0.00438
G1 X117.798 Y98.870 E0.22323
M73 P10 R9
G1 X118.334 Y98.870 E0.01689
G1 X123.009 Y103.545 E0.20836
G1 X123.253 Y103.253 E0.01199
G1 X118.870 Y98.870 E0.19535
G1 X119.406 Y98.870 E0.01689
G1 X123.542 Y103.006 E0.18436
G1 X123.877 Y102.805 E0.01231
G1 X119.942 Y98.870 E0.17537
G1 X120.478 Y98.870 E0.01689
G1 X124.256 Y102.648 E0.16838
G1 X124.604 Y102.558 E0.01135
G1 X124.696 Y102.552 E0.00290
G1 X121.014 Y98.870 E0.16412
G1 X121.550 Y98.870 E0.01689
G1 X125.227 Y102.547 E0.16389
G1 X125.503 Y102.578 E0.00875
G1 X125.922 Y102.706 E0.01381
G1 X122.086 Y98.870 E0.17098
G1 X122.622 Y98.870 E0.01689
G1 X134.882 Y111.130 E0.54646
G1 X135.418 Y111.130 E0.01689
G1 X123.158 Y98.870 E0.54646
G1 X123.694 Y98.870 E0.01689
G1 X135.954 Y111.130 E0.54646
G1 X136.490 Y111.130 E0.01689
G1 X124.230 Y98.870 E0.54646
G1 X124.766 Y98.870 E0.01689
G1 X137.026 Y111.130 E0.54646
G1 X137.562 Y111.130 E0.01689
G1 X125.302 Y98.870 E0.54646
G1 X125.838 Y98.870 E0.01689
G1 X138.099 Y111.130 E0.54646
G1 X138.635 Y111.130 E0.01689
G1 X126.374 Y98.870 E0.54646
G1 X126.910 Y98.870 E0.01689
G1 X139.130 Y111.090 E0.54465
G1 X139.130 Y110.554 E0.01689
G1 X127.446 Y98.870 E0.52076
G1 X127.982 Y98.870 E0.01689
G1 X139.130 Y110.018 E0.49687
G1 X139.130 Y109.482 E0.01689
G1 X128.518 Y98.870 E0.47298
G1 X129.054 Y98.870 E0.01689
G1 X139.130 Y108.946 E0.44909
G1 X139.130 Y108.409 E0.01689
G1 X129.591 Y98.870 E0.42519
G1 X130.127 Y98.870 E0.01689
G1 X139.130 Y107.873 E0.40130
G1 X139.130 Y107.337 E0.01689
G1 X130.663 Y98.870 E0.37741
G1 X131.199 Y98.870 E0.01689
G1 X139.130 Y106.801 E0.35352
G1 X139.130 Y106.265 E0.01689
G1 X131.735 Y98.870 E0.32963
G1 X132.271 Y98.870 E0.01689
G1 X139.130 Y105.729 E0.30574
G1 X139.130 Y105.193 E0.01689
G1 X132.807 Y98.870 E0.28184
G1 X133.343 Y98.870 E0.01689
G1 X139.130 Y104.657 E0.25795
G1 X139.130 Y104.121 E0.01689
G1 X133.879 Y98.870 E0.23406
G1 X134.415 Y98.870 E0.01689
G1 X139.130 Y103.585 E0.21017
G1 X139.130 Y103.049 E0.01689
G1 X134.951 Y98.870 E0.18628
G1 X135.487 Y98.870 E0.01689
G1 X139.130 Y102.513 E0.16238
G1 X139.130 Y101.977 E0.01689
G1 X136.023 Y98.870 E0.13849
G1 X136.559 Y98.870 E0.01689
G1 X139.130 Y101.441 E0.11460
G1 X139.130 Y100.905 E0.01689
G1 X137.095 Y98.870 E0.09071
G1 X137.631 Y98.870 E0.01689
G1 X139.130 Y100.369 E0.06682
G1 X139.130 Y99.833 E0.01689
G1 X138.167 Y98.870 E0.04293
G1 X138.703 Y98.870 E0.01689
G1 X139.300 Y99.467 E0.02660
M106 S255
;BEFORE_LAYER_CHANGE
G92 E0.0
;0.4


G1 F8640.000
G1 X138.703 Y98.870 E-0.19486
G1 X138.167 Y98.870 E-0.12377
G1 X139.130 Y99.833 E-0.31449
G1 X139.130 Y100.369 E-0.12377
G1 X139.121 Y100.359 E-0.00311
G1 E-0.04000 F2100.00000
G1 Z0.800 F10800.000
;AFTER_LAYER_CHANGE
;0.4
M104 S210 ; set temperature
G1 X142.485 Y96.814
G1 Z0.400
G1 E0.80000 F2100.00000
G1 F3000.000
G1 X142.747 Y97.807 E0.03221
G1 X142.744 Y112.233 E0.45234
G1 X142.606 Y112.890 E0.02103
G1 X142.314 Y113.493 E0.02103
G1 X141.884 Y114.009 E0.02103
G1 X141.343 Y114.405 E0.02103
G1 X140.710 Y114.661 E0.02141
G1 X140.029 Y114.754 E0.02154
G1 X109.914 Y114.753 E0.94425
G1 X109.216 Y114.640 E0.02218
G1 X108.569 Y114.353 E0.02218
G1 X108.017 Y113.911 E0.02218
G1 X107.595 Y113.343 E0.02218
G1 X107.342 Y112.722 E0.02103
G1 X107.247 Y112.062 E0.02090
G1 X107.251 Y97.836 E0.44605
G1 X107.377 Y97.161 E0.02154
G1 X107.666 Y96.538 E0.02154
G1 X108.101 Y96.006 E0.02154
G1 X108.657 Y95.595 E0.02167
G1 X109.290 Y95.339 E0.02141
G1 X109.971 Y95.246 E0.02154
G1 X140.004 Y95.246 E0.94168
G1 X141.013 Y95.439 E0.03221
G1 X141.878 Y95.985 E0.03208
G1 X142.450 Y96.765 E0.03032
G1 X142.147 Y96.984 F10800.000
G1 F3000.000
G1 X142.373 Y97.854 E0.02818
G1 X142.370 Y112.179 E0.44914
G1 X142.254 Y112.756 E0.01846
G1 X141.997 Y113.290 E0.01858
G1 X141.618 Y113.741 E0.01846
G1 X141.140 Y114.086 E0.01846
G1 X140.600 Y114.300 E0.01823
G1 X140.024 Y114.377 E0.01823
G1 X109.931 Y114.376 E0.94353
G1 X109.324 Y114.279 E0.01929
G1 X108.758 Y114.027 E0.01941
G1 X108.280 Y113.640 E0.01929
G1 X107.914 Y113.140 E0.01941
G1 X107.702 Y112.608 E0.01799
G1 X107.623 Y112.043 E0.01787
G1 X107.626 Y97.871 E0.44437
G1 X107.735 Y97.280 E0.01882
G1 X107.989 Y96.732 E0.01894
G1 X108.373 Y96.267 E0.01894
G1 X108.860 Y95.914 E0.01882
G1 X109.400 Y95.700 E0.01823
G1 X109.976 Y95.623 E0.01823
G1 X140.004 Y95.623 E0.94150
G1 X140.878 Y95.791 E0.02790
G1 X141.631 Y96.271 E0.02802
G1 X142.112 Y96.936 E0.02572
G1 F8640.000
G1 X142.373 Y97.854 E-0.22050
G1 X142.372 Y100.191 E-0.53950
G1 E-0.04000 F2100.00000
G1 Z1.000 F10800.000
G1 X127.085 Y104.195
G1 Z0.400
G1 E0.80000 F2100.00000
M204 S800
G1 F1500.000
G1 X127.198 Y104.594 E0.01405
G1 X127.235 Y105.000 E0.01379
G1 X127.198 Y105.406 E0.01379
G1 X127.085 Y105.805 E0.01405
G1 X126.910 Y106.157 E0.01328
G1 X126.781 Y106.348 E0.00781
G1 X126.531 Y106.627 E0.01270
G1 X126.205 Y106.882 E0.01400
G1 X125.843 Y107.069 E0.01379
G1 X125.455 Y107.188 E0.01376
G1 X125.051 Y107.234 E0.01376
G1 X124.645 Y107.206 E0.01379
G1 X124.243 Y107.102 E0.01405
G1 X123.887 Y106.936 E0.01329
G1 X123.693 Y106.811 E0.00781
G1 X123.408 Y106.568 E0.01270
G1 X123.146 Y106.248 E0.01400
G1 X122.950 Y105.890 E0.01379
G1 X122.823 Y105.504 E0.01379
G1 X122.769 Y105.106 E0.01356
G1 X122.770 Y104.875 E0.00783
G1 X122.821 Y104.504 E0.01268
G1 X122.947 Y104.119 E0.01373
G1 X123.145 Y103.754 E0.01405
G1 X123.402 Y103.438 E0.01379
G1 X123.712 Y103.174 E0.01379
G1 X124.072 Y102.967 E0.01405
G1 X124.455 Y102.833 E0.01373
G1 X124.825 Y102.774 E0.01268
G1 X125.056 Y102.767 E0.00783
G1 X125.454 Y102.812 E0.01356
G1 X125.843 Y102.931 E0.01379
G1 X126.205 Y103.118 E0.01379
G1 X126.531 Y103.373 E0.01400
G1 X126.781 Y103.652 E0.01270
G1 X126.910 Y103.843 E0.00781
G1 X127.058 Y104.141 E0.01125
M204 S1000
G1 X126.558 Y104.049 F10800.000
M204 S800
G1 F1500.000
G1 X126.703 Y104.342 E0.01107
G1 X126.796 Y104.669 E0.01150
G1 X126.826 Y105.000 E0.01125
G1 X126.796 Y105.331 E0.01125
G1 X126.703 Y105.658 E0.01150
