; generated by PrusaSlicer 2.2.0+win64 on 2021-02-28 at 20:34:14 UTC

; 

; external perimeters extrusion width = 0.45mm
; perimeters extrusion width = 0.45mm
; infill extrusion width = 0.45mm
; solid infill extrusion width = 0.45mm
; top infill extrusion width = 0.40mm
; first layer extrusion width = 0.42mm

M73 P0 R33
M73 Q0 S33
M201 X1000 Y1000 Z200 E5000 ; sets maximum accelerations, mm/sec^2
M203 X200 Y200 Z12 E120 ; sets maximum feedrates, mm/sec
M204 P1250 R1250 T1250 ; sets acceleration (P, T) and retract acceleration (R), mm/sec^2
M205 X8.00 Y8.00 Z0.40 E4.50 ; sets the jerk limits, mm/sec
M205 S0 T0 ; sets the minimum extruding and travel feed rate, mm/sec
M107
M862.3 P "MK3SMMU2S" ; printer model check
M862.1 P0.4 ; nozzle diameter check
M115 U3.9.3 ; tell printer latest fw version
G90 ; use absolute coordinates
M83 ; extruder relative mode
M104 S215 ; set extruder temp
M140 S60 ; set bed temp
Tx
M190 S60 ; wait for bed temp
M109 S215 ; wait for extruder temp
G28 W ; home all without mesh bed level
G80 ; mesh bed leveling

;go outside print area
G1 Y-3.0 F1000.0
G1 Z0.4 F1000.0
; select extruder
Tc
; purge line
G1 X55.0 F2000.0
G1 Z0.3 F1000.0
G92 E0.0
G1 X240.0 E25.0 F2200.0
M73 Q0 S33
M73 P0 R33
G1 Y-2.0 F1000.0
G1 X55.0 E25 F1400.0
G1 Z0.20 F1000.0
G1 X5.0 E4.0 F1000.0

M221 S95
G92 E0.0

; Don't change E values below. Excessive value can damage the printer.

M907 E538 ; set extruder motor current
G21 ; set units to millimeters
G90 ; use absolute coordinates
M83 ; use relative distances for extrusion
M900 K0.05 ; Filament gcode LA 1.5
M900 K30 ; Filament gcode LA 1.0
;BEFORE_LAYER_CHANGE
G92 E0.0
;0.2


G1 E-0.80000 F2100.00000
G1 Z0.400 F10800.000
;AFTER_LAYER_CHANGE
;0.2
G1 X118.953 Y81.349
G1 Z0.200
G1 E0.80000 F2100.00000
M204 S1000
G1 F1200.000
G1 X119.862 Y80.036 E0.05007
G1 X120.967 Y78.740 E0.05341
G1 X122.551 Y77.275 E0.06765
G1 X123.919 Y76.279 E0.05305
G1 X125.769 Y75.238 E0.06658
G1 X127.327 Y74.587 E0.05293
G1 X128.947 Y74.098 E0.05304
G1 X131.037 Y73.726 E0.06658
G1 X132.745 Y73.625 E0.05365
G1 X134.876 Y73.749 E0.06693
G1 X136.542 Y74.044 E0.05305
G1 X138.608 Y74.667 E0.06765
G1 X140.163 Y75.344 E0.05317
G1 X142.023 Y76.429 E0.06753
G1 X143.375 Y77.447 E0.05305
G1 X144.936 Y78.942 E0.06777
G1 X146.033 Y80.274 E0.05412
G1 X147.198 Y82.091 E0.06765
G1 X148.103 Y84.021 E0.06685
G1 X148.655 Y85.683 E0.05492
G1 X149.082 Y87.767 E0.06670
G1 X149.227 Y89.487 E0.05412
G1 X149.152 Y91.644 E0.06765
G1 X148.896 Y93.316 E0.05305
G1 X148.328 Y95.374 E0.06694
G1 X147.448 Y97.439 E0.07039
G1 X131.586 Y127.719 E1.07178
G1 X130.669 Y129.230 E0.05542
G1 X129.271 Y131.001 E0.07074
G1 X127.608 Y132.592 E0.07216
G1 X125.713 Y133.950 E0.07311
G1 X123.672 Y135.013 E0.07214
G1 X122.282 Y135.541 E0.04662
G1 X121.030 Y135.902 E0.04085
G1 X118.728 Y136.293 E0.07323
G1 X116.431 Y136.354 E0.07204
G1 X114.144 Y136.092 E0.07216
G1 X111.921 Y135.514 E0.07204
G1 X110.322 Y134.880 E0.05393
G1 X108.828 Y134.100 E0.05285
G1 X107.793 Y133.436 E0.03855
G1 X106.457 Y132.401 E0.05297
G1 X105.218 Y131.214 E0.05381
G1 X104.125 Y129.926 E0.05297
G1 X103.155 Y128.505 E0.05393
G1 X102.554 Y127.429 E0.03865
G1 X101.867 Y125.889 E0.05287
G1 X101.333 Y124.254 E0.05393
G1 X100.973 Y122.572 E0.05393
G1 X100.794 Y120.896 E0.05286
G1 X100.772 Y119.663 E0.03865
G1 X100.897 Y117.948 E0.05394
G1 X101.193 Y116.288 E0.05286
G1 X101.663 Y114.653 E0.05333
G1 X102.577 Y112.512 E0.07299
G1 X118.383 Y82.341 E1.06796
G1 X118.923 Y81.401 E0.03398
G1 F8640.000
G1 X119.862 Y80.036 E-0.38252
G1 X120.923 Y78.792 E-0.37748
G1 E-0.04000 F2100.00000
G1 Z0.600 F10800.000
G1 X114.154 Y90.007
G1 Z0.200
G1 E0.80000 F2100.00000
G1 F1200.000
G1 X114.148 Y89.633 E0.01171
G1 X114.203 Y88.530 E0.03463
G1 X114.274 Y87.801 E0.02296
G1 X114.448 Y86.645 E0.03665
G1 X114.590 Y85.944 E0.02243
G1 X114.867 Y84.854 E0.03527
G1 X115.082 Y84.151 E0.02304
G1 X115.322 Y83.469 E0.02266
G1 X115.732 Y82.459 E0.03418
G1 X116.064 Y81.747 E0.02465
G1 X116.633 Y80.677 E0.03800
G1 X116.994 Y80.075 E0.02201
G1 X117.593 Y79.177 E0.03385
G1 X118.428 Y78.087 E0.04304
G1 X119.189 Y77.221 E0.03617
G1 X119.730 Y76.666 E0.02429
G1 X120.536 Y75.918 E0.03448
G1 X121.097 Y75.446 E0.02299
G1 X122.063 Y74.716 E0.03795
G1 X123.189 Y73.980 E0.04219
G1 X124.223 Y73.399 E0.03719
G1 X124.874 Y73.077 E0.02278
G1 X125.938 Y72.614 E0.03638
G1 X126.636 Y72.353 E0.02336
G1 X127.742 Y72.001 E0.03639
G1 X128.443 Y71.817 E0.02274
G1 X129.541 Y71.584 E0.03517
G1 X130.296 Y71.465 E0.02399
G1 X131.470 Y71.339 E0.03702
G1 X132.175 Y71.301 E0.02213
G1 X133.355 Y71.294 E0.03701
G1 X134.060 Y71.327 E0.02213
G1 X135.235 Y71.439 E0.03701
G1 X135.933 Y71.543 E0.02210
G1 X137.032 Y71.760 E0.03515
G1 X137.719 Y71.930 E0.02218
G1 X138.846 Y72.272 E0.03694
G1 X139.562 Y72.531 E0.02387
G1 X140.595 Y72.963 E0.03511
G1 X141.757 Y73.539 E0.04066
G1 X142.759 Y74.122 E0.03636
G1 X143.433 Y74.562 E0.02522
G1 X144.306 Y75.199 E0.03390
G1 X144.869 Y75.651 E0.02262
G1 X145.736 Y76.425 E0.03646
G1 X146.323 Y77.007 E0.02592
G1 X147.063 Y77.820 E0.03446
G1 X147.512 Y78.363 E0.02211
G1 X148.193 Y79.278 E0.03575
G1 X148.619 Y79.913 E0.02397
G1 X149.213 Y80.908 E0.03634
G1 X149.537 Y81.516 E0.02161
G1 X149.841 Y82.143 E0.02184
G1 X150.295 Y83.209 E0.03634
G1 X150.558 Y83.928 E0.02400
G1 X150.907 Y85.056 E0.03702
G1 X151.079 Y85.741 E0.02213
G1 X151.313 Y86.898 E0.03701
G1 X151.416 Y87.596 E0.02213
G1 X151.531 Y88.770 E0.03700
G1 X151.563 Y89.471 E0.02200
G1 X151.563 Y90.533 E0.03329
G1 X151.526 Y91.298 E0.02400
G1 X151.407 Y92.474 E0.03708
G1 X151.291 Y93.227 E0.02387
G1 X151.065 Y94.325 E0.03514
G1 X150.699 Y95.649 E0.04307
G1 X150.342 Y96.671 E0.03394
G1 X150.056 Y97.379 E0.02395
G1 X149.583 Y98.394 E0.03511
G1 X149.243 Y99.042 E0.02296
G1 X148.655 Y100.032 E0.03608
G1 X148.249 Y100.645 E0.02306
G1 X147.531 Y101.615 E0.03785
G1 X146.647 Y102.652 E0.04271
G1 X145.834 Y103.485 E0.03649
G1 X145.294 Y103.985 E0.02309
G1 X144.396 Y104.734 E0.03666
G1 X143.823 Y105.165 E0.02248
G1 X143.499 Y105.385 E0.01228
G1 X142.840 Y105.830 F10800.000
G1 F1200.000
G1 X142.225 Y106.201 E0.02251
G1 X141.204 Y106.751 E0.03636
G1 X140.559 Y107.056 E0.02237
G1 X139.553 Y107.476 E0.03418
G1 X138.798 Y107.747 E0.02515
G1 X137.751 Y108.063 E0.03431
G1 X136.439 Y108.369 E0.04222
G1 X135.309 Y108.553 E0.03591
G1 X134.590 Y108.635 E0.02268
G1 X133.390 Y108.707 E0.03768
G1 X132.055 Y108.705 E0.04187
G1 X132.607 Y109.451 E0.02911
G1 X133.341 Y110.618 E0.04321
G1 X133.943 Y111.744 E0.04004
G1 X134.466 Y112.909 E0.04003
G1 X134.934 Y114.181 E0.04251
G1 X135.152 Y114.900 E0.02356
G1 X135.449 Y116.096 E0.03862
G1 X135.587 Y116.816 E0.02298
G1 X135.744 Y117.926 E0.03518
G1 X135.819 Y118.773 E0.02665
G1 X135.833 Y119.204 E0.01352
G1 X135.858 Y119.969 F10800.000
G1 F1200.000
G1 X135.818 Y121.230 E0.03955
G1 X135.745 Y122.051 E0.02584
G1 X135.579 Y123.217 E0.03694
G1 X135.286 Y124.588 E0.04396
G1 X134.961 Y125.720 E0.03692
G1 X134.692 Y126.497 E0.02579
G1 X134.222 Y127.644 E0.03887
G1 X133.664 Y128.786 E0.03983
G1 X132.989 Y129.952 E0.04225
G1 X132.576 Y130.579 E0.02354
G1 X131.859 Y131.556 E0.03800
G1 X131.373 Y132.148 E0.02403
G1 X130.605 Y132.994 E0.03582
G1 X129.633 Y133.930 E0.04231
G1 X129.021 Y134.454 E0.02525
G1 X128.044 Y135.206 E0.03867
G1 X127.439 Y135.620 E0.02298
G1 X126.495 Y136.203 E0.03479
G1 X125.740 Y136.615 E0.02697
G1 X124.652 Y137.134 E0.03779
G1 X123.391 Y137.633 E0.04253
G1 X122.096 Y138.039 E0.04256
G1 X120.855 Y138.335 E0.03998
G1 X119.607 Y138.543 E0.03968
G1 X118.210 Y138.676 E0.04400
G1 X117.084 Y138.705 E0.03530
G1 X116.350 Y138.689 E0.02302
G1 X115.054 Y138.589 E0.04077
G1 X114.258 Y138.481 E0.02518
G1 X113.046 Y138.252 E0.03867
G1 X112.331 Y138.075 E0.02312
G1 X111.150 Y137.720 E0.03866
G1 X110.458 Y137.470 E0.02306
G1 X109.402 Y137.028 E0.03591
G1 X108.098 Y136.374 E0.04572
G1 X107.127 Y135.798 E0.03541
G1 X106.453 Y135.350 E0.02537
G1 X105.875 Y134.931 E0.02239
G1 X104.915 Y134.157 E0.03866
G1 X104.368 Y133.664 E0.02311
G1 X103.530 Y132.830 E0.03705
G1 X102.594 Y131.759 E0.04458
G1 X101.912 Y130.861 E0.03538
G1 X101.462 Y130.202 E0.02502
G1 X100.855 Y129.201 E0.03669
G1 X100.478 Y128.501 E0.02496
G1 X99.979 Y127.440 E0.03675
G1 X99.687 Y126.731 E0.02403
G1 X99.429 Y126.017 E0.02382
G1 X99.086 Y124.897 E0.03674
G1 X98.895 Y124.125 E0.02493
G1 X98.678 Y123.018 E0.03537
G1 X98.497 Y121.550 E0.04637
G1 X98.437 Y120.422 E0.03542
G1 X98.436 Y119.624 E0.02502
G1 X98.496 Y118.456 E0.03669
G1 X98.574 Y117.695 E0.02396
G1 X98.682 Y116.947 E0.02372
G1 X98.908 Y115.799 E0.03669
G1 X99.104 Y115.025 E0.02502
G1 X99.436 Y113.945 E0.03542
G1 X99.964 Y112.578 E0.04595
G1 X100.452 Y111.537 E0.03607
G1 X100.806 Y110.871 E0.02365
G1 X101.421 Y109.848 E0.03741
G1 X101.848 Y109.213 E0.02399
G1 X102.304 Y108.595 E0.02408
G1 X103.052 Y107.681 E0.03704
G1 X103.983 Y106.691 E0.04260
G1 X104.866 Y105.872 E0.03774
G1 X105.450 Y105.384 E0.02387
G1 X106.023 Y104.943 E0.02268
G1 X106.502 Y104.613 E0.01823
G1 X107.161 Y104.168 F10800.000
G1 F1200.000
G1 X107.675 Y103.853 E0.01890
G1 X108.738 Y103.274 E0.03798
G1 X109.432 Y102.943 E0.02408
G1 X110.535 Y102.486 E0.03743
G1 X111.817 Y102.054 E0.04242
G1 X113.013 Y101.741 E0.03878
G1 X113.805 Y101.580 E0.02532
G1 X114.897 Y101.416 E0.03463
G1 X115.743 Y101.332 E0.02665
G1 X116.984 Y101.280 E0.03893
G1 X117.935 Y101.309 E0.02986
G1 X116.949 Y99.856 E0.05508
G1 X116.575 Y99.224 E0.02302
G1 X116.047 Y98.223 E0.03547
G1 X115.739 Y97.558 E0.02299
G1 X115.328 Y96.549 E0.03417
G1 X115.068 Y95.806 E0.02465
G1 X114.734 Y94.662 E0.03737
G1 X114.568 Y93.960 E0.02263
G1 X114.370 Y92.897 E0.03389
G1 X114.265 Y92.119 E0.02461
G1 X114.167 Y90.795 E0.04164
G1 X114.532 Y90.097 F10800.000
G1 F1200.000
G1 X114.546 Y90.946 E0.02663
G1 X114.640 Y92.083 E0.03576
G1 X114.743 Y92.842 E0.02400
G1 X114.938 Y93.886 E0.03331
G1 X115.100 Y94.571 E0.02206
G1 X115.429 Y95.696 E0.03675
G1 X115.679 Y96.411 E0.02375
G1 X116.086 Y97.412 E0.03388
G1 X116.383 Y98.051 E0.02211
G1 X116.907 Y99.044 E0.03518
G1 X117.272 Y99.660 E0.02246
G1 X117.902 Y100.609 E0.03573
G1 X118.742 Y101.713 E0.04347
G1 X116.992 Y101.657 E0.05488
G1 X115.764 Y101.709 E0.03854
G1 X114.948 Y101.789 E0.02570
G1 X113.866 Y101.952 E0.03433
G1 X113.094 Y102.110 E0.02470
G1 X111.931 Y102.413 E0.03769
G1 X110.673 Y102.837 E0.04161
G1 X109.581 Y103.290 E0.03708
G1 X108.905 Y103.612 E0.02346
G1 X107.859 Y104.182 E0.03735
G1 X107.238 Y104.563 E0.02286
G1 X106.793 Y104.870 E0.01695
G1 X106.118 Y105.346 F10800.000
G1 F1200.000
G1 X105.689 Y105.676 E0.01698
G1 X105.111 Y106.159 E0.02360
G1 X104.253 Y106.954 E0.03668
G1 X103.340 Y107.925 E0.04179
G1 X102.599 Y108.830 E0.03668
G1 X102.154 Y109.434 E0.02350
G1 X101.742 Y110.047 E0.02317
G1 X101.132 Y111.061 E0.03710
G1 X100.787 Y111.709 E0.02302
G1 X100.313 Y112.720 E0.03501
G1 X99.794 Y114.063 E0.04512
G1 X99.466 Y115.131 E0.03506
G1 X99.275 Y115.886 E0.02441
G1 X99.053 Y117.015 E0.03607
G1 X98.947 Y117.746 E0.02315
G1 X98.872 Y118.480 E0.02315
G1 X98.813 Y119.629 E0.03607
G1 X98.814 Y120.407 E0.02441
G1 X98.873 Y121.524 E0.03506
G1 X99.049 Y122.952 E0.04512
G1 X99.264 Y124.048 E0.03501
G1 X99.448 Y124.791 E0.02401
G1 X99.788 Y125.902 E0.03643
G1 X100.041 Y126.599 E0.02324
G1 X100.322 Y127.284 E0.02321
G1 X100.817 Y128.335 E0.03644
G1 X101.180 Y129.010 E0.02403
G1 X101.777 Y129.993 E0.03606
G1 X102.215 Y130.637 E0.02441
G1 X102.891 Y131.526 E0.03503
G1 X103.800 Y132.567 E0.04335
G1 X104.630 Y133.393 E0.03670
G1 X105.164 Y133.873 E0.02251
G1 X106.108 Y134.634 E0.03802
G1 X106.671 Y135.043 E0.02182
G1 X107.324 Y135.476 E0.02455
G1 X108.285 Y136.046 E0.03505
G1 X109.553 Y136.683 E0.04449
G1 X110.599 Y137.120 E0.03556
G1 X111.273 Y137.363 E0.02246
G1 X112.435 Y137.713 E0.03803
G1 X113.132 Y137.884 E0.02250
G1 X114.324 Y138.110 E0.03804
G1 X115.089 Y138.213 E0.02421
G1 X116.364 Y138.313 E0.04011
G1 X117.079 Y138.328 E0.02242
G1 X118.193 Y138.299 E0.03495
G1 X119.564 Y138.169 E0.04318
G1 X120.786 Y137.964 E0.03885
G1 X122.002 Y137.674 E0.03917
G1 X123.271 Y137.275 E0.04172
G1 X124.507 Y136.786 E0.04168
G1 X125.573 Y136.277 E0.03702
G1 X126.301 Y135.879 E0.02602
G1 X127.237 Y135.302 E0.03449
G1 X127.826 Y134.898 E0.02239
G1 X128.788 Y134.158 E0.03803
G1 X129.375 Y133.655 E0.02427
G1 X130.330 Y132.736 E0.04154
G1 X131.090 Y131.899 E0.03547
G1 X131.564 Y131.321 E0.02342
G1 X132.264 Y130.368 E0.03708
G1 X132.665 Y129.758 E0.02289
G1 X133.335 Y128.602 E0.04188
G1 X133.876 Y127.496 E0.03862
G1 X134.337 Y126.369 E0.03819
G1 X134.600 Y125.611 E0.02515
G1 X134.919 Y124.503 E0.03615
G1 X135.207 Y123.157 E0.04314
G1 X135.371 Y122.002 E0.03657
G1 X135.442 Y121.202 E0.02520
G1 X135.457 Y120.736 E0.01462
G1 X135.479 Y119.880 F10800.000
G1 F1200.000
G1 X135.442 Y118.791 E0.03418
G1 X135.369 Y117.965 E0.02601
G1 X135.214 Y116.873 E0.03457
G1 X135.080 Y116.172 E0.02239
G1 X134.790 Y115.005 E0.03769
G1 X134.578 Y114.306 E0.02290
G1 X134.115 Y113.045 E0.04213
G1 X133.602 Y111.905 E0.03920
G1 X133.019 Y110.813 E0.03881
G1 X132.292 Y109.658 E0.04277
G1 X131.269 Y108.279 E0.05385
G1 X132.615 Y108.336 E0.04222
G1 X133.372 Y108.330 E0.02374
G1 X134.562 Y108.258 E0.03739
G1 X135.253 Y108.180 E0.02179
G1 X136.360 Y108.000 E0.03517
G1 X137.659 Y107.697 E0.04183
G1 X138.684 Y107.387 E0.03358
G1 X139.412 Y107.126 E0.02426
G1 X140.410 Y106.710 E0.03389
G1 X141.029 Y106.416 E0.02150
G1 X142.042 Y105.871 E0.03607
G1 X142.648 Y105.506 E0.02218
G1 X143.209 Y105.126 E0.02123
G1 X143.885 Y104.647 F10800.000
G1 F1200.000
G1 X144.158 Y104.442 E0.01071
G1 X145.048 Y103.698 E0.03636
G1 X145.568 Y103.218 E0.02219
G1 X146.364 Y102.402 E0.03574
G1 X147.240 Y101.376 E0.04230
G1 X147.943 Y100.425 E0.03708
G1 X148.333 Y99.836 E0.02216
G1 X148.916 Y98.854 E0.03578
G1 X149.243 Y98.231 E0.02207
G1 X149.708 Y97.233 E0.03452
G1 X149.988 Y96.542 E0.02336
G1 X150.341 Y95.530 E0.03360
G1 X150.699 Y94.230 E0.04228
G1 X150.921 Y93.155 E0.03441
G1 X151.033 Y92.431 E0.02297
G1 X151.150 Y91.274 E0.03646
G1 X151.186 Y90.528 E0.02341
G1 X151.186 Y89.476 E0.03301
G1 X151.155 Y88.793 E0.02144
G1 X151.041 Y87.637 E0.03640
G1 X150.940 Y86.958 E0.02154
G1 X150.711 Y85.820 E0.03640
G1 X150.542 Y85.154 E0.02154
G1 X150.199 Y84.044 E0.03641
G1 X149.946 Y83.353 E0.02309
G1 X149.500 Y82.303 E0.03575
G1 X149.203 Y81.690 E0.02136
G1 X148.883 Y81.089 E0.02136
G1 X148.298 Y80.110 E0.03575
G1 X147.888 Y79.499 E0.02307
G1 X147.218 Y78.600 E0.03516
G1 X146.781 Y78.070 E0.02153
G1 X146.048 Y77.264 E0.03417
G1 X145.482 Y76.703 E0.02500
G1 X144.621 Y75.935 E0.03615
G1 X144.081 Y75.501 E0.02174
G1 X143.222 Y74.875 E0.03331
G1 X142.565 Y74.446 E0.02461
G1 X141.584 Y73.874 E0.03561
G1 X140.433 Y73.303 E0.04027
G1 X139.421 Y72.880 E0.03439
G1 X138.732 Y72.631 E0.02297
G1 X137.623 Y72.295 E0.03634
G1 X136.955 Y72.129 E0.02159
G1 X135.864 Y71.914 E0.03486
G1 X135.185 Y71.813 E0.02152
G1 X134.029 Y71.703 E0.03640
G1 X133.343 Y71.671 E0.02154
G1 X132.182 Y71.678 E0.03640
G1 X131.496 Y71.715 E0.02154
G1 X130.341 Y71.839 E0.03641
G1 X129.614 Y71.954 E0.02309
G1 X128.526 Y72.185 E0.03487
G1 X127.843 Y72.364 E0.02215
G1 X126.755 Y72.711 E0.03578
G1 X126.084 Y72.962 E0.02246
G1 X125.029 Y73.421 E0.03608
G1 X124.403 Y73.730 E0.02188
G1 X123.390 Y74.299 E0.03644
G1 X122.274 Y75.028 E0.04179
G1 X121.328 Y75.743 E0.03718
G1 X120.789 Y76.197 E0.02210
G1 X119.997 Y76.932 E0.03389
G1 X119.469 Y77.473 E0.02369
G1 X118.723 Y78.321 E0.03541
G1 X117.904 Y79.391 E0.04226
G1 X117.311 Y80.281 E0.03351
G1 X116.959 Y80.867 E0.02144
G1 X116.403 Y81.910 E0.03707
G1 X116.080 Y82.606 E0.02405
G1 X115.676 Y83.599 E0.03360
G1 X115.442 Y84.265 E0.02216
G1 X115.232 Y84.951 E0.02250
G1 X114.956 Y86.032 E0.03498
G1 X114.819 Y86.715 E0.02183
G1 X114.649 Y87.843 E0.03576
G1 X114.579 Y88.553 E0.02238
G1 X114.544 Y89.262 E0.02226
G1 X114.916 Y89.364 F10800.000
G1 F1200.000
G1 X114.902 Y89.646 E0.00883
G1 X114.922 Y90.922 E0.04000
G1 X115.016 Y92.047 E0.03541
G1 X115.116 Y92.786 E0.02339
G1 X115.308 Y93.812 E0.03273
G1 X115.466 Y94.479 E0.02149
G1 X115.786 Y95.576 E0.03583
G1 X116.030 Y96.273 E0.02315
G1 X116.430 Y97.257 E0.03331
G1 X116.719 Y97.880 E0.02151
