; generated by PrusaSlicer 2.2.0+win64 on 2020-12-31 at 22:02:35 UTC

; 

; external perimeters extrusion width = 0.45mm
; perimeters extrusion width = 0.45mm
; infill extrusion width = 0.45mm
; solid infill extrusion width = 0.45mm
; top infill extrusion width = 0.40mm
; first layer extrusion width = 0.42mm

M73 P0 R31
M73 Q0 S31
M201 X1000 Y1000 Z200 E5000 ; sets maximum accelerations, mm/sec^2
M203 X200 Y200 Z12 E120 ; sets maximum feedrates, mm/sec
M204 P1250 R1250 T1250 ; sets acceleration (P, T) and retract acceleration (R), mm/sec^2
M205 X8.00 Y8.00 Z0.40 E4.50 ; sets the jerk limits, mm/sec
M205 S0 T0 ; sets the minimum extruding and travel feed rate, mm/sec
M107
M862.3 P "MK3SMMU2S" ; printer model check
M862.1 P0.4 ; nozzle diameter check
M115 U3.9.1 ; tell printer latest fw version
G90 ; use absolute coordinates
M83 ; extruder relative mode
M104 S215 ; set extruder temp
M140 S60 ; set bed temp
Tx
M190 S60 ; wait for bed temp
M109 S215 ; wait for extruder temp
G28 W ; home all without mesh bed level
G80 ; mesh bed leveling

;go outside print area
G1 Y-3.0 F1000.0
G1 Z0.4 F1000.0
; select extruder
Tc
; purge line
G1 X55.0 F2000.0
G1 Z0.3 F1000.0
G92 E0.0
G1 X240.0 E25.0 F2200.0
M73 Q0 S31
M73 P0 R31
G1 Y-2.0 F1000.0
G1 X55.0 E25 F1400.0
G1 Z0.20 F1000.0
G1 X5.0 E4.0 F1000.0

M221 S95
G92 E0.0

; Don't change E values below. Excessive value can damage the printer.
M907 E430 ; set extruder motor current
G21 ; set units to millimeters
G90 ; use absolute coordinates
M83 ; use relative distances for extrusion
M900 K0.06 ; Filament gcode LA 1.5
M900 K30 ; Filament gcode LA 1.0
;BEFORE_LAYER_CHANGE
G92 E0.0
;0.2


G1 E-0.80000 F2100.00000
G1 Z0.600 F10800.000
;AFTER_LAYER_CHANGE
;0.2
G1 X99.743 Y100.454
G1 Z0.200
G1 E0.80000 F2100.00000
M204 S1000
G1 F1200.000
G1 X100.056 Y99.765 E0.02371
G1 X100.452 Y99.275 E0.01975
G1 X100.948 Y98.887 E0.01975
G1 X110.426 Y93.437 E0.34280
G1 X118.072 Y90.336 E0.25869
G1 X118.766 Y90.163 E0.02243
G1 X139.283 Y90.146 E0.64329
G1 X140.307 Y90.345 E0.03271
G1 X140.775 Y90.588 E0.01656
G1 X141.186 Y90.914 E0.01643
G1 X141.788 Y91.766 E0.03271
G1 X141.959 Y92.265 E0.01656
G1 X142.030 Y92.785 E0.01643
G1 X142.028 Y117.256 E0.76728
G1 X141.894 Y117.963 E0.02256
G1 X141.581 Y118.611 E0.02256
G1 X141.112 Y119.156 E0.02256
G1 X140.520 Y119.558 E0.02243
G1 X139.933 Y119.775 E0.01963
G1 X139.308 Y119.854 E0.01975
G1 X119.069 Y119.854 E0.63458
G1 X118.447 Y119.781 E0.01963
G1 X110.381 Y116.540 E0.27256
G1 X100.922 Y111.096 E0.34220
G1 X100.347 Y110.617 E0.02345
G1 X99.925 Y110.004 E0.02333
G1 X99.715 Y109.445 E0.01873
G1 X99.631 Y108.854 E0.01873
G1 X99.629 Y101.201 E0.23993
G1 X99.734 Y100.513 E0.02183
G1 X100.105 Y100.570 F10800.000
G1 F1200.000
G1 X100.387 Y99.948 E0.02142
G1 X100.726 Y99.534 E0.01680
G1 X101.154 Y99.204 E0.01692
G1 X110.611 Y93.766 E0.34207
G1 X118.207 Y90.688 E0.25698
G1 X118.808 Y90.538 E0.01941
G1 X139.282 Y90.523 E0.64195
G1 X140.170 Y90.697 E0.02837
G1 X140.929 Y91.189 E0.02837
G1 X141.449 Y91.930 E0.02837
G1 X141.654 Y92.811 E0.02837
G1 X141.653 Y117.218 E0.76525
G1 X141.538 Y117.838 E0.01977
G1 X141.265 Y118.406 E0.01977
G1 X140.854 Y118.880 E0.01965
G1 X140.331 Y119.231 E0.01977
G1 X139.831 Y119.412 E0.01668
G1 X139.299 Y119.477 E0.01680
G1 X119.069 Y119.477 E0.63427
G1 X118.533 Y119.414 E0.01692
G1 X110.561 Y116.209 E0.26942
G1 X101.129 Y110.781 E0.34120
G1 X100.622 Y110.358 E0.02071
G1 X100.252 Y109.815 E0.02060
G1 X100.076 Y109.333 E0.01609
G1 X100.007 Y108.828 E0.01597
G1 X100.006 Y101.208 E0.23893
G1 X100.096 Y100.630 E0.01834
G1 F8640.000
G1 X100.387 Y99.948 E-0.17110
G1 X100.726 Y99.534 E-0.12375
G1 X101.154 Y99.204 E-0.12462
G1 X102.432 Y98.469 E-0.34053
G1 E-0.04000 F2100.00000
G1 Z0.800 F10800.000
G1 X103.235 Y101.656
G1 Z0.200
G1 E0.80000 F2100.00000
G1 F1200.000
G1 X111.876 Y96.683 E0.31259
G1 X114.082 Y96.683 E0.06915
G1 X119.287 Y93.687 E0.18832
G1 X138.491 Y93.687 E0.60213
G1 X138.491 Y99.113 E0.17012
G1 X119.840 Y99.113 E0.58480
G1 X119.118 Y99.159 E0.02267
G1 X118.360 Y99.307 E0.02424
G1 X117.663 Y99.538 E0.02300
G1 X116.973 Y99.869 E0.02401
G1 X116.340 Y100.281 E0.02367
G1 X115.782 Y100.756 E0.02300
G1 X115.498 Y101.048 E0.01277
G1 X115.046 Y101.614 E0.02272
G1 X114.828 Y101.947 E0.01248
G1 X114.638 Y102.285 E0.01215
G1 X114.336 Y102.966 E0.02336
G1 X114.121 Y103.690 E0.02365
G1 X114.004 Y104.414 E0.02300
G1 X113.977 Y104.820 E0.01278
G1 X114.001 Y105.565 E0.02338
G1 X114.118 Y106.289 E0.02300
G1 X114.218 Y106.675 E0.01248
G1 X114.340 Y107.042 E0.01215
G1 X114.641 Y107.723 E0.02336
G1 X115.021 Y108.351 E0.02300
G1 X115.264 Y108.678 E0.01278
G1 X115.759 Y109.223 E0.02308
G1 X116.053 Y109.489 E0.01242
G1 X116.642 Y109.929 E0.02307
G1 X116.981 Y110.135 E0.01242
G1 X117.652 Y110.458 E0.02336
G1 X118.348 Y110.689 E0.02300
G1 X118.736 Y110.779 E0.01248
G1 X119.118 Y110.841 E0.01215
G1 X119.840 Y110.887 E0.02267
G1 X138.491 Y110.887 E0.58480
G1 X138.491 Y116.313 E0.17012
G1 X119.287 Y116.313 E0.60213
G1 X114.082 Y113.317 E0.18832
G1 X111.876 Y113.317 E0.06915
G1 X103.235 Y108.344 E0.31259
G1 X103.350 Y107.486 E0.02713
G1 X103.414 Y106.770 E0.02254
G1 X103.478 Y105.360 E0.04428
G1 X103.478 Y104.640 E0.02255
G1 X103.414 Y103.230 E0.04428
G1 X103.350 Y102.514 E0.02254
G1 X103.243 Y101.715 E0.02525
G1 X102.828 Y101.455 F10800.000
G1 F1200.000
G1 X111.776 Y96.306 E0.32368
G1 X113.981 Y96.306 E0.06915
G1 X119.187 Y93.310 E0.18832
G1 X138.869 Y93.310 E0.61711
G1 X138.869 Y99.490 E0.19377
G1 X119.852 Y99.490 E0.59625
G1 X119.161 Y99.534 E0.02172
G1 X118.809 Y99.591 E0.01118
G1 X118.461 Y99.671 E0.01118
G1 X117.805 Y99.888 E0.02168
G1 X117.158 Y100.198 E0.02249
G1 X116.566 Y100.584 E0.02214
G1 X116.039 Y101.032 E0.02168
G1 X115.781 Y101.298 E0.01163
G1 X115.351 Y101.836 E0.02158
G1 X115.150 Y102.143 E0.01153
G1 X114.975 Y102.454 E0.01119
G1 X114.691 Y103.097 E0.02203
G1 X114.490 Y103.774 E0.02214
G1 X114.379 Y104.456 E0.02168
G1 X114.354 Y104.827 E0.01163
G1 X114.377 Y105.529 E0.02204
G1 X114.487 Y106.212 E0.02168
G1 X114.692 Y106.906 E0.02270
G1 X114.976 Y107.549 E0.02203
G1 X115.335 Y108.140 E0.02168
G1 X115.556 Y108.438 E0.01163
G1 X116.026 Y108.956 E0.02193
G1 X116.293 Y109.198 E0.01129
G1 X116.853 Y109.616 E0.02193
G1 X117.161 Y109.803 E0.01129
G1 X117.794 Y110.108 E0.02203
G1 X118.450 Y110.326 E0.02168
G1 X119.161 Y110.466 E0.02270
G1 X119.852 Y110.510 E0.02172
G1 X138.869 Y110.510 E0.59625
G1 X138.869 Y116.690 E0.19377
G1 X119.187 Y116.690 E0.61711
G1 X113.981 Y113.694 E0.18832
G1 X111.776 Y113.694 E0.06915
G1 X102.828 Y108.545 E0.32368
G1 X102.975 Y107.444 E0.03481
G1 X103.038 Y106.745 E0.02202
G1 X103.100 Y105.351 E0.04375
G1 X103.100 Y104.649 E0.02202
G1 X103.038 Y103.255 E0.04375
G1 X102.975 Y102.556 E0.02202
G1 X102.836 Y101.515 E0.03292
G1 X103.224 Y101.510 F10800.000
G1 F8640.000
G1 X105.680 Y99.858 E-0.76000
G1 E-0.04000 F2100.00000
G1 Z0.800 F10800.000
G1 X105.190 Y109.338
G1 Z0.200
G1 E0.80000 F2100.00000
G1 F1200.000
G1 X103.600 Y107.749 E0.07122
G1 X103.654 Y107.264 E0.01546
G1 X105.998 Y109.608 E0.10502
G1 X107.267 Y110.338 E0.04640
G1 X103.697 Y106.768 E0.15994
G1 X103.721 Y106.253 E0.01635
G1 X108.537 Y111.069 E0.21578
G1 X109.806 Y111.799 E0.04640
G1 X103.744 Y105.737 E0.27162
G1 X103.760 Y105.215 E0.01655
G1 X111.075 Y112.530 E0.32774
G1 X111.952 Y113.034 E0.03204
G1 X112.119 Y113.034 E0.00528
G1 X103.760 Y104.676 E0.37449
G1 X103.737 Y104.114 E0.01783
G1 X112.657 Y113.034 E0.39967
G1 X113.196 Y113.034 E0.01707
G1 X103.712 Y103.550 E0.42495
G1 X103.675 Y102.974 E0.01826
G1 X113.735 Y113.034 E0.45072
G1 X114.157 Y113.034 E0.01337
G1 X114.432 Y113.192 E0.01005
G1 X103.617 Y102.377 E0.48457
G1 X103.541 Y101.806 E0.01825
G1 X103.569 Y101.790 E0.00103
G1 X115.702 Y113.923 E0.54360
G1 X116.971 Y114.654 E0.04640
G1 X103.911 Y101.593 E0.58514
G1 X104.253 Y101.397 E0.01250
G1 X118.240 Y115.384 E0.62669
G1 X119.363 Y116.030 E0.04104
G1 X119.425 Y116.030 E0.00197
G1 X104.595 Y101.200 E0.66446
G1 X104.937 Y101.003 E0.01250
G1 X119.964 Y116.030 E0.67328
G1 X120.503 Y116.030 E0.01707
G1 X105.279 Y100.806 E0.68210
G1 X105.621 Y100.609 E0.01250
G1 X121.042 Y116.030 E0.69092
G1 X121.581 Y116.030 E0.01707
G1 X105.963 Y100.412 E0.69973
G1 X106.305 Y100.216 E0.01250
G1 X122.289 Y116.200 E0.71616
G1 F8640.000
G1 X119.962 Y113.872 E-0.76000
G1 E-0.04000 F2100.00000
G1 Z0.800 F10800.000
G1 X137.565 Y111.000
G1 Z0.200
G1 E0.80000 F2100.00000
G1 F1200.000
G1 X138.209 Y111.644 E0.02883
G1 X138.209 Y112.183 E0.01707
G1 X137.196 Y111.170 E0.04537
G1 X136.657 Y111.170 E0.01707
G1 X138.209 Y112.721 E0.06952
G1 X138.209 Y113.260 E0.01707
G1 X136.118 Y111.170 E0.09366
G1 X135.579 Y111.170 E0.01707
G1 X138.209 Y113.799 E0.11780
G1 X138.209 Y114.338 E0.01707
G1 X135.041 Y111.170 E0.14194
G1 X134.502 Y111.170 E0.01707
G1 X138.209 Y114.877 E0.16608
G1 X138.209 Y115.416 E0.01707
G1 X133.963 Y111.170 E0.19022
G1 X133.424 Y111.170 E0.01707
G1 X138.209 Y115.954 E0.21437
G1 X138.209 Y116.030 E0.00240
G1 X137.746 Y116.030 E0.01467
G1 X132.885 Y111.170 E0.21776
G1 X132.346 Y111.170 E0.01707
G1 X137.207 Y116.030 E0.21776
G1 X136.668 Y116.030 E0.01707
G1 X131.808 Y111.170 E0.21776
M73 Q3 S30
G1 X131.269 Y111.170 E0.01707
G1 X136.129 Y116.030 E0.21776
M73 P3 R30
G1 X135.590 Y116.030 E0.01707
G1 X130.730 Y111.170 E0.21776
G1 X130.191 Y111.170 E0.01707
G1 X135.051 Y116.030 E0.21776
G1 X134.513 Y116.030 E0.01707
G1 X129.652 Y111.170 E0.21776
G1 X129.113 Y111.170 E0.01707
G1 X133.974 Y116.030 E0.21776
G1 X133.435 Y116.030 E0.01707
G1 X128.575 Y111.170 E0.21776
G1 X128.036 Y111.170 E0.01707
G1 X132.896 Y116.030 E0.21776
G1 X132.357 Y116.030 E0.01707
G1 X127.497 Y111.170 E0.21776
G1 X126.958 Y111.170 E0.01707
G1 X131.818 Y116.030 E0.21776
G1 X131.280 Y116.030 E0.01707
G1 X126.419 Y111.170 E0.21776
G1 X125.880 Y111.170 E0.01707
G1 X130.741 Y116.030 E0.21776
G1 X130.202 Y116.030 E0.01707
G1 X125.342 Y111.170 E0.21776
G1 X124.803 Y111.170 E0.01707
G1 X129.663 Y116.030 E0.21776
G1 X129.124 Y116.030 E0.01707
G1 X124.264 Y111.170 E0.21776
G1 X123.725 Y111.170 E0.01707
G1 X128.585 Y116.030 E0.21776
G1 X128.047 Y116.030 E0.01707
G1 X123.186 Y111.170 E0.21776
G1 X122.647 Y111.170 E0.01707
G1 X127.508 Y116.030 E0.21776
G1 X126.969 Y116.030 E0.01707
G1 X122.109 Y111.170 E0.21776
G1 X121.570 Y111.170 E0.01707
G1 X126.430 Y116.030 E0.21776
G1 X125.891 Y116.030 E0.01707
G1 X121.031 Y111.170 E0.21776
G1 X120.492 Y111.170 E0.01707
G1 X125.352 Y116.030 E0.21776
G1 X124.814 Y116.030 E0.01707
G1 X119.953 Y111.170 E0.21776
G1 X119.386 Y111.141 E0.01800
G1 X124.275 Y116.030 E0.21904
G1 X123.736 Y116.030 E0.01707
G1 X118.778 Y111.072 E0.22214
G1 X118.272 Y110.962 E0.01641
G1 X118.058 Y110.891 E0.00713
G1 X123.197 Y116.030 E0.23026
G1 X122.658 Y116.030 E0.01707
G1 X117.166 Y110.538 E0.24609
G1 X116.846 Y110.384 E0.01124
G1 X116.484 Y110.164 E0.01342
G1 X115.873 Y109.708 E0.02417
G1 X115.559 Y109.423 E0.01342
G1 X115.046 Y108.858 E0.02420
G1 X114.786 Y108.509 E0.01377
G1 X114.390 Y107.854 E0.02423
G1 X114.317 Y107.688 E0.00575
G1 X106.647 Y100.019 E0.34363
G1 X106.989 Y99.822 E0.01250
G1 X113.959 Y106.792 E0.31227
G1 X113.840 Y106.348 E0.01456
G1 X113.800 Y106.094 E0.00814
G1 X107.331 Y99.625 E0.28982
G1 X107.673 Y99.428 E0.01250
G1 X113.715 Y105.470 E0.27070
G1 X113.697 Y104.914 E0.01765
G1 X108.015 Y99.232 E0.25458
G1 X108.357 Y99.035 E0.01250
G1 X113.721 Y104.399 E0.24035
G1 X113.795 Y103.934 E0.01492
G1 X108.699 Y98.838 E0.22833
G1 X109.041 Y98.641 E0.01250
G1 X113.887 Y103.487 E0.21710
G1 X114.010 Y103.071 E0.01373
G1 X109.383 Y98.444 E0.20730
G1 X109.725 Y98.247 E0.01250
G1 X114.155 Y102.677 E0.19847
G1 X114.320 Y102.304 E0.01294
G1 X110.067 Y98.051 E0.19055
G1 X110.409 Y97.854 E0.01250
G1 X114.503 Y101.948 E0.18343
G1 X114.708 Y101.614 E0.01241
G1 X110.751 Y97.657 E0.17729
G1 X111.093 Y97.460 E0.01250
G1 X114.934 Y101.301 E0.17208
G1 X115.173 Y101.001 E0.01215
G1 X111.435 Y97.263 E0.16748
G1 X111.777 Y97.066 E0.01250
G1 X115.426 Y100.716 E0.16350
G1 X115.702 Y100.452 E0.01207
G1 X112.215 Y96.966 E0.15622
G1 X112.754 Y96.966 E0.01707
G1 X115.993 Y100.205 E0.14512
G1 X116.298 Y99.971 E0.01218
G1 X113.293 Y96.966 E0.13464
G1 X113.832 Y96.966 E0.01707
G1 X116.624 Y99.758 E0.12512
G1 X116.964 Y99.560 E0.01248
G1 X114.293 Y96.888 E0.11970
G1 X114.635 Y96.691 E0.01250
G1 X117.328 Y99.385 E0.12069
G1 X117.708 Y99.225 E0.01304
G1 X114.977 Y96.494 E0.12236
G1 X115.319 Y96.297 E0.01250
G1 X118.112 Y99.091 E0.12517
G1 X118.288 Y99.033 E0.00585
G1 X118.543 Y98.983 E0.00825
G1 X115.661 Y96.101 E0.12916
G1 X116.003 Y95.904 E0.01250
G1 X118.994 Y98.895 E0.13404
G1 X119.490 Y98.852 E0.01576
G1 X116.345 Y95.707 E0.14092
G1 X116.687 Y95.510 E0.01250
G1 X120.007 Y98.830 E0.14875
G1 X120.546 Y98.830 E0.01707
G1 X117.029 Y95.313 E0.15757
G1 X117.371 Y95.116 E0.01250
G1 X121.084 Y98.830 E0.16639
G1 X121.623 Y98.830 E0.01707
G1 X117.713 Y94.920 E0.17521
G1 X118.055 Y94.723 E0.01250
G1 X122.162 Y98.830 E0.18403
G1 X122.701 Y98.830 E0.01707
G1 X118.397 Y94.526 E0.19284
G1 X118.739 Y94.329 E0.01250
G1 X123.240 Y98.830 E0.20166
G1 X123.779 Y98.830 E0.01707
G1 X119.081 Y94.132 E0.21048
G1 X119.363 Y93.970 E0.01032
G1 X119.457 Y93.970 E0.00298
G1 X124.317 Y98.830 E0.21776
G1 X124.856 Y98.830 E0.01707
G1 X119.996 Y93.970 E0.21776
G1 X120.535 Y93.970 E0.01707
G1 X125.395 Y98.830 E0.21776
G1 X125.934 Y98.830 E0.01707
G1 X121.074 Y93.970 E0.21776
G1 X121.612 Y93.970 E0.01707
G1 X126.473 Y98.830 E0.21776
G1 X127.012 Y98.830 E0.01707
G1 X122.151 Y93.970 E0.21776
G1 X122.690 Y93.970 E0.01707
G1 X127.550 Y98.830 E0.21776
G1 X128.089 Y98.830 E0.01707
G1 X123.229 Y93.970 E0.21776
G1 X123.768 Y93.970 E0.01707
G1 X128.628 Y98.830 E0.21776
G1 X129.167 Y98.830 E0.01707
G1 X124.307 Y93.970 E0.21776
G1 X124.845 Y93.970 E0.01707
G1 X129.706 Y98.830 E0.21776
G1 X130.245 Y98.830 E0.01707
G1 X125.384 Y93.970 E0.21776
G1 X125.923 Y93.970 E0.01707
G1 X130.783 Y98.830 E0.21776
G1 X131.322 Y98.830 E0.01707
G1 X126.462 Y93.970 E0.21776
G1 X127.001 Y93.970 E0.01707
G1 X131.861 Y98.830 E0.21776
G1 X132.400 Y98.830 E0.01707
G1 X127.540 Y93.970 E0.21776
G1 X128.078 Y93.970 E0.01707
G1 X132.939 Y98.830 E0.21776
G1 X133.478 Y98.830 E0.01707
G1 X128.617 Y93.970 E0.21776
G1 X129.156 Y93.970 E0.01707
G1 X134.016 Y98.830 E0.21776
G1 X134.555 Y98.830 E0.01707
G1 X129.695 Y93.970 E0.21776
G1 X130.234 Y93.970 E0.01707
G1 X135.094 Y98.830 E0.21776
G1 X135.633 Y98.830 E0.01707
G1 X130.773 Y93.970 E0.21776
G1 X131.311 Y93.970 E0.01707
G1 X136.172 Y98.830 E0.21776
G1 X136.711 Y98.830 E0.01707
G1 X131.850 Y93.970 E0.21776
G1 X132.389 Y93.970 E0.01707
G1 X137.249 Y98.830 E0.21776
G1 X137.788 Y98.830 E0.01707
G1 X132.928 Y93.970 E0.21776
G1 X133.467 Y93.970 E0.01707
G1 X138.209 Y98.712 E0.21246
G1 X138.209 Y98.173 E0.01707
G1 X134.006 Y93.970 E0.18831
G1 X134.544 Y93.970 E0.01707
G1 X138.209 Y97.634 E0.16417
G1 X138.209 Y97.095 E0.01707
G1 X135.083 Y93.970 E0.14003
G1 X135.622 Y93.970 E0.01707
G1 X138.209 Y96.556 E0.11589
G1 X138.209 Y96.018 E0.01707
G1 X136.161 Y93.970 E0.09175
G1 X136.700 Y93.970 E0.01707
G1 X138.209 Y95.479 E0.06761
G1 X138.209 Y94.940 E0.01707
G1 X137.239 Y93.970 E0.04346
G1 X137.777 Y93.970 E0.01707
G1 X138.378 Y94.571 E0.02692
M106 S255
;BEFORE_LAYER_CHANGE
G92 E0.0
;0.3


G1 F8640.000
G1 X137.777 Y93.970 E-0.19623
G1 X137.239 Y93.970 E-0.12442
G1 X138.209 Y94.940 E-0.31677
G1 X138.209 Y95.471 E-0.12258
G1 E-0.04000 F2100.00000
G1 Z0.800 F10800.000
;AFTER_LAYER_CHANGE
;0.3
M104 S210 ; set temperature
G1 X141.788 Y91.766
G1 Z0.300
G1 E0.80000 F2100.00000
G1 F3000.000
G1 X141.959 Y92.265 E0.00875
G1 X142.030 Y92.785 E0.00868
G1 X142.028 Y117.256 E0.40547
G1 X141.894 Y117.963 E0.01192
G1 X141.581 Y118.611 E0.01192
G1 X141.112 Y119.156 E0.01192
G1 X140.520 Y119.558 E0.01185
G1 X139.933 Y119.775 E0.01037
G1 X139.308 Y119.854 E0.01044
G1 X119.069 Y119.854 E0.33535
G1 X118.447 Y119.781 E0.01037
G1 X110.381 Y116.540 E0.14404
G1 X100.922 Y111.096 E0.18084
G1 X100.347 Y110.617 E0.01239
G1 X99.925 Y110.004 E0.01233
G1 X99.715 Y109.445 E0.00990
G1 X99.631 Y108.854 E0.00990
G1 X99.629 Y101.201 E0.12679
G1 X99.743 Y100.454 E0.01253
