; generated by PrusaSlicer 2.3.0+win64 on 2021-05-31 at 12:16:25 UTC

; 

; external perimeters extrusion width = 0.45mm
; perimeters extrusion width = 0.45mm
; infill extrusion width = 0.45mm
; solid infill extrusion width = 0.45mm
; top infill extrusion width = 0.40mm
; first layer extrusion width = 0.42mm

M73 P0 R62
M73 Q0 S62
M201 X1000 Y1000 Z200 E5000 ; sets maximum accelerations, mm/sec^2
M203 X200 Y200 Z12 E120 ; sets maximum feedrates, mm/sec
M204 P1250 R1250 T1250 ; sets acceleration (P, T) and retract acceleration (R), mm/sec^2
M205 X8.00 Y8.00 Z0.40 E4.50 ; sets the jerk limits, mm/sec
M205 S0 T0 ; sets the minimum extruding and travel feed rate, mm/sec
M107
;TYPE:Custom
M862.3 P "MK3SMMU2S" ; printer model check
M862.1 P0.4 ; nozzle diameter check
M115 U3.9.3 ; tell printer latest fw version
G90 ; use absolute coordinates
M83 ; extruder relative mode
M104 S215 ; set extruder temp
M140 S60 ; set bed temp
Tx
M190 S60 ; wait for bed temp
M109 S215 ; wait for extruder temp
G28 W ; home all without mesh bed level
G80 ; mesh bed leveling

;go outside print area
G1 Y-3.0 F1000.0
G1 Z0.4 F1000.0
; select extruder
Tc
; purge line
G1 X55.0 F2000.0
G1 Z0.3 F1000.0
G92 E0.0
G1 X240.0 E25.0 F2200.0
G1 Y-2.0 F1000.0
G1 X55.0 E25 F1400.0
G1 Z0.20 F1000.0
G1 X5.0 E4.0 F1000.0

M221 S95
G92 E0.0

; Don't change E values below. Excessive value can damage the printer.
M907 E430 ; set extruder motor current
G21 ; set units to millimeters
G90 ; use absolute coordinates
M83 ; use relative distances for extrusion
M900 K0.05 ; Filament gcode LA 1.5
M900 K30 ; Filament gcode LA 1.0
;LAYER_CHANGE
;Z:0.2
;HEIGHT:0.2
;BEFORE_LAYER_CHANGE
G92 E0.0
;0.2


G1 E-0.80000 F2100.000
G1 Z0.400 F10800.000
;AFTER_LAYER_CHANGE
;0.2
G1 X83.405 Y84.477
G1 Z0.200
G1 E0.80000 F2100.000
M204 S1000
;TYPE:Skirt
;WIDTH:0.42
G1 F1200.000
G1 X83.872 Y84.106 E0.01870
G1 X93.340 Y78.662 E0.34242
G1 X100.929 Y75.588 E0.25674
G1 X101.545 Y75.437 E0.01989
G1 X164.899 Y75.423 E1.98643
M73 P0 R61
G1 X165.798 Y75.601 E0.02872
G1 X166.559 Y76.103 E0.02860
G1 X167.076 Y76.855 E0.02860
G1 X167.272 Y77.749 E0.02872
G1 X167.272 Y132.250 E1.70881
G1 X167.185 Y132.840 E0.01870
G1 X166.955 Y133.386 E0.01858
G1 X166.595 Y133.862 E0.01870
G1 X166.128 Y134.232 E0.01870
G1 X165.543 Y134.487 E0.02000
G1 X164.908 Y134.577 E0.02012
G1 X101.540 Y134.563 E1.98685
G1 X100.928 Y134.412 E0.01977
G1 X93.303 Y131.319 E0.25800
G1 X83.870 Y125.893 E0.34120
G1 X83.422 Y125.541 E0.01787
G1 X83.073 Y125.095 E0.01775
G1 X82.819 Y124.514 E0.01989
G1 X82.728 Y123.882 E0.02000
G1 X82.728 Y86.092 E1.18487
G1 X82.814 Y85.502 E0.01870
G1 X83.045 Y84.952 E0.01870
G1 X83.369 Y84.525 E0.01682
; printing object SpringTip.stl id:0 copy 2
;WIPE_START
G1 F8640.000
G1 X83.872 Y84.106 E-0.15118
G1 X86.158 Y82.792 E-0.60882
;WIPE_END
G1 E-0.04000 F2100.000
G1 Z0.600 F10800.000
G1 X128.852 Y86.556
G1 Z0.200
G1 E0.80000 F2100.000
;TYPE:Perimeter
G1 F1200.000
G1 X137.493 Y81.583 E0.31259
G1 X139.698 Y81.583 E0.06915
G1 X144.904 Y78.587 E0.18832
G1 X164.108 Y78.587 E0.60213
G1 X164.108 Y84.013 E0.17012
G1 X145.457 Y84.013 E0.58480
M73 Q0 S61
G1 X144.735 Y84.059 E0.02267
G1 X143.976 Y84.207 E0.02424
G1 X143.280 Y84.438 E0.02300
G1 X142.590 Y84.769 E0.02401
G1 X141.957 Y85.181 E0.02367
G1 X141.398 Y85.656 E0.02300
G1 X141.114 Y85.948 E0.01277
G1 X140.662 Y86.514 E0.02272
G1 X140.444 Y86.847 E0.01248
G1 X140.254 Y87.185 E0.01215
G1 X139.953 Y87.866 E0.02336
G1 X139.738 Y88.590 E0.02365
G1 X139.621 Y89.314 E0.02300
G1 X139.594 Y89.720 E0.01278
G1 X139.618 Y90.465 E0.02338
G1 X139.734 Y91.189 E0.02300
G1 X139.834 Y91.575 E0.01248
M73 Q1 S61
G1 X139.957 Y91.942 E0.01215
G1 X140.258 Y92.623 E0.02336
G1 X140.638 Y93.251 E0.02300
G1 X140.881 Y93.578 E0.01278
G1 X141.376 Y94.123 E0.02308
M73 P1 R61
G1 X141.669 Y94.389 E0.01242
G1 X142.259 Y94.829 E0.02307
G1 X142.598 Y95.035 E0.01242
G1 X143.269 Y95.358 E0.02336
G1 X143.965 Y95.589 E0.02300
G1 X144.353 Y95.679 E0.01248
G1 X144.735 Y95.741 E0.01215
G1 X145.457 Y95.787 E0.02267
G1 X164.108 Y95.787 E0.58480
G1 X164.108 Y101.213 E0.17012
G1 X144.904 Y101.213 E0.60213
G1 X139.698 Y98.217 E0.18832
G1 X137.493 Y98.217 E0.06915
G1 X128.852 Y93.244 E0.31259
G1 X128.967 Y92.386 E0.02713
G1 X129.031 Y91.670 E0.02254
G1 X129.094 Y90.260 E0.04428
G1 X129.094 Y89.540 E0.02255
G1 X129.031 Y88.130 E0.04428
G1 X128.967 Y87.414 E0.02254
G1 X128.860 Y86.615 E0.02525
G1 X128.445 Y86.355 F10800.000
;TYPE:External perimeter
G1 F1200.000
G1 X137.392 Y81.206 E0.32368
G1 X139.598 Y81.206 E0.06915
G1 X144.803 Y78.210 E0.18832
G1 X164.485 Y78.210 E0.61711
G1 X164.485 Y84.390 E0.19377
G1 X145.469 Y84.390 E0.59625
G1 X144.777 Y84.434 E0.02172
G1 X144.425 Y84.491 E0.01118
G1 X144.078 Y84.571 E0.01118
G1 X143.421 Y84.788 E0.02168
G1 X142.775 Y85.098 E0.02249
G1 X142.183 Y85.484 E0.02214
G1 X141.656 Y85.932 E0.02168
G1 X141.397 Y86.198 E0.01163
G1 X140.968 Y86.736 E0.02158
G1 X140.767 Y87.043 E0.01153
G1 X140.592 Y87.354 E0.01119
G1 X140.307 Y87.997 E0.02203
G1 X140.106 Y88.674 E0.02214
G1 X139.996 Y89.356 E0.02168
G1 X139.971 Y89.727 E0.01163
G1 X139.994 Y90.429 E0.02204
G1 X140.104 Y91.112 E0.02168
G1 X140.309 Y91.806 E0.02270
G1 X140.593 Y92.449 E0.02203
G1 X140.951 Y93.040 E0.02168
G1 X141.173 Y93.338 E0.01163
G1 X141.643 Y93.856 E0.02193
G1 X141.909 Y94.098 E0.01129
G1 X142.470 Y94.516 E0.02193
G1 X142.778 Y94.703 E0.01129
G1 X143.411 Y95.008 E0.02203
G1 X144.067 Y95.226 E0.02168
G1 X144.777 Y95.366 E0.02270
G1 X145.469 Y95.410 E0.02172
G1 X164.485 Y95.410 E0.59625
G1 X164.485 Y101.590 E0.19377
G1 X144.803 Y101.590 E0.61711
G1 X139.598 Y98.594 E0.18832
G1 X137.392 Y98.594 E0.06915
G1 X128.445 Y93.445 E0.32368
G1 X128.592 Y92.344 E0.03481
G1 X128.655 Y91.645 E0.02202
G1 X128.717 Y90.251 E0.04375
G1 X128.717 Y89.549 E0.02202
G1 X128.655 Y88.155 E0.04375
G1 X128.592 Y87.456 E0.02202
G1 X128.453 Y86.415 E0.03292
G1 X128.841 Y86.410 F10800.000
;WIPE_START
G1 F8640.000
G1 X131.297 Y84.758 E-0.76000
;WIPE_END
G1 E-0.04000 F2100.000
G1 Z0.600 F10800.000
G1 X163.224 Y78.700
G1 Z0.200
G1 E0.80000 F2100.000
;TYPE:Solid infill
;WIDTH:0.423932
G1 F1200.000
G1 X163.825 Y79.301 E0.02692
G1 X163.825 Y79.840 E0.01707
G1 X162.855 Y78.870 E0.04346
G1 X162.316 Y78.870 E0.01707
G1 X163.825 Y80.379 E0.06761
G1 X163.825 Y80.918 E0.01707
G1 X161.778 Y78.870 E0.09175
G1 X161.239 Y78.870 E0.01707
G1 X163.825 Y81.456 E0.11589
G1 X163.825 Y81.995 E0.01707
G1 X160.700 Y78.870 E0.14003
G1 X160.161 Y78.870 E0.01707
G1 X163.825 Y82.534 E0.16417
G1 X163.825 Y83.073 E0.01707
G1 X159.622 Y78.870 E0.18831
G1 X159.083 Y78.870 E0.01707
G1 X163.825 Y83.612 E0.21246
G1 X163.825 Y83.730 E0.00375
G1 X163.405 Y83.730 E0.01332
G1 X158.545 Y78.870 E0.21776
G1 X158.006 Y78.870 E0.01707
G1 X162.866 Y83.730 E0.21776
G1 X162.327 Y83.730 E0.01707
G1 X157.467 Y78.870 E0.21776
G1 X156.928 Y78.870 E0.01707
G1 X161.788 Y83.730 E0.21776
G1 X161.250 Y83.730 E0.01707
G1 X156.389 Y78.870 E0.21776
G1 X155.850 Y78.870 E0.01707
G1 X160.711 Y83.730 E0.21776
G1 X160.172 Y83.730 E0.01707
G1 X155.312 Y78.870 E0.21776
G1 X154.773 Y78.870 E0.01707
G1 X159.633 Y83.730 E0.21776
G1 X159.094 Y83.730 E0.01707
G1 X154.234 Y78.870 E0.21776
G1 X153.695 Y78.870 E0.01707
G1 X158.555 Y83.730 E0.21776
G1 X158.017 Y83.730 E0.01707
G1 X153.156 Y78.870 E0.21776
G1 X152.617 Y78.870 E0.01707
G1 X157.478 Y83.730 E0.21776
G1 X156.939 Y83.730 E0.01707
G1 X152.079 Y78.870 E0.21776
G1 X151.540 Y78.870 E0.01707
G1 X156.400 Y83.730 E0.21776
G1 X155.861 Y83.730 E0.01707
G1 X151.001 Y78.870 E0.21776
G1 X150.462 Y78.870 E0.01707
G1 X155.322 Y83.730 E0.21776
G1 X154.784 Y83.730 E0.01707
G1 X149.923 Y78.870 E0.21776
G1 X149.385 Y78.870 E0.01707
G1 X154.245 Y83.730 E0.21776
G1 X153.706 Y83.730 E0.01707
G1 X148.846 Y78.870 E0.21776
G1 X148.307 Y78.870 E0.01707
G1 X153.167 Y83.730 E0.21776
G1 X152.628 Y83.730 E0.01707
G1 X147.768 Y78.870 E0.21776
G1 X147.229 Y78.870 E0.01707
G1 X152.089 Y83.730 E0.21776
G1 X151.551 Y83.730 E0.01707
G1 X146.690 Y78.870 E0.21776
G1 X146.152 Y78.870 E0.01707
G1 X151.012 Y83.730 E0.21776
G1 X150.473 Y83.730 E0.01707
G1 X145.613 Y78.870 E0.21776
G1 X145.074 Y78.870 E0.01707
G1 X149.934 Y83.730 E0.21776
G1 X149.395 Y83.730 E0.01707
G1 X144.697 Y79.032 E0.21048
G1 X144.355 Y79.229 E0.01250
G1 X148.856 Y83.730 E0.20166
G1 X148.318 Y83.730 E0.01707
G1 X144.013 Y79.426 E0.19284
G1 X143.671 Y79.623 E0.01250
G1 X147.779 Y83.730 E0.18403
G1 X147.240 Y83.730 E0.01707
G1 X143.329 Y79.820 E0.17521
G1 X142.987 Y80.016 E0.01250
G1 X146.701 Y83.730 E0.16639
G1 X146.162 Y83.730 E0.01707
G1 X142.645 Y80.213 E0.15757
G1 X142.303 Y80.410 E0.01250
G1 X145.623 Y83.730 E0.14875
G1 X145.107 Y83.752 E0.01639
G1 X141.961 Y80.607 E0.14092
G1 X141.619 Y80.804 E0.01250
G1 X144.611 Y83.795 E0.13404
G1 X144.160 Y83.883 E0.01456
G1 X141.277 Y81.001 E0.12916
G1 X140.935 Y81.197 E0.01250
G1 X143.729 Y83.991 E0.12517
G1 X143.324 Y84.125 E0.01351
G1 X140.593 Y81.394 E0.12236
G1 X140.251 Y81.591 E0.01250
G1 X142.945 Y84.285 E0.12069
G1 X142.581 Y84.460 E0.01280
G1 X139.909 Y81.788 E0.11970
G1 X139.774 Y81.866 E0.00495
G1 X139.448 Y81.866 E0.01031
G1 X142.241 Y84.658 E0.12512
G1 X141.915 Y84.871 E0.01234
G1 X138.910 Y81.866 E0.13464
G1 X138.371 Y81.866 E0.01707
G1 X141.610 Y85.105 E0.14512
G1 X141.319 Y85.352 E0.01211
G1 X137.832 Y81.866 E0.15622
G1 X137.569 Y81.866 E0.00834
G1 X137.394 Y81.966 E0.00639
G1 X141.043 Y85.616 E0.16350
G1 X140.790 Y85.901 E0.01209
G1 X137.052 Y82.163 E0.16748
G1 X136.710 Y82.360 E0.01250
G1 X140.551 Y86.201 E0.17208
G1 X140.325 Y86.514 E0.01223
G1 X136.368 Y82.557 E0.17729
G1 X136.026 Y82.754 E0.01250
G1 X140.120 Y86.848 E0.18343
G1 X139.937 Y87.204 E0.01268
G1 X135.684 Y82.951 E0.19055
G1 X135.342 Y83.147 E0.01250
G1 X139.771 Y87.577 E0.19847
G1 X139.687 Y87.768 E0.00663
G1 X139.627 Y87.971 E0.00670
G1 X135.000 Y83.344 E0.20730
G1 X134.658 Y83.541 E0.01250
G1 X139.503 Y88.387 E0.21710
G1 X139.462 Y88.526 E0.00462
G1 X139.412 Y88.834 E0.00987
G1 X134.316 Y83.738 E0.22833
G1 X133.974 Y83.935 E0.01250
G1 X139.338 Y89.299 E0.24035
G1 X139.314 Y89.814 E0.01632
G1 X133.632 Y84.132 E0.25458
G1 X133.290 Y84.328 E0.01250
G1 X139.332 Y90.370 E0.27070
G1 X139.335 Y90.492 E0.00387
G1 X139.416 Y90.994 E0.01609
G1 X132.948 Y84.525 E0.28982
G1 X132.606 Y84.722 E0.01250
G1 X139.843 Y91.959 E0.32426
;WIPE_START
G1 F8640.000
G1 X137.516 Y89.632 E-0.76000
;WIPE_END
G1 E-0.04000 F2100.000
G1 Z0.600 F10800.000
G1 X163.182 Y95.900
G1 Z0.200
G1 E0.80000 F2100.000
G1 F1200.000
G1 X163.825 Y96.544 E0.02883
G1 X163.825 Y97.083 E0.01707
G1 X162.813 Y96.070 E0.04537
G1 X162.274 Y96.070 E0.01707
G1 X163.825 Y97.621 E0.06952
G1 X163.825 Y98.160 E0.01707
G1 X161.735 Y96.070 E0.09366
G1 X161.196 Y96.070 E0.01707
G1 X163.825 Y98.699 E0.11780
G1 X163.825 Y99.238 E0.01707
G1 X160.657 Y96.070 E0.14194
G1 X160.119 Y96.070 E0.01707
G1 X163.825 Y99.777 E0.16608
G1 X163.825 Y100.316 E0.01707
G1 X159.580 Y96.070 E0.19022
G1 X159.041 Y96.070 E0.01707
G1 X163.825 Y100.854 E0.21437
M73 P2 R61
M73 Q2 S61
G1 X163.825 Y100.930 E0.00240
G1 X163.362 Y100.930 E0.01467
G1 X158.502 Y96.070 E0.21776
G1 X157.963 Y96.070 E0.01707
G1 X162.823 Y100.930 E0.21776
G1 X162.285 Y100.930 E0.01707
G1 X157.424 Y96.070 E0.21776
G1 X156.886 Y96.070 E0.01707
G1 X161.746 Y100.930 E0.21776
G1 X161.207 Y100.930 E0.01707
G1 X156.347 Y96.070 E0.21776
G1 X155.808 Y96.070 E0.01707
G1 X160.668 Y100.930 E0.21776
G1 X160.129 Y100.930 E0.01707
G1 X155.269 Y96.070 E0.21776
G1 X154.730 Y96.070 E0.01707
G1 X159.590 Y100.930 E0.21776
G1 X159.052 Y100.930 E0.01707
G1 X154.191 Y96.070 E0.21776
G1 X153.653 Y96.070 E0.01707
G1 X158.513 Y100.930 E0.21776
G1 X157.974 Y100.930 E0.01707
G1 X153.114 Y96.070 E0.21776
G1 X152.575 Y96.070 E0.01707
G1 X157.435 Y100.930 E0.21776
G1 X156.896 Y100.930 E0.01707
G1 X152.036 Y96.070 E0.21776
G1 X151.497 Y96.070 E0.01707
G1 X156.357 Y100.930 E0.21776
G1 X155.819 Y100.930 E0.01707
G1 X150.958 Y96.070 E0.21776
G1 X150.420 Y96.070 E0.01707
G1 X155.280 Y100.930 E0.21776
G1 X154.741 Y100.930 E0.01707
G1 X149.881 Y96.070 E0.21776
G1 X149.342 Y96.070 E0.01707
G1 X154.202 Y100.930 E0.21776
G1 X153.663 Y100.930 E0.01707
G1 X148.803 Y96.070 E0.21776
M73 P2 R60
G1 X148.264 Y96.070 E0.01707
G1 X153.124 Y100.930 E0.21776
G1 X152.586 Y100.930 E0.01707
G1 X147.725 Y96.070 E0.21776
G1 X147.187 Y96.070 E0.01707
G1 X152.047 Y100.930 E0.21776
G1 X151.508 Y100.930 E0.01707
G1 X146.648 Y96.070 E0.21776
G1 X146.109 Y96.070 E0.01707
G1 X150.969 Y100.930 E0.21776
G1 X150.430 Y100.930 E0.01707
G1 X145.570 Y96.070 E0.21776
G1 X145.003 Y96.041 E0.01800
G1 X149.891 Y100.930 E0.21904
G1 X149.353 Y100.930 E0.01707
G1 X144.395 Y95.972 E0.22214
G1 X143.888 Y95.862 E0.01641
G1 X143.675 Y95.791 E0.00713
G1 X148.814 Y100.930 E0.23026
G1 X148.275 Y100.930 E0.01707
G1 X142.782 Y95.438 E0.24609
G1 X142.463 Y95.284 E0.01124
G1 X142.101 Y95.064 E0.01342
G1 X141.489 Y94.608 E0.02417
G1 X141.176 Y94.323 E0.01342
G1 X140.662 Y93.758 E0.02420
G1 X140.403 Y93.409 E0.01377
G1 X140.007 Y92.754 E0.02423
G1 X139.933 Y92.588 E0.00575
G1 X132.264 Y84.919 E0.34363
G1 X131.922 Y85.116 E0.01250
G1 X147.736 Y100.930 E0.70855
G1 X147.197 Y100.930 E0.01707
G1 X131.580 Y85.312 E0.69973
G1 X131.238 Y85.509 E0.01250
G1 X146.658 Y100.930 E0.69092
G1 X146.120 Y100.930 E0.01707
G1 X130.896 Y85.706 E0.68210
G1 X130.554 Y85.903 E0.01250
G1 X145.581 Y100.930 E0.67328
G1 X145.042 Y100.930 E0.01707
G1 X130.212 Y86.100 E0.66446
G1 X129.870 Y86.297 E0.01250
G1 X143.857 Y100.284 E0.62669
G1 X142.588 Y99.554 E0.04640
G1 X129.528 Y86.493 E0.58514
G1 X129.186 Y86.690 E0.01250
G1 X141.318 Y98.823 E0.54360
G1 X140.049 Y98.092 E0.04640
G1 X129.234 Y87.277 E0.48457
M73 Q2 S60
G1 X129.292 Y87.874 E0.01901
G1 X139.352 Y97.934 E0.45072
G1 X138.813 Y97.934 E0.01707
G1 X129.328 Y88.450 E0.42495
G1 X129.354 Y89.014 E0.01789
G1 X138.274 Y97.934 E0.39967
G1 X137.735 Y97.934 E0.01707
G1 X129.377 Y89.576 E0.37449
G1 X129.377 Y90.115 E0.01707
G1 X136.692 Y97.430 E0.32774
G1 X135.423 Y96.699 E0.04640
G1 X129.360 Y90.637 E0.27162
G1 X129.337 Y91.153 E0.01635
G1 X134.153 Y95.969 E0.21578
G1 X132.884 Y95.238 E0.04640
G1 X129.314 Y91.668 E0.15994
G1 X129.271 Y92.164 E0.01575
G1 X131.615 Y94.508 E0.10502
G1 X130.345 Y93.777 E0.04640
G1 X129.066 Y92.498 E0.05732
; stop printing object SpringTip.stl id:0 copy 2
; printing object SpringTip.stl id:0 copy 3
;WIPE_START
G1 F8640.000
G1 X130.345 Y93.777 E-0.41780
G1 X131.615 Y94.508 E-0.33817
G1 X131.602 Y94.495 E-0.00403
;WIPE_END
G1 E-0.04000 F2100.000
G1 Z0.600 F10800.000
G1 X139.698 Y111.783
G1 Z0.200
G1 E0.80000 F2100.000
;TYPE:Perimeter
;WIDTH:0.42
G1 F1200.000
G1 X144.904 Y108.787 E0.18832
G1 X164.108 Y108.787 E0.60213
G1 X164.108 Y114.213 E0.17012
G1 X145.457 Y114.213 E0.58480
G1 X144.735 Y114.259 E0.02267
G1 X143.976 Y114.407 E0.02424
G1 X143.280 Y114.638 E0.02300
G1 X142.590 Y114.969 E0.02401
G1 X141.957 Y115.381 E0.02367
G1 X141.398 Y115.856 E0.02300
G1 X141.114 Y116.148 E0.01277
G1 X140.662 Y116.714 E0.02272
G1 X140.444 Y117.047 E0.01248
G1 X140.254 Y117.385 E0.01215
G1 X139.953 Y118.066 E0.02336
G1 X139.738 Y118.790 E0.02365
G1 X139.621 Y119.514 E0.02300
G1 X139.594 Y119.920 E0.01278
G1 X139.618 Y120.665 E0.02338
G1 X139.734 Y121.389 E0.02300
G1 X139.834 Y121.775 E0.01248
G1 X139.957 Y122.142 E0.01215
G1 X140.258 Y122.823 E0.02336
G1 X140.638 Y123.451 E0.02300
G1 X140.881 Y123.778 E0.01278
G1 X141.376 Y124.323 E0.02308
G1 X141.669 Y124.589 E0.01242
G1 X142.259 Y125.029 E0.02307
G1 X142.598 Y125.235 E0.01242
G1 X143.269 Y125.558 E0.02336
G1 X143.965 Y125.789 E0.02300
G1 X144.353 Y125.879 E0.01248
G1 X144.735 Y125.941 E0.01215
G1 X145.457 Y125.987 E0.02267
G1 X164.108 Y125.987 E0.58480
G1 X164.108 Y131.413 E0.17012
G1 X144.904 Y131.413 E0.60213
G1 X139.698 Y128.417 E0.18832
G1 X137.493 Y128.417 E0.06915
G1 X128.852 Y123.444 E0.31259
G1 X128.967 Y122.586 E0.02713
G1 X129.031 Y121.870 E0.02254
G1 X129.094 Y120.460 E0.04428
G1 X129.094 Y119.740 E0.02255
G1 X129.031 Y118.330 E0.04428
G1 X128.967 Y117.614 E0.02254
G1 X128.852 Y116.756 E0.02713
G1 X137.493 Y111.783 E0.31259
G1 X139.638 Y111.783 E0.06726
G1 X139.598 Y111.406 F10800.000
