; generated by PrusaSlicer 2.2.0+win64 on 2021-01-01 at 18:09:38 UTC

; 

; external perimeters extrusion width = 0.45mm
; perimeters extrusion width = 0.45mm
; infill extrusion width = 0.45mm
; solid infill extrusion width = 0.45mm
; top infill extrusion width = 0.40mm
; first layer extrusion width = 0.42mm

M73 P0 R8
M73 Q0 S8
M201 X1000 Y1000 Z200 E5000 ; sets maximum accelerations, mm/sec^2
M203 X200 Y200 Z12 E120 ; sets maximum feedrates, mm/sec
M204 P1250 R1250 T1250 ; sets acceleration (P, T) and retract acceleration (R), mm/sec^2
M205 X8.00 Y8.00 Z0.40 E4.50 ; sets the jerk limits, mm/sec
M205 S0 T0 ; sets the minimum extruding and travel feed rate, mm/sec
M107
M862.3 P "MK3SMMU2S" ; printer model check
M862.1 P0.4 ; nozzle diameter check
M115 U3.9.1 ; tell printer latest fw version
G90 ; use absolute coordinates
M83 ; extruder relative mode
M104 S215 ; set extruder temp
M140 S60 ; set bed temp
Tx
M190 S60 ; wait for bed temp
M109 S215 ; wait for extruder temp
G28 W ; home all without mesh bed level
G80 ; mesh bed leveling

;go outside print area
G1 Y-3.0 F1000.0
G1 Z0.4 F1000.0
; select extruder
Tc
; purge line
G1 X55.0 F2000.0
G1 Z0.3 F1000.0
G92 E0.0
G1 X240.0 E25.0 F2200.0
M73 Q1 S8
M73 P1 R8
G1 Y-2.0 F1000.0
G1 X55.0 E25 F1400.0
G1 Z0.20 F1000.0
G1 X5.0 E4.0 F1000.0

M221 S95
G92 E0.0

; Don't change E values below. Excessive value can damage the printer.

M907 E538 ; set extruder motor current
G21 ; set units to millimeters
G90 ; use absolute coordinates
M83 ; use relative distances for extrusion
M900 K0.06 ; Filament gcode LA 1.5
M900 K30 ; Filament gcode LA 1.0
;BEFORE_LAYER_CHANGE
G92 E0.0
;0.2


G1 E-0.80000 F2100.00000
G1 Z0.600 F10800.000
;AFTER_LAYER_CHANGE
;0.2
G1 X97.140 Y93.952
G1 Z0.200
G1 E0.80000 F2100.00000
M204 S1000
G1 F1200.000
G1 X107.820 Y87.770 E0.38692
G1 X109.200 Y87.047 E0.04885
G1 X112.137 Y85.880 E0.09909
G1 X116.478 Y84.469 E0.14312
G1 X119.449 Y83.657 E0.09657
G1 X122.267 Y83.000 E0.09072
G1 X126.973 Y82.134 E0.15002
G1 X129.984 Y81.730 E0.09527
G1 X133.031 Y81.439 E0.09598
G1 X136.087 Y81.265 E0.09598
G1 X139.152 Y81.206 E0.09610
G1 X140.040 Y81.380 E0.02837
G1 X140.801 Y81.876 E0.02849
G1 X141.321 Y82.621 E0.02849
G1 X141.523 Y83.506 E0.02849
G1 X141.524 Y126.462 E1.34685
G1 X141.459 Y126.971 E0.01609
G1 X141.284 Y127.458 E0.01621
G1 X141.009 Y127.895 E0.01621
G1 X140.648 Y128.260 E0.01609
G1 X139.944 Y128.656 E0.02532
G1 X139.149 Y128.794 E0.02532
G1 X134.558 Y128.662 E0.14399
G1 X129.988 Y128.270 E0.14383
G1 X126.950 Y127.863 E0.09610
G1 X123.912 Y127.337 E0.09668
G1 X119.474 Y126.349 E0.14253
G1 X116.514 Y125.542 E0.09621
G1 X112.115 Y124.112 E0.14503
G1 X109.972 Y123.300 E0.07184
G1 X108.558 Y122.633 E0.04903
G1 X97.434 Y116.253 E0.40207
G1 X96.796 Y115.705 E0.02637
G1 X96.411 Y115.030 E0.02437
G1 X96.264 Y114.266 E0.02437
G1 X96.263 Y95.758 E0.58032
G1 X96.328 Y95.245 E0.01621
G1 X96.501 Y94.758 E0.01621
G1 X96.776 Y94.320 E0.01621
G1 X97.097 Y93.995 E0.01433
G1 F8640.000
G1 X99.944 Y92.342 E-0.76000
G1 E-0.04000 F2100.00000
G1 Z0.800 F10800.000
G1 X112.601 Y102.321
G1 Z0.200
G1 E0.80000 F2100.00000
G1 F1200.000
G1 X112.846 Y101.898 E0.01532
G1 X113.058 Y101.587 E0.01182
G1 X113.325 Y101.248 E0.01352
G1 X113.619 Y100.928 E0.01362
G1 X113.978 Y100.595 E0.01536
G1 X114.318 Y100.327 E0.01357
G1 X114.628 Y100.115 E0.01177
G1 X115.002 Y99.897 E0.01357
G1 X115.443 Y99.684 E0.01536
G1 X115.847 Y99.528 E0.01357
G1 X116.206 Y99.418 E0.01177
G1 X116.627 Y99.319 E0.01357
G1 X117.112 Y99.246 E0.01536
G1 X117.545 Y99.216 E0.01361
G1 X117.971 Y99.218 E0.01337
G1 X118.357 Y99.247 E0.01213
G1 X118.830 Y99.318 E0.01502
G1 X119.252 Y99.416 E0.01357
G1 X119.620 Y99.530 E0.01208
G1 X120.022 Y99.686 E0.01353
G1 X120.414 Y99.872 E0.01361
G1 X120.829 Y100.112 E0.01502
G1 X121.149 Y100.330 E0.01212
G1 X121.487 Y100.597 E0.01353
G1 X121.807 Y100.891 E0.01361
G1 X122.133 Y101.243 E0.01505
G1 X122.402 Y101.584 E0.01361
G1 X122.644 Y101.941 E0.01353
G1 X122.837 Y102.275 E0.01208
G1 X123.026 Y102.664 E0.01357
G1 X123.201 Y103.111 E0.01505
G1 X123.327 Y103.525 E0.01357
G1 X123.413 Y103.902 E0.01212
G1 X123.485 Y104.376 E0.01502
G1 X123.515 Y104.809 E0.01361
G1 X123.513 Y105.240 E0.01353
G1 X123.484 Y105.624 E0.01208
G1 X123.422 Y106.053 E0.01357
G1 X123.315 Y106.519 E0.01502
G1 X123.201 Y106.889 E0.01212
G1 X123.045 Y107.293 E0.01357
G1 X122.837 Y107.725 E0.01505
G1 X122.619 Y108.099 E0.01357
G1 X122.401 Y108.417 E0.01208
G1 X122.134 Y108.756 E0.01353
G1 X121.840 Y109.075 E0.01361
G1 X121.488 Y109.402 E0.01505
G1 X121.148 Y109.671 E0.01361
G1 X120.789 Y109.913 E0.01357
G1 X120.414 Y110.128 E0.01353
G1 X120.066 Y110.295 E0.01212
G1 X119.621 Y110.470 E0.01498
G1 X119.252 Y110.584 E0.01212
G1 X118.832 Y110.682 E0.01353
G1 X118.403 Y110.748 E0.01361
G1 X117.924 Y110.784 E0.01506
G1 X117.486 Y110.782 E0.01372
G1 X117.112 Y110.754 E0.01178
G1 X116.683 Y110.692 E0.01357
G1 X116.206 Y110.583 E0.01536
G1 X115.793 Y110.453 E0.01357
G1 X115.443 Y110.316 E0.01177
G1 X115.052 Y110.130 E0.01357
G1 X114.629 Y109.886 E0.01532
G1 X114.318 Y109.673 E0.01182
G1 X113.979 Y109.406 E0.01352
G1 X113.659 Y109.112 E0.01362
G1 X113.326 Y108.753 E0.01536
G1 X113.057 Y108.412 E0.01362
G1 X112.815 Y108.053 E0.01357
G1 X112.601 Y107.679 E0.01352
G1 X112.438 Y107.339 E0.01182
G1 X112.260 Y106.886 E0.01527
G1 X112.149 Y106.525 E0.01182
G1 X112.051 Y106.106 E0.01352
G1 X111.984 Y105.676 E0.01362
G1 X111.947 Y105.188 E0.01536
G1 X111.949 Y104.755 E0.01357
G1 X111.977 Y104.381 E0.01177
G1 X112.040 Y103.952 E0.01357
G1 X112.148 Y103.476 E0.01532
G1 X112.259 Y103.116 E0.01182
G1 X112.415 Y102.713 E0.01352
G1 X112.576 Y102.375 E0.01174
G1 X112.916 Y102.537 F10800.000
G1 F1200.000
G1 X113.165 Y102.099 E0.01580
G1 X113.362 Y101.810 E0.01097
G1 X113.612 Y101.493 E0.01267
G1 X113.886 Y101.194 E0.01270
G1 X114.223 Y100.882 E0.01442
G1 X114.541 Y100.631 E0.01268
G1 X114.830 Y100.434 E0.01095
G1 X115.179 Y100.230 E0.01268
G1 X115.593 Y100.031 E0.01442
G1 X115.971 Y99.885 E0.01268
G1 X116.304 Y99.782 E0.01095
G1 X116.698 Y99.690 E0.01268
G1 X117.153 Y99.621 E0.01442
G1 X117.557 Y99.593 E0.01270
G1 X117.956 Y99.595 E0.01251
G1 X118.315 Y99.622 E0.01127
G1 X118.759 Y99.689 E0.01410
G1 X119.153 Y99.780 E0.01268
G1 X119.496 Y99.886 E0.01125
G1 X119.873 Y100.032 E0.01267
G1 X120.239 Y100.206 E0.01270
G1 X120.628 Y100.431 E0.01410
G1 X120.925 Y100.634 E0.01126
G1 X121.242 Y100.884 E0.01267
G1 X121.540 Y101.158 E0.01270
G1 X121.847 Y101.489 E0.01412
G1 X122.098 Y101.806 E0.01270
G1 X122.324 Y102.141 E0.01267
G1 X122.503 Y102.452 E0.01125
G1 X122.680 Y102.816 E0.01268
G1 X122.845 Y103.235 E0.01412
G1 X122.963 Y103.622 E0.01268
G1 X123.042 Y103.972 E0.01126
G1 X123.110 Y104.417 E0.01410
G1 X123.138 Y104.821 E0.01270
G1 X123.136 Y105.225 E0.01267
G1 X123.109 Y105.583 E0.01125
G1 X123.051 Y105.983 E0.01268
G1 X122.951 Y106.422 E0.01410
G1 X122.845 Y106.765 E0.01126
G1 X122.699 Y107.142 E0.01268
G1 X122.503 Y107.548 E0.01412
G1 X122.300 Y107.898 E0.01268
G1 X122.097 Y108.194 E0.01125
G1 X121.847 Y108.511 E0.01267
G1 X121.573 Y108.809 E0.01270
G1 X121.243 Y109.115 E0.01412
G1 X120.925 Y109.367 E0.01270
G1 X120.590 Y109.593 E0.01268
G1 X120.239 Y109.794 E0.01267
G1 X119.915 Y109.949 E0.01126
G1 X119.497 Y110.114 E0.01409
G1 X119.153 Y110.220 E0.01126
G1 X118.760 Y110.311 E0.01267
G1 X118.360 Y110.373 E0.01270
G1 X117.911 Y110.407 E0.01412
G1 X117.501 Y110.405 E0.01283
G1 X117.153 Y110.379 E0.01095
G1 X116.753 Y110.321 E0.01268
G1 X116.304 Y110.218 E0.01442
G1 X115.918 Y110.097 E0.01268
G1 X115.593 Y109.969 E0.01095
G1 X115.228 Y109.796 E0.01268
G1 X114.830 Y109.566 E0.01440
G1 X114.541 Y109.369 E0.01097
G1 X114.224 Y109.119 E0.01267
G1 X113.925 Y108.845 E0.01270
G1 X113.613 Y108.508 E0.01442
G1 X113.362 Y108.190 E0.01270
G1 X113.136 Y107.854 E0.01268
G1 X112.935 Y107.503 E0.01267
G1 X112.784 Y107.188 E0.01097
G1 X112.616 Y106.761 E0.01438
G1 X112.513 Y106.427 E0.01097
G1 X112.421 Y106.033 E0.01267
G1 X112.359 Y105.633 E0.01270
G1 X112.324 Y105.175 E0.01442
G1 X112.326 Y104.770 E0.01268
G1 X112.352 Y104.422 E0.01095
G1 X112.411 Y104.021 E0.01268
G1 X112.513 Y103.574 E0.01440
G1 X112.616 Y103.239 E0.01097
G1 X112.762 Y102.863 E0.01267
G1 X112.890 Y102.591 E0.00941
G1 X112.701 Y102.200 F10800.000
G1 F8640.000
G1 X113.165 Y102.099 E-0.13021
G1 X113.362 Y101.810 E-0.08077
G1 X113.612 Y101.493 E-0.09329
G1 X113.886 Y101.194 E-0.09354
G1 X114.223 Y100.882 E-0.10618
G1 X114.541 Y100.631 E-0.09341
G1 X114.830 Y100.434 E-0.08065
G1 X115.136 Y100.255 E-0.08195
G1 E-0.04000 F2100.00000
G1 Z0.800 F10800.000
G1 X99.624 Y96.138
G1 Z0.200
G1 E0.80000 F2100.00000
G1 F1200.000
G1 X109.388 Y90.519 E0.35321
G1 X109.982 Y90.192 E0.02127
G1 X110.583 Y89.893 E0.02102
G1 X111.194 Y89.619 E0.02102
G1 X111.820 Y89.367 E0.02115
G1 X113.196 Y88.862 E0.04597
G1 X114.586 Y88.381 E0.04610
G1 X115.984 Y87.926 E0.04610
G1 X117.391 Y87.499 E0.04610
G1 X118.806 Y87.098 E0.04610
G1 X120.228 Y86.724 E0.04610
G1 X121.657 Y86.377 E0.04610
G1 X123.092 Y86.058 E0.04610
G1 X124.533 Y85.766 E0.04610
G1 X125.979 Y85.502 E0.04610
G1 X127.430 Y85.265 E0.04610
G1 X128.886 Y85.055 E0.04610
G1 X130.346 Y84.874 E0.04613
G1 X132.857 Y84.600 E0.07921
G1 X132.716 Y84.749 E0.00644
G1 X132.492 Y85.066 E0.01217
G1 X132.315 Y85.399 E0.01182
G1 X132.176 Y85.740 E0.01156
G1 X132.080 Y86.057 E0.01037
G1 X132.006 Y86.415 E0.01146
G1 X131.966 Y86.780 E0.01153
G1 X131.962 Y87.146 E0.01146
G1 X131.993 Y87.512 E0.01152
G1 X132.058 Y87.871 E0.01146
G1 X132.147 Y88.192 E0.01042
G1 X132.291 Y88.565 E0.01254
G1 X132.437 Y88.862 E0.01036
G1 X132.608 Y89.141 E0.01029
G1 X132.824 Y89.434 E0.01141
G1 X133.070 Y89.708 E0.01152
G1 X133.340 Y89.956 E0.01152
G1 X133.633 Y90.178 E0.01152
G1 X133.945 Y90.370 E0.01148
G1 X134.275 Y90.531 E0.01151
G1 X134.617 Y90.660 E0.01147
G1 X134.935 Y90.748 E0.01034
G1 X135.295 Y90.813 E0.01146
G1 X135.661 Y90.844 E0.01152
G1 X136.026 Y90.840 E0.01146
G1 X136.392 Y90.800 E0.01153
G1 X136.750 Y90.726 E0.01146
G1 X137.066 Y90.631 E0.01035
G1 X137.406 Y90.493 E0.01152
G1 X137.735 Y90.320 E0.01165
G1 X138.051 Y90.106 E0.01197
G1 X138.396 Y89.781 E0.01487
G1 X138.362 Y90.550 E0.02413
G1 X138.361 Y118.949 E0.89045
G1 X138.374 Y119.973 E0.03210
G1 X138.396 Y120.214 E0.00757
G1 X138.127 Y119.955 E0.01170
G1 X137.816 Y119.730 E0.01207
G1 X137.490 Y119.547 E0.01169
G1 X137.152 Y119.401 E0.01155
G1 X136.838 Y119.298 E0.01036
G1 X136.482 Y119.215 E0.01145
G1 X136.118 Y119.167 E0.01152
G1 X135.752 Y119.154 E0.01147
G1 X135.423 Y119.173 E0.01036
G1 X135.027 Y119.232 E0.01254
G1 X134.704 Y119.313 E0.01042
G1 X134.359 Y119.433 E0.01146
G1 X134.026 Y119.587 E0.01152
G1 X133.710 Y119.771 E0.01146
G1 X133.411 Y119.986 E0.01153
G1 X133.136 Y120.227 E0.01146
G1 X132.909 Y120.465 E0.01034
G1 X132.681 Y120.752 E0.01147
G1 X132.482 Y121.059 E0.01149
G1 X132.312 Y121.384 E0.01149
G1 X132.175 Y121.724 E0.01147
G1 X132.080 Y122.039 E0.01034
G1 X132.006 Y122.397 E0.01146
G1 X131.966 Y122.763 E0.01153
G1 X131.962 Y123.128 E0.01146
G1 X131.993 Y123.494 E0.01152
G1 X132.058 Y123.854 E0.01147
G1 X132.147 Y124.173 E0.01036
G1 X132.277 Y124.517 E0.01154
G1 X132.444 Y124.852 E0.01175
G1 X132.635 Y125.143 E0.01092
G1 X132.856 Y125.400 E0.01063
G1 X130.346 Y125.126 E0.07920
G1 X128.886 Y124.945 E0.04613
G1 X127.430 Y124.735 E0.04610
G1 X125.979 Y124.498 E0.04610
G1 X124.533 Y124.234 E0.04610
G1 X123.092 Y123.942 E0.04610
G1 X121.657 Y123.623 E0.04610
G1 X120.228 Y123.276 E0.04610
G1 X118.806 Y122.902 E0.04610
G1 X117.391 Y122.501 E0.04610
G1 X115.984 Y122.074 E0.04610
G1 X114.586 Y121.619 E0.04610
G1 X113.196 Y121.138 E0.04610
G1 X111.820 Y120.633 E0.04597
G1 X111.194 Y120.381 E0.02115
G1 X110.583 Y120.107 E0.02102
G1 X109.982 Y119.808 E0.02102
G1 X109.388 Y119.481 E0.02127
G1 X99.624 Y113.862 E0.35321
G1 X99.961 Y113.006 E0.02885
G1 X100.224 Y112.229 E0.02573
G1 X100.459 Y111.447 E0.02559
G1 X100.667 Y110.658 E0.02559
G1 X100.847 Y109.862 E0.02559
G1 X101.000 Y109.061 E0.02559
G1 X101.126 Y108.254 E0.02559
G1 X101.223 Y107.444 E0.02559
G1 X101.293 Y106.631 E0.02559
G1 X101.335 Y105.816 E0.02559
G1 X101.349 Y105.000 E0.02559
G1 X101.335 Y104.184 E0.02559
G1 X101.293 Y103.369 E0.02559
G1 X101.223 Y102.556 E0.02559
G1 X101.126 Y101.746 E0.02559
G1 X101.000 Y100.939 E0.02559
G1 X100.847 Y100.138 E0.02559
G1 X100.667 Y99.342 E0.02559
G1 X100.459 Y98.553 E0.02559
G1 X100.224 Y97.771 E0.02559
G1 X99.961 Y96.994 E0.02573
G1 X99.646 Y96.193 E0.02697
G1 X99.154 Y95.973 F10800.000
G1 F1200.000
G1 X109.203 Y90.190 E0.36354
G1 X109.808 Y89.858 E0.02162
G1 X110.421 Y89.552 E0.02149
G1 X111.047 Y89.272 E0.02149
G1 X111.685 Y89.015 E0.02156
G1 X113.070 Y88.506 E0.04626
G1 X114.466 Y88.023 E0.04633
G1 X115.871 Y87.567 E0.04633
G1 X117.285 Y87.137 E0.04633
G1 X118.706 Y86.734 E0.04633
G1 X120.135 Y86.359 E0.04633
G1 X121.571 Y86.010 E0.04633
G1 X123.013 Y85.689 E0.04633
G1 X124.461 Y85.396 E0.04633
G1 X125.915 Y85.130 E0.04633
G1 X127.373 Y84.892 E0.04633
G1 X128.836 Y84.682 E0.04633
G1 X130.302 Y84.499 E0.04634
G1 X132.768 Y84.233 E0.07776
G1 X133.273 Y84.121 E0.01623
G1 X133.741 Y83.986 E0.01528
G1 X134.734 Y83.931 E0.03116
G1 X134.292 Y84.117 E0.01504
G1 X133.811 Y84.401 E0.01750
G1 X133.527 Y84.536 E0.00987
G1 X133.245 Y84.738 E0.01088
G1 X133.008 Y84.988 E0.01079
G1 X132.814 Y85.264 E0.01058
G1 X132.657 Y85.559 E0.01047
G1 X132.532 Y85.866 E0.01040
G1 X132.446 Y86.150 E0.00929
G1 X132.379 Y86.473 E0.01036
G1 X132.343 Y86.803 E0.01040
G1 X132.339 Y87.132 E0.01032
G1 X132.367 Y87.462 E0.01038
G1 X132.426 Y87.787 E0.01037
G1 X132.505 Y88.074 E0.00931
G1 X132.637 Y88.414 E0.01143
G1 X132.767 Y88.679 E0.00928
G1 X132.921 Y88.930 E0.00923
G1 X133.117 Y89.196 E0.01035
G1 X133.338 Y89.442 E0.01039
G1 X133.582 Y89.667 E0.01039
G1 X133.846 Y89.866 E0.01039
G1 X134.127 Y90.039 E0.01034
G1 X134.424 Y90.185 E0.01037
G1 X134.734 Y90.301 E0.01037
G1 X135.019 Y90.380 E0.00928
G1 X135.344 Y90.439 E0.01037
G1 X135.674 Y90.467 E0.01038
G1 X136.003 Y90.463 E0.01032
G1 X136.333 Y90.427 E0.01040
G1 X136.657 Y90.360 E0.01036
G1 X136.940 Y90.275 E0.00929
G1 X137.247 Y90.150 E0.01038
G1 X137.541 Y89.996 E0.01041
G1 X137.819 Y89.808 E0.01052
G1 X138.073 Y89.581 E0.01067
G1 X138.269 Y89.341 E0.00972
G1 X138.442 Y89.045 E0.01076
G1 X138.548 Y88.758 E0.00959
G1 X138.690 Y88.514 E0.00884
G1 X138.820 Y88.232 E0.00973
G1 X138.935 Y87.885 E0.01146
G1 X138.938 Y88.556 E0.02101
G1 X138.897 Y89.033 E0.01502
G1 X138.799 Y89.530 E0.01589
G1 X138.750 Y90.046 E0.01625
G1 X138.739 Y90.554 E0.01593
G1 X138.738 Y118.947 E0.89024
G1 X138.750 Y119.953 E0.03155
G1 X138.799 Y120.470 E0.01629
G1 X138.898 Y120.967 E0.01588
G1 X138.938 Y121.445 E0.01502
G1 X138.938 Y122.118 E0.02112
G1 X138.848 Y121.840 E0.00916
G1 X138.725 Y121.555 E0.00973
G1 X138.583 Y121.299 E0.00918
G1 X138.337 Y120.763 E0.01850
G1 X138.132 Y120.482 E0.01089
G1 X137.885 Y120.245 E0.01073
G1 X137.612 Y120.048 E0.01056
G1 X137.323 Y119.886 E0.01040
G1 X137.018 Y119.754 E0.01041
G1 X136.737 Y119.661 E0.00929
G1 X136.415 Y119.587 E0.01036
G1 X136.086 Y119.543 E0.01039
G1 X135.757 Y119.531 E0.01034
G1 X135.461 Y119.548 E0.00927
G1 X135.101 Y119.602 E0.01143
G1 X134.813 Y119.674 E0.00931
G1 X134.501 Y119.783 E0.01037
G1 X134.200 Y119.922 E0.01039
G1 X133.915 Y120.088 E0.01032
G1 X133.646 Y120.281 E0.01039
G1 X133.398 Y120.499 E0.01036
G1 X133.193 Y120.713 E0.00928
G1 X132.988 Y120.972 E0.01037
G1 X132.808 Y121.249 E0.01036
G1 X132.655 Y121.542 E0.01035
G1 X132.532 Y121.849 E0.01037
G1 X132.446 Y122.132 E0.00928
G1 X132.379 Y122.456 E0.01036
G1 X132.343 Y122.786 E0.01040
G1 X132.339 Y123.115 E0.01032
G1 X132.367 Y123.445 E0.01038
G1 X132.426 Y123.770 E0.01037
G1 X132.505 Y124.055 E0.00929
G1 X132.623 Y124.366 E0.01039
G1 X132.772 Y124.664 E0.01045
G1 X132.937 Y124.916 E0.00946
G1 X133.183 Y125.201 E0.01180
G1 X133.453 Y125.415 E0.01081
G1 X134.228 Y125.848 E0.02783
G1 X134.502 Y125.983 E0.00959
G1 X134.762 Y126.082 E0.00871
G1 X133.743 Y126.013 E0.03203
G1 X133.273 Y125.879 E0.01532
G1 X132.768 Y125.767 E0.01622
G1 X130.302 Y125.501 E0.07776
G1 X128.836 Y125.318 E0.04634
G1 X127.373 Y125.108 E0.04633
