; generated by PrusaSlicer 2.2.0+win64 on 2021-01-06 at 20:54:32 UTC

; 

; external perimeters extrusion width = 0.45mm
; perimeters extrusion width = 0.45mm
; infill extrusion width = 0.45mm
; solid infill extrusion width = 0.45mm
; top infill extrusion width = 0.40mm
; first layer extrusion width = 0.42mm

M73 P0 R10
M73 Q0 S10
M201 X1000 Y1000 Z200 E5000 ; sets maximum accelerations, mm/sec^2
M203 X200 Y200 Z12 E120 ; sets maximum feedrates, mm/sec
M204 P1250 R1250 T1250 ; sets acceleration (P, T) and retract acceleration (R), mm/sec^2
M205 X8.00 Y8.00 Z0.40 E4.50 ; sets the jerk limits, mm/sec
M205 S0 T0 ; sets the minimum extruding and travel feed rate, mm/sec
M107
M862.3 P "MK3SMMU2S" ; printer model check
M862.1 P0.4 ; nozzle diameter check
M115 U3.9.1 ; tell printer latest fw version
G90 ; use absolute coordinates
M83 ; extruder relative mode
M104 S215 ; set extruder temp
M140 S60 ; set bed temp
Tx
M190 S60 ; wait for bed temp
M109 S215 ; wait for extruder temp
G28 W ; home all without mesh bed level
G80 ; mesh bed leveling

;go outside print area
G1 Y-3.0 F1000.0
G1 Z0.4 F1000.0
; select extruder
Tc
; purge line
G1 X55.0 F2000.0
G1 Z0.3 F1000.0
G92 E0.0
G1 X240.0 E25.0 F2200.0
M73 Q1 S10
M73 P1 R10
G1 Y-2.0 F1000.0
G1 X55.0 E25 F1400.0
G1 Z0.20 F1000.0
G1 X5.0 E4.0 F1000.0

M221 S95
G92 E0.0

; Don't change E values below. Excessive value can damage the printer.

M907 E538 ; set extruder motor current
G21 ; set units to millimeters
G90 ; use absolute coordinates
M83 ; use relative distances for extrusion
M900 K0.05 ; Filament gcode LA 1.5
M900 K30 ; Filament gcode LA 1.0
;BEFORE_LAYER_CHANGE
G92 E0.0
;0.2


G1 E-0.80000 F2100.00000
G1 Z0.600 F10800.000
;AFTER_LAYER_CHANGE
;0.2
G1 X101.879 Y86.075
G1 Z0.200
G1 E0.80000 F2100.00000
M204 S1000
G1 F1200.000
G1 X103.901 Y83.845 E0.09439
G1 X106.137 Y81.829 E0.09439
G1 X108.564 Y80.049 E0.09439
G1 X111.158 Y78.521 E0.09439
G1 X113.858 Y77.278 E0.09319
G1 X116.571 Y76.338 E0.09004
G1 X118.728 Y75.788 E0.06978
G1 X121.661 Y75.309 E0.09320
G1 X124.693 Y75.124 E0.09522
G1 X127.674 Y75.242 E0.09355
G1 X130.655 Y75.663 E0.09439
G1 X133.578 Y76.381 E0.09439
G1 X136.411 Y77.388 E0.09427
G1 X139.132 Y78.676 E0.09439
G1 X141.709 Y80.232 E0.09439
G1 X144.116 Y82.039 E0.09439
G1 X146.303 Y84.053 E0.09319
G1 X148.324 Y86.330 E0.09546
G1 X150.040 Y88.705 E0.09186
G1 X151.138 Y90.529 E0.06677
G1 X152.462 Y93.237 E0.09450
G1 X153.496 Y96.024 E0.09320
G1 X154.254 Y98.937 E0.09439
G1 X154.716 Y101.912 E0.09439
G1 X154.876 Y104.918 E0.09439
G1 X154.733 Y107.921 E0.09427
G1 X154.288 Y110.898 E0.09439
G1 X153.545 Y113.815 E0.09439
G1 X152.528 Y116.608 E0.09319
G1 X151.206 Y119.346 E0.09534
G1 X149.773 Y121.693 E0.08619
G1 X148.414 Y123.556 E0.07232
G1 X146.420 Y125.826 E0.09474
G1 X144.245 Y127.852 E0.09320
G1 X141.847 Y129.673 E0.09439
G1 X139.279 Y131.243 E0.09439
G1 X136.565 Y132.547 E0.09439
G1 X133.735 Y133.571 E0.09439
G1 X130.819 Y134.304 E0.09427
G1 X127.841 Y134.741 E0.09439
G1 X124.852 Y134.876 E0.09379
G1 X121.828 Y134.708 E0.09498
G1 X118.854 Y134.238 E0.09439
G1 X115.943 Y133.471 E0.09439
G1 X113.159 Y132.430 E0.09319
G1 X111.273 Y131.537 E0.06544
G1 X108.672 Y130.021 E0.09439
G1 X106.267 Y128.275 E0.09320
G1 X103.995 Y126.247 E0.09546
G1 X101.985 Y124.053 E0.09331
G1 X100.185 Y121.640 E0.09439
G1 X98.638 Y119.062 E0.09427
G1 X97.357 Y116.338 E0.09439
G1 X96.355 Y113.495 E0.09451
G1 X95.646 Y110.573 E0.09427
G1 X95.234 Y107.591 E0.09439
G1 X95.124 Y104.621 E0.09319
G1 X95.318 Y101.583 E0.09546
G1 X95.796 Y98.692 E0.09187
G1 X96.319 Y96.628 E0.06677
G1 X97.308 Y93.781 E0.09450
G1 X98.560 Y91.085 E0.09320
G1 X100.094 Y88.495 E0.09439
G1 X101.843 Y86.124 E0.09239
G1 F8640.000
G1 X103.901 Y83.845 E-0.70888
G1 X104.065 Y83.697 E-0.05112
G1 E-0.04000 F2100.00000
G1 Z0.800 F10800.000
G1 X106.460 Y91.091
G1 Z0.200
G1 E0.80000 F2100.00000
G1 F1200.000
G1 X106.995 Y90.387 E0.02772
G1 X107.512 Y89.772 E0.02520
G1 X108.047 Y89.178 E0.02507
G1 X108.603 Y88.604 E0.02507
G1 X109.178 Y88.048 E0.02507
G1 X109.772 Y87.513 E0.02507
G1 X110.387 Y86.995 E0.02520
G1 X111.091 Y86.461 E0.02772
G1 X110.982 Y86.261 E0.00712
G1 X110.865 Y85.934 E0.01091
G1 X110.791 Y85.605 E0.01056
G1 X110.757 Y85.270 E0.01056
G1 X110.764 Y84.934 E0.01056
G1 X110.811 Y84.600 E0.01056
G1 X110.898 Y84.275 E0.01056
G1 X111.024 Y83.962 E0.01056
G1 X111.186 Y83.668 E0.01056
G1 X111.383 Y83.394 E0.01056
G1 X111.612 Y83.147 E0.01056
G1 X111.868 Y82.929 E0.01056
G1 X112.149 Y82.743 E0.01056
G1 X112.450 Y82.593 E0.01056
G1 X112.767 Y82.479 E0.01056
G1 X113.096 Y82.405 E0.01056
G1 X113.431 Y82.372 E0.01056
G1 X113.768 Y82.378 E0.01056
G1 X114.101 Y82.426 E0.01056
G1 X114.426 Y82.513 E0.01056
G1 X114.739 Y82.639 E0.01056
G1 X115.034 Y82.801 E0.01056
G1 X115.307 Y82.998 E0.01056
G1 X115.554 Y83.226 E0.01056
G1 X115.780 Y83.491 E0.01091
G1 X115.898 Y83.685 E0.00712
G1 X116.713 Y83.343 E0.02772
G1 X117.468 Y83.069 E0.02520
G1 X118.229 Y82.822 E0.02507
G1 X118.997 Y82.602 E0.02507
G1 X119.773 Y82.409 E0.02507
G1 X120.555 Y82.242 E0.02507
G1 X121.346 Y82.102 E0.02520
G1 X122.223 Y81.990 E0.02772
G1 X122.229 Y81.763 E0.00712
G1 X122.291 Y81.421 E0.01091
G1 X122.391 Y81.100 E0.01056
G1 X122.530 Y80.793 E0.01056
G1 X122.704 Y80.504 E0.01056
G1 X122.911 Y80.239 E0.01056
G1 X123.150 Y80.001 E0.01056
G1 X123.415 Y79.794 E0.01056
G1 X123.703 Y79.619 E0.01056
G1 X124.010 Y79.481 E0.01056
G1 X124.334 Y79.380 E0.01065
G1 X124.690 Y79.319 E0.01131
G1 X124.999 Y79.300 E0.00971
G1 X125.335 Y79.320 E0.01056
G1 X125.666 Y79.381 E0.01056
G1 X125.988 Y79.481 E0.01056
G1 X126.295 Y79.619 E0.01056
G1 X126.583 Y79.794 E0.01056
G1 X126.848 Y80.001 E0.01056
G1 X127.086 Y80.239 E0.01056
G1 X127.294 Y80.504 E0.01056
G1 X127.468 Y80.793 E0.01056
G1 X127.606 Y81.100 E0.01056
G1 X127.706 Y81.421 E0.01056
G1 X127.769 Y81.763 E0.01091
G1 X127.774 Y81.990 E0.00712
G1 X128.651 Y82.102 E0.02772
G1 X129.442 Y82.242 E0.02520
G1 X130.224 Y82.409 E0.02507
G1 X131.000 Y82.602 E0.02507
G1 X131.769 Y82.822 E0.02507
G1 X132.529 Y83.069 E0.02507
G1 X133.285 Y83.343 E0.02520
G1 X134.100 Y83.685 E0.02772
G1 X134.218 Y83.491 E0.00712
G1 X134.443 Y83.226 E0.01091
G1 X134.691 Y82.998 E0.01056
G1 X134.964 Y82.801 E0.01056
G1 X135.259 Y82.639 E0.01056
G1 X135.571 Y82.513 E0.01056
G1 X135.896 Y82.426 E0.01056
G1 X136.230 Y82.378 E0.01056
G1 X136.566 Y82.372 E0.01056
G1 X136.901 Y82.405 E0.01056
G1 X137.230 Y82.479 E0.01056
G1 X137.547 Y82.593 E0.01056
G1 X137.848 Y82.743 E0.01056
G1 X138.129 Y82.929 E0.01056
G1 X138.386 Y83.147 E0.01056
G1 X138.614 Y83.394 E0.01056
G1 X138.811 Y83.668 E0.01056
G1 X138.973 Y83.962 E0.01056
G1 X139.099 Y84.275 E0.01056
G1 X139.186 Y84.600 E0.01056
G1 X139.234 Y84.934 E0.01056
G1 X139.240 Y85.270 E0.01056
G1 X139.207 Y85.605 E0.01056
G1 X139.133 Y85.934 E0.01056
G1 X139.016 Y86.261 E0.01091
G1 X138.907 Y86.461 E0.00712
G1 X139.611 Y86.995 E0.02772
G1 X140.226 Y87.513 E0.02520
G1 X140.820 Y88.048 E0.02507
G1 X141.395 Y88.604 E0.02507
G1 X141.950 Y89.178 E0.02507
G1 X142.485 Y89.772 E0.02507
G1 X143.003 Y90.387 E0.02520
G1 X143.537 Y91.091 E0.02772
G1 X143.737 Y90.982 E0.00712
G1 X144.064 Y90.865 E0.01091
G1 X144.393 Y90.791 E0.01056
G1 X144.728 Y90.758 E0.01056
G1 X145.065 Y90.764 E0.01056
G1 X145.398 Y90.812 E0.01056
G1 X145.723 Y90.899 E0.01056
G1 X146.036 Y91.025 E0.01056
G1 X146.331 Y91.187 E0.01056
G1 X146.604 Y91.384 E0.01056
G1 X146.851 Y91.612 E0.01056
G1 X147.069 Y91.869 E0.01056
G1 X147.255 Y92.150 E0.01056
G1 X147.406 Y92.451 E0.01056
G1 X147.519 Y92.768 E0.01056
G1 X147.593 Y93.097 E0.01056
G1 X147.626 Y93.432 E0.01056
G1 X147.620 Y93.768 E0.01056
G1 X147.572 Y94.102 E0.01056
G1 X147.485 Y94.427 E0.01056
G1 X147.359 Y94.739 E0.01056
G1 X147.197 Y95.034 E0.01056
G1 X147.000 Y95.307 E0.01056
G1 X146.772 Y95.555 E0.01056
G1 X146.507 Y95.780 E0.01091
G1 X146.313 Y95.898 E0.00712
G1 X146.655 Y96.713 E0.02772
G1 X146.929 Y97.469 E0.02520
G1 X147.176 Y98.230 E0.02507
G1 X147.396 Y98.998 E0.02507
G1 X147.589 Y99.774 E0.02507
G1 X147.756 Y100.556 E0.02507
G1 X147.897 Y101.347 E0.02520
G1 X148.008 Y102.224 E0.02772
G1 X148.235 Y102.229 E0.00712
G1 X148.577 Y102.292 E0.01091
G1 X148.898 Y102.392 E0.01056
G1 X149.206 Y102.530 E0.01056
G1 X149.494 Y102.704 E0.01056
G1 X149.759 Y102.912 E0.01056
G1 X149.997 Y103.150 E0.01056
G1 X150.205 Y103.415 E0.01056
G1 X150.379 Y103.703 E0.01056
G1 X150.517 Y104.011 E0.01056
G1 X150.617 Y104.332 E0.01056
G1 X150.678 Y104.663 E0.01056
G1 X150.698 Y104.999 E0.01056
G1 X150.678 Y105.335 E0.01056
G1 X150.617 Y105.667 E0.01056
G1 X150.517 Y105.988 E0.01056
G1 X150.379 Y106.295 E0.01056
G1 X150.205 Y106.583 E0.01056
G1 X149.997 Y106.848 E0.01056
G1 X149.759 Y107.087 E0.01056
G1 X149.494 Y107.294 E0.01056
G1 X149.206 Y107.468 E0.01056
G1 X148.898 Y107.607 E0.01056
G1 X148.577 Y107.707 E0.01056
G1 X148.235 Y107.770 E0.01091
G1 X148.008 Y107.775 E0.00712
G1 X147.897 Y108.652 E0.02772
G1 X147.756 Y109.443 E0.02520
G1 X147.589 Y110.225 E0.02507
G1 X147.396 Y111.001 E0.02507
G1 X147.176 Y111.769 E0.02507
G1 X146.929 Y112.530 E0.02507
G1 X146.655 Y113.285 E0.02520
G1 X146.313 Y114.100 E0.02772
G1 X146.507 Y114.218 E0.00712
G1 X146.772 Y114.444 E0.01091
G1 X147.000 Y114.691 E0.01056
G1 X147.197 Y114.964 E0.01056
G1 X147.359 Y115.259 E0.01056
G1 X147.485 Y115.572 E0.01056
G1 X147.572 Y115.897 E0.01056
G1 X147.620 Y116.230 E0.01056
G1 X147.626 Y116.567 E0.01056
G1 X147.593 Y116.902 E0.01056
G1 X147.519 Y117.231 E0.01056
G1 X147.406 Y117.548 E0.01056
G1 X147.255 Y117.849 E0.01056
G1 X147.069 Y118.130 E0.01056
G1 X146.851 Y118.386 E0.01056
G1 X146.604 Y118.615 E0.01056
G1 X146.331 Y118.812 E0.01056
G1 X146.036 Y118.974 E0.01056
G1 X145.723 Y119.100 E0.01056
G1 X145.398 Y119.187 E0.01056
G1 X145.065 Y119.234 E0.01056
G1 X144.728 Y119.241 E0.01056
G1 X144.393 Y119.207 E0.01056
G1 X144.064 Y119.133 E0.01056
G1 X143.737 Y119.016 E0.01091
G1 X143.537 Y118.907 E0.00712
G1 X143.003 Y119.611 E0.02772
G1 X142.485 Y120.226 E0.02520
G1 X141.950 Y120.820 E0.02507
G1 X141.395 Y121.395 E0.02507
G1 X140.820 Y121.951 E0.02507
G1 X140.226 Y122.486 E0.02507
G1 X139.611 Y123.003 E0.02520
G1 X138.907 Y123.538 E0.02772
G1 X139.016 Y123.737 E0.00712
G1 X139.133 Y124.065 E0.01091
G1 X139.207 Y124.393 E0.01056
G1 X139.240 Y124.729 E0.01056
G1 X139.234 Y125.065 E0.01056
G1 X139.186 Y125.399 E0.01056
G1 X139.099 Y125.724 E0.01056
G1 X138.973 Y126.036 E0.01056
G1 X138.811 Y126.331 E0.01056
G1 X138.614 Y126.604 E0.01056
G1 X138.386 Y126.852 E0.01056
G1 X138.129 Y127.070 E0.01056
G1 X137.848 Y127.256 E0.01056
G1 X137.547 Y127.406 E0.01056
G1 X137.230 Y127.519 E0.01056
G1 X136.901 Y127.593 E0.01056
G1 X136.566 Y127.627 E0.01056
G1 X136.230 Y127.620 E0.01056
G1 X135.896 Y127.573 E0.01056
G1 X135.571 Y127.486 E0.01056
G1 X135.259 Y127.360 E0.01056
G1 X134.964 Y127.198 E0.01056
G1 X134.691 Y127.001 E0.01056
G1 X134.443 Y126.772 E0.01056
G1 X134.218 Y126.508 E0.01091
G1 X134.100 Y126.313 E0.00712
G1 X133.285 Y126.656 E0.02772
G1 X132.529 Y126.930 E0.02520
G1 X131.769 Y127.176 E0.02507
G1 X131.000 Y127.396 E0.02507
G1 X130.224 Y127.590 E0.02507
G1 X129.442 Y127.757 E0.02507
G1 X128.651 Y127.897 E0.02520
G1 X127.774 Y128.008 E0.02772
G1 X127.769 Y128.236 E0.00712
G1 X127.706 Y128.578 E0.01091
G1 X127.606 Y128.899 E0.01056
G1 X127.468 Y129.206 E0.01056
G1 X127.294 Y129.494 E0.01056
G1 X127.086 Y129.759 E0.01056
G1 X126.848 Y129.998 E0.01056
G1 X126.583 Y130.205 E0.01056
G1 X126.295 Y130.379 E0.01056
G1 X125.988 Y130.518 E0.01056
G1 X125.666 Y130.618 E0.01056
G1 X125.335 Y130.678 E0.01056
G1 X124.999 Y130.699 E0.01056
G1 X124.663 Y130.678 E0.01056
G1 X124.331 Y130.618 E0.01056
G1 X124.010 Y130.518 E0.01056
G1 X123.703 Y130.379 E0.01056
G1 X123.415 Y130.205 E0.01056
G1 X123.150 Y129.998 E0.01056
G1 X122.911 Y129.759 E0.01056
G1 X122.704 Y129.494 E0.01056
G1 X122.530 Y129.206 E0.01056
G1 X122.391 Y128.899 E0.01056
G1 X122.291 Y128.578 E0.01056
G1 X122.229 Y128.236 E0.01091
G1 X122.223 Y128.008 E0.00712
G1 X121.346 Y127.897 E0.02772
G1 X120.555 Y127.757 E0.02520
G1 X119.773 Y127.590 E0.02507
G1 X118.997 Y127.396 E0.02507
G1 X118.229 Y127.176 E0.02507
G1 X117.468 Y126.930 E0.02507
G1 X116.713 Y126.656 E0.02520
G1 X115.898 Y126.313 E0.02772
G1 X115.780 Y126.508 E0.00712
G1 X115.554 Y126.772 E0.01091
G1 X115.307 Y127.001 E0.01056
G1 X115.034 Y127.198 E0.01056
G1 X114.739 Y127.360 E0.01056
G1 X114.426 Y127.486 E0.01056
G1 X114.101 Y127.573 E0.01056
G1 X113.768 Y127.620 E0.01056
G1 X113.431 Y127.627 E0.01056
G1 X113.096 Y127.593 E0.01056
G1 X112.767 Y127.519 E0.01056
G1 X112.450 Y127.406 E0.01056
G1 X112.149 Y127.256 E0.01056
G1 X111.868 Y127.070 E0.01056
G1 X111.612 Y126.852 E0.01056
G1 X111.383 Y126.604 E0.01056
G1 X111.186 Y126.331 E0.01056
G1 X111.024 Y126.036 E0.01056
G1 X110.898 Y125.724 E0.01056
G1 X110.811 Y125.399 E0.01056
G1 X110.764 Y125.065 E0.01056
G1 X110.757 Y124.729 E0.01056
G1 X110.791 Y124.394 E0.01056
G1 X110.865 Y124.065 E0.01056
G1 X110.982 Y123.737 E0.01091
G1 X111.091 Y123.538 E0.00712
G1 X110.387 Y123.003 E0.02772
G1 X109.772 Y122.486 E0.02520
G1 X109.178 Y121.951 E0.02507
G1 X108.603 Y121.395 E0.02507
G1 X108.047 Y120.820 E0.02507
G1 X107.512 Y120.226 E0.02507
G1 X106.995 Y119.611 E0.02520
G1 X106.460 Y118.907 E0.02772
G1 X106.261 Y119.016 E0.00712
G1 X105.933 Y119.133 E0.01091
G1 X105.605 Y119.207 E0.01056
G1 X105.270 Y119.241 E0.01056
G1 X104.933 Y119.234 E0.01056
G1 X104.599 Y119.187 E0.01056
G1 X104.274 Y119.100 E0.01056
G1 X103.962 Y118.974 E0.01056
G1 X103.667 Y118.812 E0.01056
G1 X103.394 Y118.615 E0.01056
G1 X103.146 Y118.386 E0.01056
G1 X102.928 Y118.130 E0.01056
G1 X102.742 Y117.849 E0.01056
G1 X102.592 Y117.548 E0.01056
G1 X102.479 Y117.231 E0.01056
G1 X102.405 Y116.902 E0.01056
G1 X102.371 Y116.567 E0.01056
G1 X102.378 Y116.230 E0.01056
G1 X102.425 Y115.897 E0.01056
G1 X102.512 Y115.572 E0.01056
G1 X102.638 Y115.259 E0.01056
G1 X102.800 Y114.964 E0.01056
G1 X102.997 Y114.691 E0.01056
G1 X103.226 Y114.444 E0.01056
G1 X103.491 Y114.218 E0.01091
G1 X103.685 Y114.100 E0.00712
G1 X103.342 Y113.285 E0.02772
G1 X103.068 Y112.530 E0.02520
G1 X102.822 Y111.769 E0.02507
G1 X102.602 Y111.001 E0.02507
G1 X102.408 Y110.225 E0.02507
G1 X102.241 Y109.443 E0.02507
G1 X102.101 Y108.652 E0.02520
G1 X101.990 Y107.775 E0.02772
G1 X101.763 Y107.770 E0.00712
G1 X101.420 Y107.707 E0.01091
G1 X101.099 Y107.607 E0.01056
G1 X100.792 Y107.468 E0.01056
G1 X100.504 Y107.294 E0.01056
G1 X100.239 Y107.087 E0.01056
G1 X100.001 Y106.848 E0.01056
G1 X99.793 Y106.583 E0.01056
G1 X99.619 Y106.295 E0.01056
G1 X99.480 Y105.988 E0.01056
G1 X99.380 Y105.667 E0.01056
G1 X99.320 Y105.335 E0.01056
G1 X99.299 Y104.999 E0.01056
G1 X99.320 Y104.663 E0.01056
G1 X99.380 Y104.332 E0.01056
G1 X99.480 Y104.011 E0.01056
G1 X99.619 Y103.703 E0.01056
G1 X99.793 Y103.415 E0.01056
G1 X100.001 Y103.150 E0.01056
G1 X100.239 Y102.912 E0.01056
G1 X100.504 Y102.704 E0.01056
G1 X100.792 Y102.530 E0.01056
G1 X101.099 Y102.392 E0.01056
G1 X101.420 Y102.292 E0.01056
G1 X101.763 Y102.229 E0.01091
G1 X101.990 Y102.224 E0.00712
G1 X102.101 Y101.347 E0.02772
G1 X102.241 Y100.556 E0.02520
G1 X102.408 Y99.774 E0.02507
G1 X102.602 Y98.998 E0.02507
G1 X102.822 Y98.230 E0.02507
G1 X103.068 Y97.469 E0.02507
G1 X103.342 Y96.713 E0.02520
G1 X103.685 Y95.898 E0.02772
G1 X103.491 Y95.780 E0.00712
G1 X103.226 Y95.555 E0.01091
G1 X102.997 Y95.307 E0.01056
G1 X102.800 Y95.034 E0.01056
G1 X102.638 Y94.739 E0.01056
G1 X102.512 Y94.427 E0.01056
G1 X102.425 Y94.102 E0.01056
G1 X102.378 Y93.768 E0.01056
G1 X102.371 Y93.432 E0.01056
G1 X102.405 Y93.097 E0.01056
G1 X102.479 Y92.768 E0.01056
G1 X102.592 Y92.451 E0.01056
G1 X102.742 Y92.150 E0.01056
G1 X102.928 Y91.869 E0.01056
G1 X103.146 Y91.612 E0.01056
G1 X103.394 Y91.384 E0.01056
G1 X103.667 Y91.187 E0.01056
G1 X103.962 Y91.025 E0.01056
G1 X104.274 Y90.899 E0.01056
G1 X104.599 Y90.812 E0.01056
G1 X104.933 Y90.764 E0.01056
G1 X105.270 Y90.758 E0.01056
G1 X105.605 Y90.791 E0.01056
G1 X105.933 Y90.865 E0.01056
G1 X106.261 Y90.982 E0.01091
G1 X106.407 Y91.062 E0.00524
G1 X106.564 Y91.578 F10800.000
G1 F1200.000
G1 X107.289 Y90.623 E0.03761
