; generated by PrusaSlicer 2.3.0+win64 on 2021-03-01 at 13:54:27 UTC

; 

; external perimeters extrusion width = 0.45mm
; perimeters extrusion width = 0.45mm
; infill extrusion width = 0.45mm
; solid infill extrusion width = 0.45mm
; top infill extrusion width = 0.40mm
; first layer extrusion width = 0.42mm

; external perimeters extrusion width = 0.45mm
; perimeters extrusion width = 0.45mm
; infill extrusion width = 0.45mm
; solid infill extrusion width = 0.45mm
; top infill extrusion width = 0.40mm
; first layer extrusion width = 0.42mm

M73 P0 R192
M73 Q0 S197
M201 X1000 Y1000 Z200 E8000 ; sets maximum accelerations, mm/sec^2
M203 X200 Y200 Z12 E120 ; sets maximum feedrates, mm/sec
M204 P1250 R1250 T1250 ; sets acceleration (P, T) and retract acceleration (R), mm/sec^2
M205 X8.00 Y8.00 Z0.40 E4.50 ; sets the jerk limits, mm/sec
M205 S0 T0 ; sets the minimum extruding and travel feed rate, mm/sec
M107
;TYPE:Custom
M862.3 P "MK3SMMU2S" ; printer model check
M862.1 P0.4 ; nozzle diameter check
M115 U3.9.3 ; tell printer latest fw version
G90 ; use absolute coordinates
M83 ; extruder relative mode
M104 S215 ; set extruder temp
M140 S60 ; set bed temp
M190 S60 ; wait for bed temp
M109 S215 ; wait for extruder temp
G28 W ; home all without mesh bed level
G80 ; mesh bed leveling

; Send the filament type to the MMU2.0 unit.
; E stands for extruder number, F stands for filament type (0: default; 1:flex; 2: PVA)
M403 E0 F0
M403 E1 F0
M403 E2 F0
M403 E3 F0
M403 E4 F0


;go outside print area
G1 Y-3.0 F1000.0
G1 Z0.4 F1000.0
; select extruder
T1
; initial load
G1 X55.0 E29.0 F1073.0
G1 X5.0 E29.0 F1800.0
G1 X55.0 E8.0 F2000.0
G1 Z0.3 F1000.0
G92 E0.0
G1 X240.0 E25.0 F2200.0
G1 Y-2.0 F1000.0
G1 X55.0 E25 F1400.0
G1 Z0.20 F1000.0
G1 X5.0 E4.0 F1000.0
G92 E0.0


M221 S95
G92 E0.0

; Don't change E values below. Excessive value can damage the printer.

M907 E538 ; set extruder motor current
G21 ; set units to millimeters
G90 ; use absolute coordinates
M83 ; use relative distances for extrusion
T1
M900 K0.05 ; Filament gcode LA 1.5
M900 K30 ; Filament gcode LA 1.0
G1 Z0.200 F10800.000
;LAYER_CHANGE
;Z:0.2
;HEIGHT:0.2
;BEFORE_LAYER_CHANGE
G92 E0.0
;0.2


G1 E-0.80000 F2100.000
G1 Z0.600 F10800.000
G1 Z0.200
;AFTER_LAYER_CHANGE
;0.2
G1 E-2.20000 F2100.000
G1 Z0.600 F10800.000
G1 X157.493 Y146.741
G1 Z0.200
G1 E3.00000 F2100.000
;HEIGHT:0.200000
;TYPE:Wipe tower
;WIDTH:0.500000
;-------------------------------------
; CP WIPE TOWER FIRST LAYER BRIM START
G1  X157.493 Y160.801  E0.8016 F2400
G1  X154.950 Y161.258   F7000
G1  Y146.284  E0.6260 F2100
G1  X94.036  E2.5466
G1  Y161.258  E0.6260
G1  X154.950  E2.5466
G1  X155.407 Y161.715   F7000
G1  Y145.827  E0.6642 F2100
G1  X93.579  E2.5849
G1  Y161.715  E0.6642
G1  X155.407  E2.5849
G1  X155.864 Y162.172   F7000
G1  Y145.370  E0.7025 F2100
M73 P0 R191
G1  X93.122  E2.6231
G1  Y162.172  E0.7025
G1  X155.864  E2.6231
G1  X156.321 Y162.629   F7000
G1  Y144.913  E0.7407 F2100
M73 Q0 S196
G1  X92.665  E2.6613
G1  Y162.629  E0.7407
G1  X156.321  E2.6613
; CP WIPE TOWER FIRST LAYER BRIM END
;-----------------------------------
G1  X153.993 Y147.241   F7200
;HEIGHT:0.200000
;TYPE:Wipe tower
;WIDTH:0.500000
;--------------------
; CP EMPTY GRID START
; layer #1
G1  X154.493 
G1  Y146.741 
G1  Y160.801  E0.5344 F1450
G1  X94.493  E2.2804
G1  Y146.741  E0.5344
G1  X154.493  E2.2804
G1  X153.993 
G1  Y147.241 
G1  Y160.301  E0.4964
G1  X94.993  E2.2424
G1  Y147.241  E0.4964
G1  X153.993  E2.2424
G1  Y160.301 
G1  X153.493 Y159.778   E0.0275
G1  X95.493  E2.2044
G1  Y159.254  E0.0199
G1  X153.493  E2.2044
G1  Y158.731  E0.0199
G1  X95.493  E2.2044
G1  Y158.208  E0.0199
G1  X153.493  E2.2044
G1  Y157.684  E0.0199
G1  X95.493  E2.2044
G1  Y157.161  E0.0199
G1  X153.493  E2.2044
G1  Y156.638  E0.0199
G1  X95.493  E2.2044
G1  Y156.114  E0.0199
G1  X153.493  E2.2044
G1  Y155.591  E0.0199
G1  X95.493  E2.2044
G1  Y155.068  E0.0199
G1  X153.493  E2.2044
G1  Y154.544  E0.0199
G1  X95.493  E2.2044
G1  Y154.021  E0.0199
G1  X153.493  E2.2044
G1  Y153.498  E0.0199
G1  X95.493  E2.2044
G1  Y152.974  E0.0199
G1  X153.493  E2.2044
G1  Y152.451  E0.0199
G1  X95.493  E2.2044
G1  Y151.928  E0.0199
G1  X153.493  E2.2044
M73 P0 R190
G1  Y151.404  E0.0199
G1  X95.493  E2.2044
G1  Y150.881  E0.0199
G1  X153.493  E2.2044
M73 P1 R190
M73 Q0 S195
G1  Y150.358  E0.0199
G1  X95.493  E2.2044
G1  Y149.834  E0.0199
G1  X153.493  E2.2044
M73 Q1 S195
G1  Y149.311  E0.0199
G1  X95.493  E2.2044
G1  Y148.788  E0.0199
G1  X153.493  E2.2044
G1  Y148.264  E0.0199
G1  X95.493  E2.2044
G1  Y147.741  E0.0199
G1  X153.493  E2.2044
; CP EMPTY GRID END
;------------------







;WIPE_START
G1 F8640.000
G1 X150.201 Y147.741 E-0.76000
;WIPE_END
G1 E-0.04000 F2100.000
G1 Z0.600 F10800.000
G1 X156.786 Y164.674
G1 Z0.200
G1 E0.80000 F2100.000
M204 S1000
;TYPE:Skirt
;WIDTH:0.42
;HEIGHT:0.2
G1 F1200.000
G1 X156.093 Y164.778 E0.02199
G1 X92.889 Y164.778 E1.98170
G1 X92.217 Y164.679 E0.02130
G1 X91.478 Y164.310 E0.02590
G1 X48.742 Y132.520 E1.67002
G1 X48.091 Y132.002 E0.02609
G1 X47.408 Y131.304 E0.03062
G1 X46.543 Y130.053 E0.04768
G1 X46.147 Y129.216 E0.02904
G1 X45.841 Y128.261 E0.03145
G1 X45.669 Y127.250 E0.03213
G1 X45.628 Y108.222 E0.59664
G1 X45.823 Y106.950 E0.04034
G1 X46.194 Y106.093 E0.02929
G1 X46.895 Y105.160 E0.03659
G1 X107.122 Y44.997 E2.66915
G1 X107.728 Y44.616 E0.02244
G1 X108.348 Y44.352 E0.02112
G1 X109.637 Y44.125 E0.04105
G1 X128.008 Y44.123 E0.57601
G1 X129.538 Y44.286 E0.04823
G1 X130.553 Y44.580 E0.03314
G1 X131.939 Y45.260 E0.04840
G1 X133.188 Y46.252 E0.05001
G1 X208.245 Y121.308 E3.32813
G1 X208.817 Y121.957 E0.02713
G1 X209.334 Y122.711 E0.02865
G1 X209.745 Y123.501 E0.02793
G1 X210.086 Y124.444 E0.03143
G1 X210.355 Y125.912 E0.04679
G1 X210.372 Y126.817 E0.02840
G1 X210.266 Y127.801 E0.03102
G1 X210.059 Y128.657 E0.02762
G1 X209.675 Y129.645 E0.03324
G1 X208.831 Y131.024 E0.05070
G1 X208.135 Y131.799 E0.03264
G1 X206.923 Y132.748 E0.04827
G1 X157.369 Y164.406 E1.84372
G1 X156.841 Y164.649 E0.01824
; printing object WinderBracketLogo.stl id:0 copy 0
;WIPE_START
G1 F8640.000
G1 X156.093 Y164.778 E-0.17526
G1 X153.560 Y164.778 E-0.58474
;WIPE_END
G1 E-0.04000 F2100.000
G1 Z0.600 F10800.000
G1 X131.817 Y131.145
G1 Z0.200
G1 E0.80000 F2100.000
;TYPE:Perimeter
G1 F1200.000
G1 X131.343 Y131.497 E0.01849
G1 X130.837 Y131.800 E0.01849
G1 X130.304 Y132.052 E0.01849
G1 X129.749 Y132.251 E0.01849
G1 X129.177 Y132.394 E0.01849
G1 X128.594 Y132.480 E0.01849
G1 X128.005 Y132.509 E0.01849
G1 X127.416 Y132.480 E0.01849
G1 X126.832 Y132.394 E0.01849
G1 X126.260 Y132.251 E0.01849
G1 X125.705 Y132.052 E0.01849
G1 X125.172 Y131.800 E0.01849
G1 X124.666 Y131.497 E0.01849
G1 X124.192 Y131.145 E0.01849
G1 X123.755 Y130.749 E0.01849
G1 X123.359 Y130.312 E0.01849
G1 X123.008 Y129.839 E0.01849
G1 X122.705 Y129.333 E0.01849
G1 X122.453 Y128.800 E0.01849
G1 X122.254 Y128.244 E0.01849
G1 X122.111 Y127.672 E0.01849
G1 X122.024 Y127.089 E0.01849
G1 X121.995 Y126.500 E0.01849
G1 X122.024 Y125.911 E0.01849
G1 X122.111 Y125.328 E0.01849
G1 X122.254 Y124.756 E0.01849
G1 X122.453 Y124.200 E0.01849
G1 X122.705 Y123.667 E0.01849
G1 X123.008 Y123.161 E0.01849
G1 X123.359 Y122.688 E0.01849
G1 X123.755 Y122.251 E0.01849
G1 X124.192 Y121.855 E0.01849
G1 X124.666 Y121.503 E0.01849
G1 X125.172 Y121.200 E0.01849
G1 X125.705 Y120.948 E0.01849
G1 X126.260 Y120.749 E0.01849
G1 X126.838 Y120.605 E0.01867
G1 X127.554 Y120.513 E0.02264
G1 X128.005 Y120.491 E0.01415
G1 X128.594 Y120.520 E0.01849
G1 X129.177 Y120.606 E0.01849
G1 X129.749 Y120.749 E0.01849
G1 X130.304 Y120.948 E0.01849
G1 X130.837 Y121.200 E0.01849
G1 X131.343 Y121.503 E0.01849
G1 X131.817 Y121.855 E0.01849
G1 X132.254 Y122.251 E0.01849
G1 X132.650 Y122.688 E0.01849
G1 X133.001 Y123.161 E0.01849
G1 X133.304 Y123.667 E0.01849
G1 X133.556 Y124.200 E0.01849
G1 X133.755 Y124.756 E0.01849
G1 X133.898 Y125.328 E0.01849
G1 X133.985 Y125.911 E0.01849
G1 X134.014 Y126.500 E0.01849
G1 X133.985 Y127.089 E0.01849
G1 X133.898 Y127.672 E0.01849
G1 X133.755 Y128.244 E0.01849
G1 X133.556 Y128.800 E0.01849
G1 X133.304 Y129.333 E0.01849
G1 X133.001 Y129.839 E0.01849
G1 X132.650 Y130.312 E0.01849
G1 X132.254 Y130.749 E0.01849
G1 X131.861 Y131.105 E0.01661
G1 X131.608 Y130.826 F10800.000
;TYPE:External perimeter
G1 F1200.000
G1 X131.133 Y131.183 E0.01862
G1 X130.659 Y131.467 E0.01733
G1 X130.160 Y131.703 E0.01733
G1 X129.639 Y131.889 E0.01733
G1 X129.103 Y132.024 E0.01733
G1 X128.557 Y132.105 E0.01733
G1 X128.005 Y132.132 E0.01733
G1 X127.453 Y132.105 E0.01733
G1 X126.906 Y132.024 E0.01733
G1 X126.370 Y131.889 E0.01733
G1 X125.849 Y131.703 E0.01733
G1 X125.350 Y131.467 E0.01733
G1 X124.876 Y131.183 E0.01733
G1 X124.432 Y130.853 E0.01733
G1 X124.022 Y130.482 E0.01733
G1 X123.651 Y130.073 E0.01733
G1 X123.322 Y129.629 E0.01733
G1 X123.038 Y129.155 E0.01733
G1 X122.801 Y128.655 E0.01733
G1 X122.615 Y128.135 E0.01733
G1 X122.481 Y127.599 E0.01733
G1 X122.400 Y127.052 E0.01733
G1 X122.373 Y126.500 E0.01733
G1 X122.400 Y125.948 E0.01733
G1 X122.481 Y125.401 E0.01733
G1 X122.615 Y124.865 E0.01733
G1 X122.801 Y124.345 E0.01733
G1 X123.038 Y123.845 E0.01733
G1 X123.322 Y123.371 E0.01733
G1 X123.651 Y122.927 E0.01733
G1 X124.022 Y122.518 E0.01733
G1 X124.432 Y122.147 E0.01733
G1 X124.876 Y121.817 E0.01733
G1 X125.350 Y121.533 E0.01733
G1 X125.849 Y121.297 E0.01733
G1 X126.370 Y121.111 E0.01733
G1 X126.908 Y120.976 E0.01739
G1 X127.587 Y120.889 E0.02147
G1 X128.005 Y120.868 E0.01310
G1 X128.557 Y120.895 E0.01733
G1 X129.103 Y120.976 E0.01733
G1 X129.639 Y121.111 E0.01733
G1 X130.160 Y121.297 E0.01733
G1 X130.659 Y121.533 E0.01733
G1 X131.133 Y121.817 E0.01733
G1 X131.577 Y122.147 E0.01733
G1 X131.987 Y122.518 E0.01733
G1 X132.358 Y122.927 E0.01733
G1 X132.687 Y123.371 E0.01733
G1 X132.971 Y123.845 E0.01733
G1 X133.208 Y124.345 E0.01733
G1 X133.394 Y124.865 E0.01733
G1 X133.528 Y125.401 E0.01733
G1 X133.609 Y125.948 E0.01733
G1 X133.636 Y126.500 E0.01733
G1 X133.609 Y127.052 E0.01733
G1 X133.528 Y127.599 E0.01733
G1 X133.394 Y128.135 E0.01733
G1 X133.208 Y128.655 E0.01733
G1 X132.971 Y129.155 E0.01733
G1 X132.687 Y129.629 E0.01733
G1 X132.358 Y130.073 E0.01733
G1 X131.987 Y130.482 E0.01733
G1 X131.653 Y130.785 E0.01415
G1 X131.675 Y131.220 F10800.000
;WIPE_START
G1 F8640.000
G1 X131.133 Y131.183 E-0.15095
G1 X130.659 Y131.467 E-0.12762
G1 X130.160 Y131.703 E-0.12762
G1 X129.639 Y131.889 E-0.12762
G1 X129.103 Y132.024 E-0.12762
G1 X128.681 Y132.086 E-0.09859
;WIPE_END
G1 E-0.04000 F2100.000
G1 Z0.600 F10800.000
G1 X130.076 Y55.087
G1 Z0.200
G1 E0.80000 F2100.000
;TYPE:Perimeter
G1 F1200.000
G1 X125.934 Y55.087 E0.12987
G1 X123.863 Y51.500 E0.12987
G1 X125.934 Y47.913 E0.12987
G1 X130.076 Y47.913 E0.12987
G1 X132.147 Y51.500 E0.12987
G1 X130.106 Y55.035 E0.12799
G1 X129.858 Y54.710 F10800.000
;TYPE:External perimeter
G1 F1200.000
G1 X126.151 Y54.710 E0.11622
G1 X124.298 Y51.500 E0.11622
G1 X126.151 Y48.290 E0.11622
G1 X129.858 Y48.290 E0.11622
G1 X131.711 Y51.500 E0.11622
G1 X129.888 Y54.658 E0.11434
G1 X129.858 Y55.110 F10800.000
;WIPE_START
G1 F8640.000
G1 X126.597 Y54.704 E-0.76000
;WIPE_END
G1 E-0.04000 F2100.000
G1 Z0.600 F10800.000
G1 X55.076 Y122.913
G1 Z0.200
G1 E0.80000 F2100.000
;TYPE:Perimeter
G1 F1200.000
G1 X57.147 Y126.500 E0.12987
G1 X55.076 Y130.087 E0.12987
G1 X50.934 Y130.087 E0.12987
G1 X48.863 Y126.500 E0.12987
G1 X50.934 Y122.913 E0.12987
G1 X55.016 Y122.913 E0.12799
G1 X54.858 Y123.290 F10800.000
;TYPE:External perimeter
G1 F1200.000
G1 X56.711 Y126.500 E0.11622
G1 X54.858 Y129.710 E0.11622
G1 X51.151 Y129.710 E0.11622
G1 X49.298 Y126.500 E0.11622
G1 X51.151 Y123.290 E0.11622
G1 X54.798 Y123.290 E0.11434
G1 X55.204 Y123.090 F10800.000
;WIPE_START
G1 F8640.000
G1 X56.483 Y126.117 E-0.76000
;WIPE_END
G1 E-0.04000 F2100.000
G1 Z0.600 F10800.000
G1 X198.863 Y126.500
G1 Z0.200
G1 E0.80000 F2100.000
;TYPE:Perimeter
G1 F1200.000
G1 X200.934 Y122.913 E0.12987
G1 X205.076 Y122.913 E0.12987
G1 X207.147 Y126.500 E0.12987
G1 X205.076 Y130.087 E0.12987
G1 X200.934 Y130.087 E0.12987
G1 X198.893 Y126.552 E0.12799
G1 X199.298 Y126.500 F10800.000
;TYPE:External perimeter
G1 F1200.000
G1 X201.151 Y123.290 E0.11622
G1 X204.858 Y123.290 E0.11622
G1 X206.711 Y126.500 E0.11622
G1 X204.858 Y129.710 E0.11622
G1 X201.151 Y129.710 E0.11622
G1 X199.328 Y126.552 E0.11434
G1 X198.952 Y126.300 F10800.000
;WIPE_START
G1 F8640.000
G1 X200.934 Y123.679 E-0.76000
;WIPE_END
G1 E-0.04000 F2100.000
G1 Z0.600 F10800.000
G1 X109.371 Y47.349
G1 Z0.200
G1 E0.80000 F2100.000
;TYPE:Perimeter
G1 F1200.000
G1 X109.556 Y47.304 E0.00595
G1 X109.776 Y47.287 E0.00693
G1 X127.982 Y47.287 E0.57085
M73 P1 R189
G1 X128.476 Y47.315 E0.01550
G1 X128.942 Y47.394 E0.01481
G1 X129.396 Y47.525 E0.01481
G1 X129.832 Y47.705 E0.01481
G1 X130.245 Y47.934 E0.01481
G1 X130.631 Y48.207 E0.01481
G1 X130.999 Y48.537 E0.01550
G1 X205.967 Y123.504 E3.32419
M73 Q1 S194
G1 X206.320 Y123.903 E0.01669
G1 X206.609 Y124.321 E0.01595
G1 X206.845 Y124.772 E0.01595
G1 X207.025 Y125.247 E0.01595
G1 X207.147 Y125.741 E0.01595
G1 X207.208 Y126.246 E0.01595
G1 X207.208 Y126.754 E0.01595
G1 X207.147 Y127.259 E0.01595
G1 X207.025 Y127.753 E0.01595
G1 X206.845 Y128.228 E0.01595
G1 X206.609 Y128.679 E0.01595
G1 X206.320 Y129.097 E0.01595
G1 X205.983 Y129.478 E0.01595
G1 X205.602 Y129.815 E0.01595
G1 X205.183 Y130.104 E0.01595
G1 X204.733 Y130.340 E0.01595
G1 X204.257 Y130.521 E0.01595
G1 X203.764 Y130.642 E0.01595
G1 X203.259 Y130.704 E0.01595
G1 X202.750 Y130.704 E0.01595
G1 X202.245 Y130.642 E0.01595
G1 X201.752 Y130.521 E0.01595
G1 X201.276 Y130.340 E0.01595
G1 X200.826 Y130.104 E0.01595
G1 X200.407 Y129.815 E0.01595
G1 X200.009 Y129.462 E0.01669
G1 X187.052 Y116.506 E0.57451
G1 X186.736 Y116.238 E0.01299
G1 X186.361 Y116.010 E0.01377
G1 X185.976 Y115.851 E0.01306
G1 X185.526 Y115.744 E0.01450
G1 X185.137 Y115.713 E0.01222
G1 X139.981 Y115.713 E1.41585
G1 X139.307 Y115.754 E0.02117
G1 X138.619 Y115.880 E0.02192
G1 X137.952 Y116.088 E0.02192
G1 X137.315 Y116.375 E0.02192
G1 X136.716 Y116.736 E0.02192
G1 X136.166 Y117.167 E0.02192
G1 X135.672 Y117.662 E0.02192
G1 X135.241 Y118.212 E0.02192
G1 X134.879 Y118.810 E0.02192
G1 X134.592 Y119.447 E0.02192
G1 X134.384 Y120.115 E0.02192
G1 X134.258 Y120.802 E0.02192
G1 X134.217 Y121.476 E0.02117
G1 X134.217 Y126.479 E0.15687
G1 X134.182 Y127.149 E0.02103
G1 X134.081 Y127.792 E0.02039
G1 X133.912 Y128.420 E0.02039
G1 X133.679 Y129.027 E0.02039
G1 X133.384 Y129.606 E0.02039
G1 X133.030 Y130.151 E0.02039
G1 X132.621 Y130.657 E0.02039
G1 X132.391 Y130.886 E0.01019
G1 X132.161 Y131.116 E0.01019
G1 X131.656 Y131.525 E0.02039
G1 X131.110 Y131.880 E0.02039
G1 X130.531 Y132.175 E0.02039
G1 X129.924 Y132.408 E0.02039
G1 X129.296 Y132.576 E0.02039
G1 X128.654 Y132.678 E0.02039
G1 X128.005 Y132.712 E0.02039
G1 X127.355 Y132.678 E0.02039
G1 X126.713 Y132.576 E0.02039
G1 X126.085 Y132.408 E0.02039
G1 X125.478 Y132.175 E0.02039
G1 X124.899 Y131.880 E0.02039
G1 X124.353 Y131.525 E0.02039
G1 X123.848 Y131.116 E0.02039
G1 X123.388 Y130.657 E0.02039
G1 X122.979 Y130.151 E0.02039
G1 X122.625 Y129.606 E0.02039
G1 X122.330 Y129.027 E0.02039
G1 X122.097 Y128.420 E0.02039
G1 X121.928 Y127.792 E0.02039
G1 X121.827 Y127.149 E0.02039
G1 X121.792 Y126.479 E0.02103
G1 X121.792 Y121.477 E0.15685
G1 X121.751 Y120.806 E0.02106
G1 X121.626 Y120.118 E0.02194
G1 X121.418 Y119.450 E0.02194
G1 X121.131 Y118.812 E0.02194
G1 X120.769 Y118.212 E0.02195
G1 X120.337 Y117.662 E0.02194
G1 X119.843 Y117.167 E0.02192
G1 X119.292 Y116.736 E0.02194
G1 X118.693 Y116.374 E0.02195
G1 X118.055 Y116.087 E0.02194
G1 X117.386 Y115.879 E0.02194
G1 X116.698 Y115.753 E0.02194
G1 X116.028 Y115.713 E0.02106
G1 X59.967 Y115.713 E1.75774
G1 X59.505 Y115.756 E0.01455
G1 X59.036 Y115.884 E0.01524
G1 X58.597 Y116.092 E0.01524
G1 X58.200 Y116.373 E0.01525
G1 X57.858 Y116.719 E0.01525
G1 X57.582 Y117.117 E0.01518
G1 X57.388 Y117.533 E0.01439
G1 X57.261 Y118.000 E0.01519
G1 X57.217 Y118.462 E0.01454
G1 X57.217 Y126.476 E0.25128
G1 X57.185 Y127.008 E0.01669
G1 X57.094 Y127.508 E0.01595
