; generated by PrusaSlicer 2.3.0+win64 on 2021-05-26 at 01:34:21 UTC

; 

; external perimeters extrusion width = 0.45mm
; perimeters extrusion width = 0.45mm
; infill extrusion width = 0.45mm
; solid infill extrusion width = 0.45mm
; top infill extrusion width = 0.40mm
; first layer extrusion width = 0.42mm

; external perimeters extrusion width = 0.45mm
; perimeters extrusion width = 0.45mm
; infill extrusion width = 0.45mm
; solid infill extrusion width = 0.45mm
; top infill extrusion width = 0.40mm
; first layer extrusion width = 0.42mm

; external perimeters extrusion width = 0.45mm
; perimeters extrusion width = 0.45mm
; infill extrusion width = 0.45mm
; solid infill extrusion width = 0.45mm
; top infill extrusion width = 0.40mm
; first layer extrusion width = 0.42mm

M73 P0 R207
M73 Q0 S211
M201 X1000 Y1000 Z200 E8000 ; sets maximum accelerations, mm/sec^2
M203 X200 Y200 Z12 E120 ; sets maximum feedrates, mm/sec
M204 P1250 R1250 T1250 ; sets acceleration (P, T) and retract acceleration (R), mm/sec^2
M205 X8.00 Y8.00 Z0.40 E4.50 ; sets the jerk limits, mm/sec
M205 S0 T0 ; sets the minimum extruding and travel feed rate, mm/sec
M107
;TYPE:Custom
M862.3 P "MK3SMMU2S" ; printer model check
M862.1 P0.4 ; nozzle diameter check
M115 U3.9.3 ; tell printer latest fw version
G90 ; use absolute coordinates
M83 ; extruder relative mode
M104 S215 ; set extruder temp
M140 S60 ; set bed temp
M190 S60 ; wait for bed temp
M109 S215 ; wait for extruder temp
G28 W ; home all without mesh bed level
G80 ; mesh bed leveling

; Send the filament type to the MMU2.0 unit.
; E stands for extruder number, F stands for filament type (0: default; 1:flex; 2: PVA)
M403 E0 F0
M403 E1 F0
M403 E2 F0
M403 E3 F0
M403 E4 F0


;go outside print area
G1 Y-3.0 F1000.0
M73 P0 R206
G1 Z0.4 F1000.0
; select extruder
T1
; initial load
G1 X55.0 E29.0 F1073.0
M73 Q0 S210
G1 X5.0 E29.0 F1800.0
G1 X55.0 E8.0 F2000.0
G1 Z0.3 F1000.0
G92 E0.0
G1 X240.0 E25.0 F2200.0
G1 Y-2.0 F1000.0
G1 X55.0 E25 F1400.0
G1 Z0.20 F1000.0
G1 X5.0 E4.0 F1000.0
G92 E0.0


M221 S95
G92 E0.0

; Don't change E values below. Excessive value can damage the printer.

M907 E538 ; set extruder motor current
G21 ; set units to millimeters
G90 ; use absolute coordinates
M83 ; use relative distances for extrusion
T1
M900 K0.05 ; Filament gcode LA 1.5
M900 K30 ; Filament gcode LA 1.0
G1 Z0.200 F10800.000
;LAYER_CHANGE
;Z:0.2
;HEIGHT:0.2
;BEFORE_LAYER_CHANGE
G92 E0.0
;0.2


G1 E-0.80000 F2100.000
G1 Z0.600 F10800.000
G1 Z0.200
;AFTER_LAYER_CHANGE
;0.2
G1 E-2.20000 F2100.000
G1 Z0.600 F10800.000
G1 X158.000 Y51.471
G1 Z0.200
G1 E3.00000 F2100.000
;HEIGHT:0.200000
;TYPE:Wipe tower
;WIDTH:0.500000
;-------------------------------------
; CP WIPE TOWER FIRST LAYER BRIM START
G1  X158.000 Y65.531  E0.8016 F2400
G1  X155.457 Y65.988   F7000
G1  Y51.014  E0.6260 F2100
G1  X94.543  E2.5466
G1  Y65.988  E0.6260
G1  X155.457  E2.5466
G1  X155.914 Y66.445   F7000
G1  Y50.557  E0.6642 F2100
G1  X94.086  E2.5849
G1  Y66.445  E0.6642
G1  X155.914  E2.5849
G1  X156.371 Y66.902   F7000
G1  Y50.100  E0.7025 F2100
G1  X93.629  E2.6231
G1  Y66.902  E0.7025
G1  X156.371  E2.6231
G1  X156.828 Y67.359   F7000
G1  Y49.643  E0.7407 F2100
G1  X93.172  E2.6613
G1  Y67.359  E0.7407
G1  X156.828  E2.6613
; CP WIPE TOWER FIRST LAYER BRIM END
;-----------------------------------
G1  X154.500 Y51.971   F7200
;HEIGHT:0.200000
;TYPE:Wipe tower
;WIDTH:0.500000
;--------------------
; CP EMPTY GRID START
; layer #1
G1  X155.000 
G1  Y51.471 
G1  Y65.531  E0.5344 F1450
G1  X95.000  E2.2804
G1  Y51.471  E0.5344
G1  X155.000  E2.2804
G1  X154.500 
G1  Y51.971 
G1  Y65.031  E0.4964
G1  X95.500  E2.2424
G1  Y51.971  E0.4964
G1  X154.500  E2.2424
G1  Y65.031 
G1  X154.000 Y64.508   E0.0275
G1  X96.000  E2.2044
G1  Y63.984  E0.0199
G1  X154.000  E2.2044
M73 P0 R205
G1  Y63.461  E0.0199
G1  X96.000  E2.2044
M73 Q0 S209
G1  Y62.938  E0.0199
G1  X154.000  E2.2044
G1  Y62.414  E0.0199
G1  X96.000  E2.2044
G1  Y61.891  E0.0199
G1  X154.000  E2.2044
G1  Y61.368  E0.0199
G1  X96.000  E2.2044
G1  Y60.844  E0.0199
G1  X154.000  E2.2044
G1  Y60.321  E0.0199
G1  X96.000  E2.2044
G1  Y59.798  E0.0199
G1  X154.000  E2.2044
G1  Y59.274  E0.0199
G1  X96.000  E2.2044
G1  Y58.751  E0.0199
G1  X154.000  E2.2044
G1  Y58.228  E0.0199
G1  X96.000  E2.2044
G1  Y57.704  E0.0199
G1  X154.000  E2.2044
G1  Y57.181  E0.0199
G1  X96.000  E2.2044
G1  Y56.658  E0.0199
G1  X154.000  E2.2044
G1  Y56.134  E0.0199
G1  X96.000  E2.2044
G1  Y55.611  E0.0199
G1  X154.000  E2.2044
G1  Y55.088  E0.0199
G1  X96.000  E2.2044
G1  Y54.564  E0.0199
G1  X154.000  E2.2044
G1  Y54.041  E0.0199
G1  X96.000  E2.2044
G1  Y53.518  E0.0199
G1  X154.000  E2.2044
M73 P1 R205
G1  Y52.994  E0.0199
G1  X96.000  E2.2044
M73 Q1 S209
G1  Y52.471  E0.0199
G1  X154.000  E2.2044
; CP EMPTY GRID END
;------------------







;WIPE_START
G1 F8640.000
G1 X150.709 Y52.471 E-0.76000
;WIPE_END
G1 E-0.04000 F2100.000
G1 Z0.600 F10800.000
G1 X157.258 Y47.587
G1 Z0.200
G1 E0.80000 F2100.000
M204 S1000
;TYPE:Skirt
;WIDTH:0.42
;HEIGHT:0.2
G1 F1200.000
G1 X157.861 Y47.857 E0.02071
G1 X158.367 Y48.282 E0.02071
G1 X158.736 Y48.829 E0.02071
G1 X206.741 Y150.124 E3.51461
M73 P1 R204
G1 X207.082 Y151.059 E0.03121
G1 X207.356 Y152.547 E0.04744
G1 X207.370 Y153.551 E0.03150
G1 X207.260 Y154.466 E0.02888
M73 Q1 S208
G1 X207.008 Y155.442 E0.03162
G1 X206.387 Y156.826 E0.04756
G1 X205.827 Y157.661 E0.03150
G1 X205.209 Y158.359 E0.02924
G1 X203.938 Y159.369 E0.05089
G1 X203.028 Y159.860 E0.03245
G1 X201.471 Y160.358 E0.05124
G1 X200.430 Y160.496 E0.03293
G1 X124.801 Y162.505 E2.37213
G1 X49.876 Y160.505 E2.35004
G1 X48.335 Y160.315 E0.04870
G1 X47.256 Y159.974 E0.03548
G1 X45.813 Y159.202 E0.05131
G1 X44.570 Y158.117 E0.05172
G1 X43.878 Y157.238 E0.03507
G1 X43.160 Y155.876 E0.04827
G1 X42.842 Y154.896 E0.03234
G1 X42.668 Y153.877 E0.03238
G1 X42.628 Y134.830 E0.59722
G1 X42.712 Y134.030 E0.02522
G1 X43.038 Y133.026 E0.03310
G1 X91.340 Y48.687 E3.04737
G1 X91.729 Y48.181 E0.02000
G1 X92.485 Y47.678 E0.02849
G1 X93.375 Y47.495 E0.02849
G1 X156.604 Y47.495 E1.98249
G1 X157.198 Y47.579 E0.01883
; printing object WinderBracket.stl id:0 copy 0
;WIPE_START
G1 F8640.000
G1 X157.861 Y47.857 E-0.16590
G1 X158.367 Y48.282 E-0.15254
G1 X158.736 Y48.829 E-0.15254
G1 X159.272 Y49.960 E-0.28902
;WIPE_END
G1 E-0.04000 F2100.000
G1 Z0.600 F10800.000
G1 X127.076 Y74.544
G1 Z0.200
G1 E0.80000 F2100.000
;TYPE:Perimeter
G1 F1200.000
G1 X129.147 Y78.131 E0.12987
G1 X127.076 Y81.718 E0.12987
G1 X122.934 Y81.718 E0.12987
G1 X120.863 Y78.131 E0.12987
G1 X122.934 Y74.544 E0.12987
G1 X127.016 Y74.544 E0.12799
G1 X126.858 Y74.921 F10800.000
;TYPE:External perimeter
G1 F1200.000
G1 X128.711 Y78.131 E0.11622
G1 X126.858 Y81.341 E0.11622
G1 X123.151 Y81.341 E0.11622
G1 X121.298 Y78.131 E0.11622
G1 X123.151 Y74.921 E0.11622
G1 X126.798 Y74.921 E0.11434
G1 X127.204 Y74.721 F10800.000
;WIPE_START
G1 F8640.000
G1 X128.483 Y77.749 E-0.76000
;WIPE_END
G1 E-0.04000 F2100.000
G1 Z0.600 F10800.000
G1 X52.076 Y149.544
G1 Z0.200
G1 E0.80000 F2100.000
;TYPE:Perimeter
G1 F1200.000
G1 X54.147 Y153.131 E0.12987
G1 X52.076 Y156.718 E0.12987
G1 X47.934 Y156.718 E0.12987
G1 X45.863 Y153.131 E0.12987
G1 X47.934 Y149.544 E0.12987
G1 X52.016 Y149.544 E0.12799
G1 X51.858 Y149.921 F10800.000
;TYPE:External perimeter
G1 F1200.000
G1 X53.711 Y153.131 E0.11622
G1 X51.858 Y156.341 E0.11622
G1 X48.151 Y156.341 E0.11622
G1 X46.298 Y153.131 E0.11622
G1 X48.151 Y149.921 E0.11622
G1 X51.798 Y149.921 E0.11434
G1 X52.204 Y149.721 F10800.000
;WIPE_START
G1 F8640.000
G1 X53.483 Y152.749 E-0.76000
;WIPE_END
G1 E-0.04000 F2100.000
G1 Z0.600 F10800.000
G1 X195.863 Y153.131
G1 Z0.200
G1 E0.80000 F2100.000
;TYPE:Perimeter
G1 F1200.000
G1 X197.934 Y149.544 E0.12987
G1 X202.076 Y149.544 E0.12987
G1 X204.147 Y153.131 E0.12987
G1 X202.076 Y156.718 E0.12987
G1 X197.934 Y156.718 E0.12987
G1 X195.893 Y153.183 E0.12799
G1 X196.298 Y153.131 F10800.000
;TYPE:External perimeter
G1 F1200.000
G1 X198.151 Y149.921 E0.11622
G1 X201.858 Y149.921 E0.11622
G1 X203.711 Y153.131 E0.11622
G1 X201.858 Y156.341 E0.11622
G1 X198.151 Y156.341 E0.11622
G1 X196.328 Y153.183 E0.11434
G1 X195.952 Y152.931 F10800.000
;WIPE_START
G1 F8640.000
G1 X197.934 Y150.310 E-0.76000
;WIPE_END
G1 E-0.04000 F2100.000
G1 Z0.600 F10800.000
G1 X125.992 Y159.258
G1 Z0.200
G1 E0.80000 F2100.000
;TYPE:Perimeter
G1 F1200.000
G1 X125.992 Y159.046 E0.00662
G1 X126.308 Y158.988 E0.01009
G1 X126.903 Y158.824 E0.01935
G1 X127.484 Y158.598 E0.01954
G1 X128.034 Y158.313 E0.01944
G1 X128.555 Y157.971 E0.01953
G1 X129.032 Y157.579 E0.01937
G1 X129.377 Y157.242 E0.01513
G1 X129.778 Y156.770 E0.01942
G1 X130.128 Y156.258 E0.01945
G1 X130.423 Y155.713 E0.01942
G1 X130.611 Y155.268 E0.01513
G1 X130.803 Y154.681 E0.01936
G1 X130.933 Y154.072 E0.01952
G1 X130.998 Y153.455 E0.01946
G1 X130.999 Y152.836 E0.01941
G1 X130.954 Y152.351 E0.01529
G1 X130.808 Y151.615 E0.02353
G1 X130.670 Y151.149 E0.01522
G1 X130.488 Y150.703 E0.01511
G1 X130.144 Y150.032 E0.02365
G1 X129.791 Y149.512 E0.01970
G1 X129.393 Y149.043 E0.01929
G1 X129.054 Y148.701 E0.01509
G1 X128.685 Y148.396 E0.01504
G1 X128.182 Y148.042 E0.01926
G1 X127.638 Y147.739 E0.01952
G1 X127.066 Y147.494 E0.01953
G1 X126.471 Y147.311 E0.01949
G1 X125.862 Y147.191 E0.01948
G1 X125.246 Y147.135 E0.01939
G1 X124.763 Y147.135 E0.01513
G1 X124.146 Y147.191 E0.01943
G1 X123.539 Y147.311 E0.01941
G1 X122.944 Y147.494 E0.01953
G1 X122.375 Y147.737 E0.01939
G1 X121.950 Y147.966 E0.01513
G1 X121.433 Y148.307 E0.01942
G1 X120.955 Y148.701 E0.01942
G1 X120.518 Y149.145 E0.01953
G1 X120.133 Y149.628 E0.01938
G1 X119.866 Y150.030 E0.01513
G1 X119.573 Y150.576 E0.01942
G1 X119.339 Y151.150 E0.01943
G1 X119.164 Y151.748 E0.01953
G1 X119.054 Y152.356 E0.01937
G1 X119.010 Y152.836 E0.01513
G1 X119.011 Y153.456 E0.01942
G1 X119.076 Y154.072 E0.01944
G1 X119.206 Y154.681 E0.01953
G1 X119.398 Y155.268 E0.01936
G1 X119.587 Y155.713 E0.01513
G1 X119.881 Y156.258 E0.01942
G1 X120.231 Y156.770 E0.01945
G1 X120.632 Y157.242 E0.01942
G1 X120.977 Y157.579 E0.01513
G1 X121.455 Y157.971 E0.01937
G1 X121.974 Y158.312 E0.01951
G1 X122.403 Y158.535 E0.01515
G1 X123.100 Y158.823 E0.02365
G1 X123.701 Y158.988 E0.01953
G1 X124.017 Y159.046 E0.01009
G1 X124.017 Y159.258 E0.00662
G1 X123.563 Y159.174 E0.01449
G1 X122.950 Y158.994 E0.02002
G1 X122.360 Y158.752 E0.02002
G1 X121.797 Y158.451 E0.02002
G1 X121.268 Y158.093 E0.02002
G1 X120.778 Y157.684 E0.02002
G1 X120.333 Y157.226 E0.02002
G1 X119.938 Y156.725 E0.02002
G1 X119.596 Y156.186 E0.02002
G1 X119.311 Y155.614 E0.02002
G1 X119.086 Y155.017 E0.02002
G1 X118.924 Y154.400 E0.02002
G1 X118.825 Y153.769 E0.02002
G1 X118.792 Y153.111 E0.02065
G1 X118.792 Y148.107 E0.15688
G1 X118.751 Y147.433 E0.02117
G1 X118.625 Y146.746 E0.02192
G1 X118.417 Y146.079 E0.02192
G1 X118.130 Y145.441 E0.02192
G1 X117.768 Y144.843 E0.02192
G1 X117.337 Y144.293 E0.02192
G1 X116.843 Y143.798 E0.02192
G1 X116.293 Y143.367 E0.02192
G1 X115.695 Y143.006 E0.02192
G1 X115.057 Y142.719 E0.02192
G1 X114.390 Y142.511 E0.02192
G1 X113.702 Y142.385 E0.02192
G1 X113.028 Y142.344 E0.02117
G1 X56.970 Y142.344 E1.75766
G1 X56.520 Y142.384 E0.01417
G1 X56.050 Y142.509 E0.01525
G1 X55.610 Y142.715 E0.01525
G1 X55.211 Y142.994 E0.01525
G1 X54.867 Y143.338 E0.01525
G1 X54.588 Y143.736 E0.01525
G1 X54.383 Y144.177 E0.01525
G1 X54.257 Y144.647 E0.01525
G1 X54.217 Y145.097 E0.01417
G1 X54.217 Y153.107 E0.25117
G1 X54.185 Y153.639 E0.01669
G1 X54.094 Y154.139 E0.01595
G1 X53.942 Y154.625 E0.01595
G1 X53.734 Y155.088 E0.01595
G1 X53.471 Y155.524 E0.01595
G1 X53.157 Y155.924 E0.01595
G1 X52.797 Y156.284 E0.01595
G1 X52.397 Y156.597 E0.01595
G1 X51.962 Y156.860 E0.01595
G1 X51.498 Y157.069 E0.01595
G1 X51.012 Y157.220 E0.01595
G1 X50.512 Y157.312 E0.01595
G1 X50.005 Y157.343 E0.01595
G1 X49.497 Y157.312 E0.01595
G1 X48.997 Y157.220 E0.01595
G1 X48.511 Y157.069 E0.01595
G1 X48.047 Y156.860 E0.01595
G1 X47.612 Y156.597 E0.01595
G1 X47.212 Y156.284 E0.01595
G1 X46.852 Y155.924 E0.01595
G1 X46.539 Y155.524 E0.01595
G1 X46.275 Y155.088 E0.01595
G1 X46.067 Y154.625 E0.01595
G1 X45.915 Y154.139 E0.01595
G1 X45.824 Y153.639 E0.01595
G1 X45.792 Y153.107 E0.01669
G1 X45.792 Y134.903 E0.57079
G1 X45.809 Y134.682 E0.00693
G1 X45.853 Y134.498 E0.00596
G1 X45.926 Y134.322 E0.00596
G1 X46.025 Y134.160 E0.00596
G1 X46.169 Y133.992 E0.00693
G1 X105.866 Y74.295 E2.64706
G1 X106.034 Y74.152 E0.00693
G1 X106.196 Y74.053 E0.00596
G1 X106.371 Y73.980 E0.00596
G1 X106.556 Y73.936 E0.00596
G1 X106.776 Y73.918 E0.00693
G1 X124.982 Y73.918 E0.57085
G1 X125.476 Y73.946 E0.01550
G1 X125.942 Y74.025 E0.01481
G1 X126.396 Y74.156 E0.01481
G1 X126.832 Y74.337 E0.01481
G1 X127.245 Y74.565 E0.01481
G1 X127.631 Y74.838 E0.01481
G1 X127.999 Y75.168 E0.01550
G1 X202.967 Y150.135 E3.32419
G1 X203.320 Y150.534 E0.01669
G1 X203.609 Y150.952 E0.01595
G1 X203.845 Y151.403 E0.01595
G1 X204.025 Y151.878 E0.01595
G1 X204.147 Y152.372 E0.01595
G1 X204.208 Y152.877 E0.01595
G1 X204.208 Y153.385 E0.01595
G1 X204.147 Y153.890 E0.01595
G1 X204.025 Y154.384 E0.01595
G1 X203.845 Y154.860 E0.01595
G1 X203.609 Y155.310 E0.01595
G1 X203.320 Y155.729 E0.01595
G1 X202.983 Y156.109 E0.01595
G1 X202.602 Y156.446 E0.01595
G1 X202.183 Y156.735 E0.01595
G1 X201.733 Y156.972 E0.01595
G1 X201.257 Y157.152 E0.01595
G1 X200.764 Y157.274 E0.01595
G1 X200.259 Y157.335 E0.01595
G1 X199.750 Y157.335 E0.01595
G1 X199.245 Y157.274 E0.01595
G1 X198.752 Y157.152 E0.01595
G1 X198.276 Y156.972 E0.01595
G1 X197.826 Y156.735 E0.01595
G1 X197.407 Y156.446 E0.01595
G1 X197.009 Y156.093 E0.01669
G1 X184.054 Y143.139 E0.57444
G1 X183.745 Y142.874 E0.01275
G1 X183.372 Y142.646 E0.01372
G1 X182.967 Y142.478 E0.01372
G1 X182.541 Y142.376 E0.01373
G1 X182.136 Y142.344 E0.01275
G1 X136.981 Y142.344 E1.41581
G1 X136.307 Y142.385 E0.02117
G1 X135.619 Y142.511 E0.02192
G1 X134.952 Y142.719 E0.02192
G1 X134.315 Y143.006 E0.02192
G1 X133.716 Y143.367 E0.02192
G1 X133.166 Y143.798 E0.02192
G1 X132.672 Y144.293 E0.02192
G1 X132.241 Y144.843 E0.02192
G1 X131.879 Y145.441 E0.02192
G1 X131.592 Y146.079 E0.02192
G1 X131.384 Y146.746 E0.02192
G1 X131.258 Y147.433 E0.02192
G1 X131.217 Y148.107 E0.02117
G1 X131.217 Y153.111 E0.15688
G1 X131.184 Y153.769 E0.02065
G1 X131.086 Y154.400 E0.02002
G1 X130.923 Y155.017 E0.02002
G1 X130.698 Y155.614 E0.02002
G1 X130.414 Y156.186 E0.02002
G1 X130.071 Y156.725 E0.02002
G1 X129.676 Y157.226 E0.02002
G1 X129.231 Y157.684 E0.02002
G1 X128.741 Y158.093 E0.02002
G1 X128.212 Y158.451 E0.02002
G1 X127.650 Y158.752 E0.02002
G1 X127.059 Y158.994 E0.02002
G1 X126.446 Y159.174 E0.02002
G1 X126.051 Y159.247 E0.01261
G1 X125.615 Y159.684 F10800.000
;TYPE:External perimeter
G1 F1200.000
G1 X125.615 Y158.714 E0.03042
G1 X125.778 Y158.702 E0.00515
G1 X126.224 Y158.620 E0.01421
G1 X126.784 Y158.466 E0.01822
G1 X127.328 Y158.254 E0.01830
G1 X127.844 Y157.987 E0.01820
G1 X128.331 Y157.666 E0.01829
G1 X128.781 Y157.298 E0.01823
G1 X129.101 Y156.984 E0.01406
G1 X129.478 Y156.541 E0.01825
G1 X129.806 Y156.061 E0.01821
G1 X130.082 Y155.549 E0.01825
G1 X130.258 Y155.136 E0.01406
G1 X130.438 Y154.583 E0.01823
G1 X130.560 Y154.013 E0.01828
G1 X130.621 Y153.435 E0.01822
G1 X130.622 Y152.853 E0.01825
G1 X130.581 Y152.405 E0.01412
G1 X130.442 Y151.705 E0.02236
G1 X130.314 Y151.274 E0.01409
G1 X130.145 Y150.860 E0.01402
G1 X129.819 Y150.224 E0.02241
G1 X129.490 Y149.741 E0.01835
G1 X129.115 Y149.298 E0.01820
G1 X128.800 Y148.980 E0.01403
G1 X128.456 Y148.696 E0.01400
G1 X127.981 Y148.362 E0.01819
G1 X127.472 Y148.078 E0.01828
G1 X126.936 Y147.849 E0.01829
G1 X126.379 Y147.677 E0.01826
G1 X125.808 Y147.564 E0.01825
G1 X125.229 Y147.512 E0.01824
G1 X124.780 Y147.512 E0.01406
G1 X124.200 Y147.565 E0.01828
G1 X123.631 Y147.677 E0.01818
G1 X123.074 Y147.849 E0.01829
G1 X122.539 Y148.077 E0.01824
G1 X122.144 Y148.290 E0.01406
G1 X121.658 Y148.611 E0.01827
G1 X121.210 Y148.979 E0.01819
G1 X120.800 Y149.395 E0.01829
G1 X120.438 Y149.850 E0.01823
G1 X120.190 Y150.224 E0.01406
G1 X119.915 Y150.737 E0.01826
