; generated by PrusaSlicer 2.2.0+win64 on 2021-01-07 at 14:01:36 UTC

; 

; external perimeters extrusion width = 0.45mm
; perimeters extrusion width = 0.45mm
; infill extrusion width = 0.45mm
; solid infill extrusion width = 0.45mm
; top infill extrusion width = 0.40mm
; first layer extrusion width = 0.42mm

M73 P0 R8
M73 Q0 S8
M201 X1000 Y1000 Z200 E5000 ; sets maximum accelerations, mm/sec^2
M203 X200 Y200 Z12 E120 ; sets maximum feedrates, mm/sec
M204 P1250 R1250 T1250 ; sets acceleration (P, T) and retract acceleration (R), mm/sec^2
M205 X8.00 Y8.00 Z0.40 E4.50 ; sets the jerk limits, mm/sec
M205 S0 T0 ; sets the minimum extruding and travel feed rate, mm/sec
M107
M862.3 P "MK3SMMU2S" ; printer model check
M862.1 P0.4 ; nozzle diameter check
M115 U3.9.1 ; tell printer latest fw version
G90 ; use absolute coordinates
M83 ; extruder relative mode
M104 S215 ; set extruder temp
M140 S60 ; set bed temp
Tx
M190 S60 ; wait for bed temp
M109 S215 ; wait for extruder temp
G28 W ; home all without mesh bed level
G80 ; mesh bed leveling

;go outside print area
G1 Y-3.0 F1000.0
G1 Z0.4 F1000.0
; select extruder
Tc
; purge line
G1 X55.0 F2000.0
G1 Z0.3 F1000.0
G92 E0.0
G1 X240.0 E25.0 F2200.0
M73 Q1 S8
M73 P1 R8
G1 Y-2.0 F1000.0
G1 X55.0 E25 F1400.0
G1 Z0.20 F1000.0
G1 X5.0 E4.0 F1000.0

M221 S95
G92 E0.0

; Don't change E values below. Excessive value can damage the printer.

M907 E538 ; set extruder motor current
G21 ; set units to millimeters
G90 ; use absolute coordinates
M83 ; use relative distances for extrusion
M900 K0.05 ; Filament gcode LA 1.5
M900 K30 ; Filament gcode LA 1.0
;BEFORE_LAYER_CHANGE
G92 E0.0
;0.2


G1 E-0.80000 F2100.00000
G1 Z0.600 F10800.000
;AFTER_LAYER_CHANGE
;0.2
G1 X119.250 Y99.251
G1 Z0.200
G1 E0.80000 F2100.00000
M204 S1000
G1 F1200.000
G1 X120.482 Y98.239 E0.04998
G1 X121.888 Y97.488 E0.04998
G1 X123.413 Y97.025 E0.04998
G1 X125.004 Y96.869 E0.05011
G1 X126.586 Y97.025 E0.04984
G1 X128.111 Y97.488 E0.04998
G1 X129.517 Y98.239 E0.04998
G1 X130.749 Y99.250 E0.04998
G1 X131.761 Y100.482 E0.04998
G1 X132.512 Y101.888 E0.04998
G1 X132.975 Y103.413 E0.04998
G1 X133.131 Y105.000 E0.04998
G1 X132.975 Y106.586 E0.04998
G1 X132.512 Y108.111 E0.04998
G1 X131.761 Y109.517 E0.04998
G1 X130.750 Y110.749 E0.04998
G1 X129.518 Y111.761 E0.04998
G1 X128.112 Y112.512 E0.04998
G1 X126.587 Y112.975 E0.04998
G1 X125.000 Y113.131 E0.04998
G1 X123.414 Y112.975 E0.04998
G1 X121.889 Y112.512 E0.04998
G1 X120.483 Y111.761 E0.04998
G1 X119.251 Y110.750 E0.04998
G1 X118.239 Y109.518 E0.04998
G1 X117.488 Y108.112 E0.04998
G1 X117.025 Y106.587 E0.04998
G1 X116.869 Y105.000 E0.04998
G1 X117.025 Y103.414 E0.04998
G1 X117.488 Y101.889 E0.04998
G1 X118.239 Y100.483 E0.04998
G1 X119.212 Y99.297 E0.04810
G1 X119.502 Y99.535 F10800.000
G1 F1200.000
G1 X120.691 Y98.553 E0.04835
G1 X122.032 Y97.836 E0.04766
G1 X123.486 Y97.395 E0.04766
G1 X125.003 Y97.246 E0.04779
G1 X126.512 Y97.395 E0.04753
G1 X127.967 Y97.836 E0.04766
G1 X129.307 Y98.552 E0.04766
G1 X130.482 Y99.516 E0.04766
G1 X131.447 Y100.691 E0.04766
G1 X132.164 Y102.032 E0.04766
G1 X132.605 Y103.486 E0.04766
G1 X132.754 Y104.999 E0.04766
G1 X132.605 Y106.512 E0.04766
G1 X132.164 Y107.967 E0.04766
G1 X131.448 Y109.307 E0.04766
G1 X130.484 Y110.482 E0.04766
G1 X129.309 Y111.447 E0.04766
G1 X127.968 Y112.164 E0.04766
G1 X126.514 Y112.605 E0.04766
G1 X125.001 Y112.754 E0.04766
G1 X123.488 Y112.605 E0.04766
G1 X122.033 Y112.164 E0.04766
G1 X120.693 Y111.448 E0.04766
G1 X119.518 Y110.484 E0.04766
G1 X118.553 Y109.309 E0.04766
G1 X117.836 Y107.968 E0.04766
G1 X117.395 Y106.514 E0.04766
G1 X117.246 Y105.001 E0.04766
G1 X117.395 Y103.488 E0.04766
G1 X117.836 Y102.033 E0.04766
G1 X118.552 Y100.693 E0.04766
G1 X119.464 Y99.581 E0.04507
G1 X119.754 Y99.819 F10800.000
G1 F1200.000
G1 X120.901 Y98.867 E0.04674
G1 X122.176 Y98.185 E0.04534
G1 X123.560 Y97.765 E0.04534
G1 X125.003 Y97.623 E0.04546
G1 X126.438 Y97.764 E0.04522
G1 X127.822 Y98.184 E0.04534
G1 X129.098 Y98.866 E0.04534
G1 X130.216 Y99.783 E0.04534
G1 X131.133 Y100.901 E0.04534
G1 X131.815 Y102.176 E0.04534
G1 X132.235 Y103.560 E0.04534
G1 X132.377 Y104.999 E0.04534
G1 X132.236 Y106.438 E0.04534
G1 X131.816 Y107.822 E0.04534
G1 X131.134 Y109.098 E0.04534
G1 X130.217 Y110.216 E0.04534
G1 X129.099 Y111.133 E0.04534
G1 X127.824 Y111.815 E0.04534
G1 X126.440 Y112.235 E0.04534
G1 X125.001 Y112.377 E0.04534
G1 X123.562 Y112.236 E0.04534
G1 X122.178 Y111.816 E0.04534
G1 X120.902 Y111.134 E0.04534
G1 X119.784 Y110.217 E0.04534
G1 X118.867 Y109.099 E0.04534
G1 X118.185 Y107.824 E0.04534
G1 X117.765 Y106.440 E0.04534
G1 X117.623 Y105.001 E0.04534
G1 X117.764 Y103.562 E0.04534
G1 X118.184 Y102.178 E0.04534
G1 X118.866 Y100.902 E0.04534
G1 X119.716 Y99.866 E0.04204
G1 F8640.000
G1 X120.901 Y98.867 E-0.35780
G1 X122.176 Y98.185 E-0.33392
G1 X122.459 Y98.099 E-0.06827
G1 E-0.04000 F2100.00000
G1 Z0.800 F10800.000
G1 X118.161 Y98.102
G1 Z0.200
G1 E0.80000 F2100.00000
G1 F1200.000
G1 X118.860 Y97.474 E0.02945
G1 X119.603 Y96.924 E0.02900
G1 X120.445 Y96.422 E0.03073
G1 X121.322 Y96.010 E0.03037
G1 X122.226 Y95.692 E0.03007
G1 X123.149 Y95.465 E0.02978
G1 X124.166 Y95.323 E0.03220
G1 X125.160 Y95.288 E0.03119
G1 X126.068 Y95.346 E0.02852
G1 X126.937 Y95.482 E0.02760
G1 X127.865 Y95.720 E0.03004
G1 X128.756 Y96.042 E0.02969
G1 X129.603 Y96.447 E0.02945
G1 X130.396 Y96.923 E0.02900
G1 X131.182 Y97.509 E0.03073
G1 X131.898 Y98.161 E0.03036
G1 X132.514 Y98.846 E0.02888
G1 X133.054 Y99.570 E0.02831
G1 X133.568 Y100.426 E0.03131
G1 X133.966 Y101.264 E0.02909
G1 X134.296 Y102.186 E0.03070
G1 X134.519 Y103.065 E0.02845
G1 X134.666 Y104.054 E0.03136
G1 X134.713 Y105.042 E0.03100
G1 X134.665 Y105.962 E0.02887
G1 X134.539 Y106.836 E0.02770
G1 X134.293 Y107.823 E0.03190
G1 X133.990 Y108.680 E0.02848
G1 X133.564 Y109.582 E0.03130
G1 X133.110 Y110.346 E0.02786
G1 X132.505 Y111.165 E0.03192
G1 X131.869 Y111.868 E0.02973
G1 X131.157 Y112.512 E0.03009
G1 X130.447 Y113.043 E0.02780
G1 X129.575 Y113.568 E0.03191
G1 X128.736 Y113.966 E0.02910
G1 X127.814 Y114.296 E0.03070
G1 X126.935 Y114.519 E0.02845
G1 X125.946 Y114.666 E0.03136
G1 X124.958 Y114.713 E0.03100
G1 X124.038 Y114.665 E0.02887
G1 X123.164 Y114.539 E0.02770
G1 X122.177 Y114.293 E0.03190
G1 X121.320 Y113.990 E0.02848
G1 X120.418 Y113.564 E0.03130
G1 X119.654 Y113.110 E0.02786
G1 X118.835 Y112.505 E0.03192
G1 X118.132 Y111.869 E0.02973
G1 X117.488 Y111.157 E0.03009
G1 X116.957 Y110.447 E0.02780
G1 X116.432 Y109.575 E0.03191
G1 X116.034 Y108.736 E0.02910
G1 X115.704 Y107.814 E0.03070
G1 X115.481 Y106.935 E0.02845
G1 X115.334 Y105.946 E0.03136
G1 X115.287 Y104.958 E0.03100
G1 X115.335 Y104.038 E0.02888
G1 X115.465 Y103.145 E0.02831
G1 X115.707 Y102.176 E0.03132
G1 X116.026 Y101.283 E0.02971
G1 X116.437 Y100.416 E0.03010
G1 X116.912 Y99.621 E0.02903
G1 X117.508 Y98.818 E0.03134
G1 X118.121 Y98.146 E0.02851
G1 X118.399 Y98.400 F10800.000
G1 F1200.000
G1 X119.092 Y97.772 E0.02932
G1 X119.805 Y97.242 E0.02784
G1 X120.614 Y96.759 E0.02956
G1 X121.456 Y96.362 E0.02918
G1 X122.326 Y96.056 E0.02892
G1 X123.211 Y95.837 E0.02858
G1 X124.189 Y95.699 E0.03098
G1 X125.146 Y95.665 E0.03001
G1 X126.018 Y95.720 E0.02742
G1 X126.853 Y95.849 E0.02648
G1 X127.746 Y96.077 E0.02890
G1 X128.602 Y96.386 E0.02853
G1 X129.417 Y96.776 E0.02833
G1 X130.179 Y97.232 E0.02784
G1 X130.936 Y97.794 E0.02956
G1 X131.624 Y98.421 E0.02918
G1 X132.228 Y99.092 E0.02831
G1 X132.736 Y99.772 E0.02661
G1 X133.240 Y100.612 E0.03073
G1 X133.614 Y101.400 E0.02734
G1 X133.938 Y102.304 E0.03012
G1 X134.147 Y103.130 E0.02671
G1 X134.292 Y104.101 E0.03076
G1 X134.336 Y105.032 E0.02922
G1 X134.289 Y105.933 E0.02831
G1 X134.170 Y106.754 E0.02601
G1 X133.929 Y107.724 E0.03132
G1 X133.645 Y108.527 E0.02673
G1 X133.226 Y109.413 E0.03072
G1 X132.801 Y110.130 E0.02613
G1 X132.207 Y110.934 E0.03133
G1 X131.609 Y111.595 E0.02796
G1 X130.910 Y112.226 E0.02952
G1 X130.244 Y112.725 E0.02609
G1 X129.388 Y113.240 E0.03132
G1 X128.600 Y113.614 E0.02735
G1 X127.696 Y113.938 E0.03012
G1 X126.870 Y114.147 E0.02671
G1 X125.899 Y114.292 E0.03076
G1 X124.968 Y114.336 E0.02922
G1 X124.067 Y114.289 E0.02831
G1 X123.246 Y114.170 E0.02601
G1 X122.276 Y113.929 E0.03132
G1 X121.473 Y113.645 E0.02673
G1 X120.587 Y113.226 E0.03072
G1 X119.870 Y112.801 E0.02613
G1 X119.066 Y112.207 E0.03133
G1 X118.405 Y111.609 E0.02796
G1 X117.774 Y110.910 E0.02952
G1 X117.275 Y110.244 E0.02609
G1 X116.760 Y109.388 E0.03132
G1 X116.386 Y108.600 E0.02734
G1 X116.062 Y107.696 E0.03013
G1 X115.853 Y106.870 E0.02671
G1 X115.708 Y105.899 E0.03076
G1 X115.664 Y104.968 E0.02922
G1 X115.711 Y104.067 E0.02831
G1 X115.833 Y103.227 E0.02661
G1 X116.071 Y102.276 E0.03073
G1 X116.370 Y101.436 E0.02796
G1 X116.774 Y100.585 E0.02953
G1 X117.220 Y99.838 E0.02730
G1 X117.794 Y99.065 E0.03017
G1 X118.359 Y98.444 E0.02633
G1 X118.637 Y98.697 F10800.000
G1 F1200.000
G1 X119.338 Y98.058 E0.02974
G1 X120.006 Y97.561 E0.02612
G1 X120.800 Y97.087 E0.02898
G1 X121.591 Y96.715 E0.02742
G1 X122.426 Y96.419 E0.02777
G1 X123.273 Y96.209 E0.02738
G1 X124.213 Y96.076 E0.02975
G1 X125.132 Y96.042 E0.02883
G1 X125.970 Y96.094 E0.02632
G1 X126.769 Y96.217 E0.02536
G1 X127.627 Y96.435 E0.02776
G1 X128.448 Y96.731 E0.02736
G1 X129.247 Y97.112 E0.02775
G1 X129.961 Y97.540 E0.02612
G1 X130.703 Y98.091 E0.02898
G1 X131.350 Y98.680 E0.02742
G1 X131.942 Y99.338 E0.02774
G1 X132.417 Y99.974 E0.02491
G1 X132.912 Y100.798 E0.03014
G1 X133.263 Y101.535 E0.02559
G1 X133.580 Y102.423 E0.02955
G1 X133.776 Y103.195 E0.02498
G1 X133.918 Y104.147 E0.03017
G1 X133.959 Y105.021 E0.02744
G1 X133.913 Y105.905 E0.02775
G1 X133.802 Y106.673 E0.02432
G1 X133.566 Y107.624 E0.03073
G1 X133.300 Y108.375 E0.02499
G1 X132.889 Y109.244 E0.03015
G1 X132.492 Y109.914 E0.02439
G1 X131.909 Y110.702 E0.03074
G1 X131.349 Y111.322 E0.02620
G1 X130.664 Y111.941 E0.02895
G1 X130.042 Y112.407 E0.02437
G1 X129.202 Y112.912 E0.03074
G1 X128.465 Y113.263 E0.02559
G1 X127.577 Y113.580 E0.02955
G1 X126.805 Y113.776 E0.02498
G1 X125.853 Y113.918 E0.03017
G1 X124.979 Y113.959 E0.02744
G1 X124.095 Y113.913 E0.02775
G1 X123.327 Y113.802 E0.02432
G1 X122.376 Y113.566 E0.03073
G1 X121.625 Y113.300 E0.02499
G1 X120.756 Y112.889 E0.03015
G1 X120.086 Y112.492 E0.02439
G1 X119.298 Y111.909 E0.03074
G1 X118.678 Y111.349 E0.02620
G1 X118.059 Y110.664 E0.02895
G1 X117.593 Y110.042 E0.02437
G1 X117.088 Y109.202 E0.03074
G1 X116.737 Y108.465 E0.02559
G1 X116.420 Y107.577 E0.02955
G1 X116.224 Y106.805 E0.02498
G1 X116.082 Y105.853 E0.03017
G1 X116.041 Y104.979 E0.02745
G1 X116.087 Y104.095 E0.02774
G1 X116.201 Y103.309 E0.02491
G1 X116.434 Y102.376 E0.03015
G1 X116.715 Y101.589 E0.02620
G1 X117.111 Y100.755 E0.02895
G1 X117.529 Y100.055 E0.02557
G1 X118.091 Y99.297 E0.02957
G1 X118.597 Y98.741 E0.02356
G1 X118.875 Y98.994 F10800.000
G1 F1200.000
G1 X119.583 Y98.344 E0.03015
G1 X120.208 Y97.880 E0.02439
G1 X120.985 Y97.416 E0.02839
G1 X121.726 Y97.067 E0.02566
G1 X122.543 Y96.778 E0.02719
G1 X123.336 Y96.581 E0.02563
G1 X124.237 Y96.452 E0.02853
G1 X125.118 Y96.419 E0.02764
G1 X125.921 Y96.468 E0.02522
G1 X126.685 Y96.585 E0.02423
G1 X127.525 Y96.798 E0.02718
G1 X128.294 Y97.075 E0.02562
G1 X129.076 Y97.449 E0.02718
G1 X129.744 Y97.848 E0.02440
G1 X130.471 Y98.388 E0.02839
G1 X131.076 Y98.939 E0.02567
G1 X131.656 Y99.583 E0.02718
G1 X132.099 Y100.176 E0.02320
G1 X132.584 Y100.985 E0.02956
G1 X132.911 Y101.671 E0.02384
G1 X133.222 Y102.541 E0.02897
G1 X133.404 Y103.260 E0.02325
G1 X133.543 Y104.193 E0.02957
G1 X133.582 Y105.011 E0.02567
G1 X133.537 Y105.876 E0.02718
G1 X133.430 Y106.609 E0.02321
G1 X133.202 Y107.524 E0.02956
G1 X132.955 Y108.223 E0.02325
G1 X132.552 Y109.075 E0.02956
G1 X132.173 Y109.712 E0.02325
G1 X131.612 Y110.470 E0.02956
G1 X131.089 Y111.048 E0.02444
G1 X130.418 Y111.655 E0.02838
G1 X129.824 Y112.099 E0.02324
G1 X129.015 Y112.584 E0.02956
G1 X128.329 Y112.911 E0.02384
G1 X127.459 Y113.222 E0.02897
G1 X126.740 Y113.404 E0.02325
G1 X125.807 Y113.543 E0.02957
G1 X124.989 Y113.582 E0.02567
G1 X124.124 Y113.537 E0.02718
G1 X123.391 Y113.430 E0.02321
G1 X122.476 Y113.202 E0.02956
G1 X121.777 Y112.955 E0.02325
G1 X120.925 Y112.552 E0.02956
G1 X120.288 Y112.173 E0.02325
G1 X119.530 Y111.612 E0.02956
G1 X118.952 Y111.089 E0.02444
G1 X118.345 Y110.418 E0.02838
G1 X117.901 Y109.824 E0.02324
G1 X117.416 Y109.015 E0.02956
G1 X117.089 Y108.329 E0.02384
G1 X116.778 Y107.459 E0.02897
G1 X116.596 Y106.740 E0.02325
G1 X116.457 Y105.807 E0.02957
G1 X116.418 Y104.989 E0.02567
G1 X116.463 Y104.124 E0.02718
G1 X116.570 Y103.391 E0.02320
G1 X116.798 Y102.477 E0.02956
G1 X117.060 Y101.742 E0.02444
G1 X117.448 Y100.925 E0.02837
G1 X117.837 Y100.272 E0.02384
G1 X118.388 Y99.530 E0.02898
G1 X118.835 Y99.039 E0.02080
G1 F8640.000
G1 X119.583 Y98.344 E-0.23587
G1 X120.208 Y97.880 E-0.17965
G1 X120.985 Y97.416 E-0.20905
G1 X121.516 Y97.166 E-0.13543
G1 E-0.04000 F2100.00000
G1 Z0.800 F10800.000
G1 X119.948 Y100.051
G1 Z0.200
G1 E0.80000 F2100.00000
G1 F1200.000
G1 X120.566 Y99.489 E0.02618
G1 X121.044 Y99.135 E0.01866
G1 X121.726 Y98.730 E0.02487
G1 X122.264 Y98.476 E0.01866
G1 X123.012 Y98.212 E0.02487
G1 X123.590 Y98.068 E0.01866
G1 X124.375 Y97.954 E0.02490
G1 X125.067 Y97.927 E0.02169
G1 X125.764 Y97.968 E0.02191
G1 X126.350 Y98.056 E0.01857
G1 X127.118 Y98.251 E0.02486
G1 X127.679 Y98.453 E0.01866
G1 X128.394 Y98.794 E0.02487
G1 X128.904 Y99.101 E0.01866
G1 X129.540 Y99.576 E0.02487
G1 X129.980 Y99.976 E0.01866
G1 X130.511 Y100.566 E0.02487
G1 X130.865 Y101.044 E0.01866
G1 X131.270 Y101.726 E0.02487
G1 X131.524 Y102.264 E0.01866
G1 X131.788 Y103.012 E0.02487
G1 X131.932 Y103.590 E0.01866
G1 X132.046 Y104.375 E0.02487
G1 X132.074 Y104.969 E0.01866
G1 X132.032 Y105.761 E0.02487
G1 X131.944 Y106.350 E0.01866
G1 X131.749 Y107.118 E0.02487
G1 X131.547 Y107.679 E0.01866
G1 X131.206 Y108.394 E0.02487
G1 X130.899 Y108.904 E0.01866
G1 X130.424 Y109.540 E0.02487
G1 X130.024 Y109.980 E0.01866
G1 X129.434 Y110.511 E0.02487
G1 X128.956 Y110.865 E0.01866
G1 X128.274 Y111.270 E0.02487
G1 X127.736 Y111.524 E0.01866
G1 X126.988 Y111.788 E0.02487
G1 X126.410 Y111.932 E0.01866
G1 X125.625 Y112.046 E0.02487
G1 X125.031 Y112.074 E0.01866
G1 X124.239 Y112.032 E0.02487
G1 X123.650 Y111.944 E0.01866
G1 X122.882 Y111.749 E0.02487
G1 X122.321 Y111.547 E0.01866
G1 X121.606 Y111.206 E0.02487
G1 X121.096 Y110.899 E0.01866
G1 X120.460 Y110.424 E0.02487
G1 X120.020 Y110.024 E0.01866
G1 X119.489 Y109.434 E0.02487
G1 X119.135 Y108.956 E0.01866
G1 X118.730 Y108.274 E0.02487
G1 X118.476 Y107.736 E0.01866
G1 X118.212 Y106.988 E0.02487
G1 X118.068 Y106.410 E0.01866
G1 X117.954 Y105.625 E0.02487
G1 X117.926 Y105.031 E0.01866
G1 X117.968 Y104.239 E0.02487
G1 X118.056 Y103.650 E0.01866
G1 X118.251 Y102.882 E0.02487
G1 X118.453 Y102.321 E0.01866
G1 X118.794 Y101.606 E0.02487
G1 X119.101 Y101.096 E0.01866
G1 X119.576 Y100.460 E0.02487
G1 X119.907 Y100.095 E0.01546
G1 X120.186 Y100.349 F10800.000
G1 F1200.000
G1 X120.811 Y99.776 E0.02658
G1 X121.260 Y99.445 E0.01751
G1 X121.910 Y99.059 E0.02370
G1 X122.416 Y98.822 E0.01751
G1 X123.129 Y98.570 E0.02370
G1 X123.671 Y98.436 E0.01751
G1 X124.419 Y98.329 E0.02371
G1 X125.054 Y98.304 E0.01991
G1 X125.733 Y98.344 E0.02135
G1 X126.284 Y98.427 E0.01746
G1 X127.016 Y98.614 E0.02370
G1 X127.541 Y98.804 E0.01751
G1 X128.223 Y99.130 E0.02370
G1 X128.701 Y99.419 E0.01751
G1 X129.306 Y99.872 E0.02370
G1 X129.719 Y100.248 E0.01751
G1 X130.224 Y100.811 E0.02370
G1 X130.555 Y101.260 E0.01751
G1 X130.941 Y101.910 E0.02370
G1 X131.178 Y102.416 E0.01751
G1 X131.430 Y103.129 E0.02370
G1 X131.564 Y103.671 E0.01751
G1 X131.671 Y104.419 E0.02370
G1 X131.697 Y104.977 E0.01751
G1 X131.656 Y105.732 E0.02370
G1 X131.573 Y106.284 E0.01751
G1 X131.386 Y107.016 E0.02370
G1 X131.196 Y107.541 E0.01751
G1 X130.870 Y108.223 E0.02370
G1 X130.581 Y108.701 E0.01751
G1 X130.128 Y109.306 E0.02370
G1 X129.752 Y109.719 E0.01751
G1 X129.189 Y110.224 E0.02370
G1 X128.740 Y110.555 E0.01751
G1 X128.090 Y110.941 E0.02370
G1 X127.584 Y111.178 E0.01751
G1 X126.871 Y111.430 E0.02370
G1 X126.329 Y111.564 E0.01751
