; generated by PrusaSlicer 2.2.0+win64 on 2021-01-06 at 17:57:11 UTC

; 

; external perimeters extrusion width = 0.45mm
; perimeters extrusion width = 0.45mm
; infill extrusion width = 0.45mm
; solid infill extrusion width = 0.45mm
; top infill extrusion width = 0.40mm
; first layer extrusion width = 0.42mm

; external perimeters extrusion width = 0.45mm
; perimeters extrusion width = 0.45mm
; infill extrusion width = 0.45mm
; solid infill extrusion width = 0.45mm
; top infill extrusion width = 0.40mm
; first layer extrusion width = 0.42mm

; external perimeters extrusion width = 0.45mm
; perimeters extrusion width = 0.45mm
; infill extrusion width = 0.45mm
; solid infill extrusion width = 0.45mm
; top infill extrusion width = 0.40mm
; first layer extrusion width = 0.42mm

M73 P0 R87
M73 Q0 S91
M201 X1000 Y1000 Z200 E8000 ; sets maximum accelerations, mm/sec^2
M203 X200 Y200 Z12 E120 ; sets maximum feedrates, mm/sec
M204 P1250 R1250 T1250 ; sets acceleration (P, T) and retract acceleration (R), mm/sec^2
M205 X8.00 Y8.00 Z0.40 E4.50 ; sets the jerk limits, mm/sec
M205 S0 T0 ; sets the minimum extruding and travel feed rate, mm/sec
M107
M862.3 P "MK3SMMU2S" ; printer model check
M862.1 P0.4 ; nozzle diameter check
M115 U3.9.1 ; tell printer latest fw version
G90 ; use absolute coordinates
M83 ; extruder relative mode
M104 S215 ; set extruder temp
M140 S60 ; set bed temp
M190 S60 ; wait for bed temp
M109 S215 ; wait for extruder temp
G28 W ; home all without mesh bed level
G80 ; mesh bed leveling

; Send the filament type to the MMU2.0 unit.
; E stands for extruder number, F stands for filament type (0: default; 1:flex; 2: PVA)
M403 E0 F0
M403 E1 F0
M403 E2 F0
M403 E3 F0
M403 E4 F0


;go outside print area
G1 Y-3.0 F1000.0
G1 Z0.4 F1000.0
; select extruder
T1
; initial load
G1 X55.0 E29.0 F1073.0
M73 Q0 S91
M73 P0 R87
G1 X5.0 E29.0 F1800.0
G1 X55.0 E8.0 F2000.0
G1 Z0.3 F1000.0
G92 E0.0
G1 X240.0 E25.0 F2200.0
G1 Y-2.0 F1000.0
G1 X55.0 E25 F1400.0
G1 Z0.20 F1000.0
G1 X5.0 E4.0 F1000.0
G92 E0.0


M221 S95
G92 E0.0

; Don't change E values below. Excessive value can damage the printer.

M907 E538 ; set extruder motor current
G21 ; set units to millimeters
G90 ; use absolute coordinates
M83 ; use relative distances for extrusion
T1
M900 K0.05 ; Filament gcode LA 1.5
M900 K30 ; Filament gcode LA 1.0
G1 Z0.200 F10800.000
;BEFORE_LAYER_CHANGE
G92 E0.0
;0.2


G1 E-0.80000 F2100.00000
G1 Z0.800 F10800.000
G1 Z0.200
;AFTER_LAYER_CHANGE
;0.2
G1 E-2.20000 F2100.00000
G1 Z0.800 F10800.000
G1 X186.438 Y74.516
G1 Z0.200
G1 E3.00000 F2100.00000
;-------------------------------------
; CP WIPE TOWER FIRST LAYER BRIM START
G1  X186.438 Y88.576  E0.8016 F2400
G1  X183.895 Y89.033   F7000
G1  Y74.059  E0.6260 F2100
G1  X122.981  E2.5466
G1  Y89.033  E0.6260
G1  X183.895  E2.5466
G1  X184.352 Y89.490   F7000
G1  Y73.602  E0.6642 F2100
G1  X122.524  E2.5849
G1  Y89.490  E0.6642
G1  X184.352  E2.5849
G1  X184.809 Y89.947   F7000
G1  Y73.145  E0.7025 F2100
G1  X122.067  E2.6231
G1  Y89.947  E0.7025
G1  X184.809  E2.6231
G1  X185.266 Y90.404   F7000
G1  Y72.688  E0.7407 F2100
G1  X121.610  E2.6613
G1  Y90.404  E0.7407
G1  X185.266  E2.6613
G1  X183.438 Y88.576   F7000
G1  X123.438 
G1  X183.438 
; CP WIPE TOWER FIRST LAYER BRIM END
;-----------------------------------
G1  X182.938 Y75.016   F7200
;--------------------
; CP EMPTY GRID START
; layer #1
G1  X183.438 
G1  Y74.516 
G1  Y88.576  E0.5344 F1450
G1  X123.438  E2.2804
G1  Y74.516  E0.5344
G1  X183.438  E2.2804
G1  X182.938 
G1  Y75.016 
G1  Y88.076  E0.4964
G1  X123.938  E2.2424
G1  Y75.016  E0.4964
G1  X182.938  E2.2424
G1  Y88.076 
G1  X182.438 Y87.553   E0.0275
G1  X124.438  E2.2044
G1  Y87.029  E0.0199
G1  X182.438  E2.2044
M73 Q1 S90
G1  Y86.506  E0.0199
G1  X124.438  E2.2044
M73 P1 R86
G1  Y85.983  E0.0199
G1  X182.438  E2.2044
G1  Y85.459  E0.0199
G1  X124.438  E2.2044
G1  Y84.936  E0.0199
G1  X182.438  E2.2044
G1  Y84.413  E0.0199
G1  X124.438  E2.2044
G1  Y83.889  E0.0199
G1  X182.438  E2.2044
G1  Y83.366  E0.0199
G1  X124.438  E2.2044
G1  Y82.843  E0.0199
G1  X182.438  E2.2044
G1  Y82.319  E0.0199
G1  X124.438  E2.2044
G1  Y81.796  E0.0199
G1  X182.438  E2.2044
G1  Y81.273  E0.0199
G1  X124.438  E2.2044
G1  Y80.749  E0.0199
G1  X182.438  E2.2044
G1  Y80.226  E0.0199
G1  X124.438  E2.2044
G1  Y79.703  E0.0199
G1  X182.438  E2.2044
G1  Y79.179  E0.0199
G1  X124.438  E2.2044
G1  Y78.656  E0.0199
G1  X182.438  E2.2044
G1  Y78.133  E0.0199
G1  X124.438  E2.2044
G1  Y77.609  E0.0199
G1  X182.438  E2.2044
G1  Y77.086  E0.0199
G1  X124.438  E2.2044
G1  Y76.563  E0.0199
G1  X182.438  E2.2044
G1  Y76.039  E0.0199
G1  X124.438  E2.2044
G1  Y75.516  E0.0199
G1  X182.438  E2.2044
G1  X124.438 
; CP EMPTY GRID END
;------------------







G1 F8640.000
G1 X121.146 Y75.516 E-0.76000
G1 E-0.04000 F2100.00000
G1 Z0.800 F10800.000
G1 X187.783 Y71.816
G1 Z0.200
G1 E0.80000 F2100.00000
M204 S1000
G1 F1200.000
G1 X187.872 Y72.448 E0.02000
G1 X187.872 Y90.660 E0.57102
G1 X187.810 Y91.169 E0.01609
G1 X187.641 Y91.654 E0.01609
G1 X159.087 Y141.944 E1.81327
M73 Q2 S89
G1 X157.994 Y143.582 E0.06175
G1 X156.795 Y145.144 E0.06175
G1 X154.740 Y147.402 E0.09570
G1 X153.271 Y148.764 E0.06282
G1 X151.741 Y150.003 E0.06175
G1 X149.210 Y151.724 E0.09594
G1 X147.467 Y152.704 E0.06270
G1 X145.655 Y153.568 E0.06294
G1 X143.790 Y154.309 E0.06294
G1 X141.878 Y154.922 E0.06294
G1 X139.930 Y155.406 E0.06294
G1 X137.954 Y155.759 E0.06294
G1 X135.959 Y155.977 E0.06294
G1 X133.915 Y156.061 E0.06413
G1 X131.908 Y156.008 E0.06294
M73 P2 R85
G1 X129.041 Y155.695 E0.09044
G1 X126.991 Y155.299 E0.06546
G1 X125.085 Y154.792 E0.06187
G1 X123.147 Y154.135 E0.06413
G1 X121.294 Y153.363 E0.06294
G1 X119.497 Y152.469 E0.06294
G1 X117.777 Y151.463 E0.06246
G1 X115.303 Y149.723 E0.09486
G1 X113.033 Y147.757 E0.09415
G1 X69.090 Y105.176 E1.91854
G1 X67.691 Y103.716 E0.06341
G1 X66.392 Y102.162 E0.06350
G1 X65.199 Y100.521 E0.06362
G1 X64.140 Y98.835 E0.06243
G1 X63.161 Y97.014 E0.06481
G1 X62.327 Y95.169 E0.06350
G1 X61.617 Y93.264 E0.06374
G1 X61.061 Y91.401 E0.06096
G1 X60.417 Y88.301 E0.09925
G1 X60.182 Y86.321 E0.06254
G1 X60.078 Y84.255 E0.06484
G1 X60.113 Y82.265 E0.06240
G1 X60.285 Y80.244 E0.06362
G1 X60.594 Y78.238 E0.06362
G1 X61.039 Y76.259 E0.06362
G1 X61.617 Y74.313 E0.06362
G1 X62.325 Y72.412 E0.06362
G1 X63.159 Y70.567 E0.06350
G1 X64.118 Y68.779 E0.06362
G1 X65.197 Y67.060 E0.06362
G1 X66.389 Y65.418 E0.06362
G1 X67.690 Y63.861 E0.06362
G1 X69.067 Y62.423 E0.06243
G1 X71.412 Y60.360 E0.09793
G1 X73.013 Y59.177 E0.06240
G1 X74.756 Y58.065 E0.06484
G1 X76.502 Y57.110 E0.06240
G1 X78.344 Y56.258 E0.06362
G1 X80.236 Y55.535 E0.06350
G1 X82.179 Y54.940 E0.06374
G1 X84.155 Y54.479 E0.06362
G1 X86.154 Y54.154 E0.06350
G1 X88.174 Y53.964 E0.06362
G1 X90.188 Y53.912 E0.06314
G1 X92.273 Y54.002 E0.06543
G1 X95.226 Y54.381 E0.09335
G1 X185.912 Y70.119 E2.88592
G1 X186.394 Y70.259 E0.01574
G1 X186.839 Y70.499 E0.01585
G1 X187.224 Y70.828 E0.01585
G1 X187.529 Y71.231 E0.01585
G1 X187.759 Y71.761 E0.01812
G1 F8640.000
G1 X187.872 Y72.448 E-0.16071
G1 X187.872 Y75.043 E-0.59929
G1 E-0.04000 F2100.00000
G1 Z0.800 F10800.000
G1 X147.722 Y107.446
G1 Z0.200
G1 E0.80000 F2100.00000
G1 F1200.000
G1 X147.661 Y107.558 E0.00399
G1 X148.375 Y108.100 E0.02810
G1 X148.994 Y108.621 E0.02537
G1 X149.592 Y109.160 E0.02523
G1 X150.171 Y109.719 E0.02523
G1 X150.730 Y110.298 E0.02523
G1 X151.269 Y110.895 E0.02523
G1 X151.789 Y111.515 E0.02537
G1 X152.331 Y112.229 E0.02810
G1 X152.443 Y112.168 E0.00399
G1 X152.770 Y112.051 E0.01087
G1 X153.098 Y111.977 E0.01056
G1 X153.433 Y111.944 E0.01056
G1 X153.770 Y111.950 E0.01056
G1 X154.103 Y111.998 E0.01056
G1 X154.429 Y112.085 E0.01056
G1 X154.741 Y112.211 E0.01056
G1 X155.036 Y112.373 E0.01056
G1 X155.312 Y112.572 E0.01065
G1 X155.574 Y112.819 E0.01131
G1 X155.775 Y113.055 E0.00971
G1 X155.960 Y113.336 E0.01056
G1 X156.111 Y113.637 E0.01056
G1 X156.224 Y113.954 E0.01056
G1 X156.298 Y114.283 E0.01056
G1 X156.332 Y114.618 E0.01056
G1 X156.325 Y114.954 E0.01056
G1 X156.278 Y115.288 E0.01056
G1 X156.191 Y115.613 E0.01056
G1 X156.065 Y115.925 E0.01056
G1 X155.902 Y116.220 E0.01056
G1 X155.706 Y116.493 E0.01056
G1 X155.477 Y116.741 E0.01056
G1 X155.213 Y116.966 E0.01087
G1 X155.105 Y117.032 E0.00399
G1 X155.452 Y117.858 E0.02810
G1 X155.728 Y118.619 E0.02537
G1 X155.976 Y119.385 E0.02523
G1 X156.198 Y120.158 E0.02523
G1 X156.393 Y120.939 E0.02523
G1 X156.560 Y121.726 E0.02523
G1 X156.702 Y122.523 E0.02537
G1 X156.814 Y123.412 E0.02810
G1 X156.941 Y123.415 E0.00399
G1 X157.282 Y123.478 E0.01087
G1 X157.604 Y123.578 E0.01056
G1 X157.911 Y123.716 E0.01056
G1 X158.199 Y123.890 E0.01056
G1 X158.464 Y124.098 E0.01056
G1 X158.702 Y124.336 E0.01056
G1 X158.910 Y124.601 E0.01056
G1 X159.084 Y124.889 E0.01056
G1 X159.222 Y125.196 E0.01056
G1 X159.323 Y125.518 E0.01056
G1 X159.383 Y125.849 E0.01056
G1 X159.404 Y126.185 E0.01056
G1 X159.383 Y126.521 E0.01056
G1 X159.323 Y126.853 E0.01056
G1 X159.222 Y127.174 E0.01056
G1 X159.084 Y127.481 E0.01056
G1 X158.910 Y127.769 E0.01056
G1 X158.702 Y128.034 E0.01056
G1 X158.464 Y128.273 E0.01056
G1 X158.199 Y128.480 E0.01056
G1 X157.911 Y128.654 E0.01056
G1 X157.604 Y128.793 E0.01056
G1 X157.282 Y128.893 E0.01056
G1 X156.941 Y128.955 E0.01087
G1 X156.814 Y128.959 E0.00399
G1 X156.702 Y129.848 E0.02810
G1 X156.560 Y130.645 E0.02537
G1 X156.393 Y131.432 E0.02523
G1 X156.198 Y132.212 E0.02523
G1 X155.976 Y132.986 E0.02523
G1 X155.728 Y133.752 E0.02523
G1 X155.452 Y134.512 E0.02537
G1 X155.105 Y135.338 E0.02810
G1 X155.213 Y135.405 E0.00399
G1 X155.477 Y135.630 E0.01087
G1 X155.706 Y135.877 E0.01056
G1 X155.902 Y136.150 E0.01056
G1 X156.065 Y136.445 E0.01056
G1 X156.191 Y136.758 E0.01056
G1 X156.278 Y137.083 E0.01056
G1 X156.325 Y137.416 E0.01056
G1 X156.332 Y137.753 E0.01056
G1 X156.298 Y138.091 E0.01065
G1 X156.215 Y138.442 E0.01131
G1 X156.111 Y138.734 E0.00971
G1 X155.960 Y139.035 E0.01056
G1 X155.775 Y139.316 E0.01056
G1 X155.557 Y139.572 E0.01056
G1 X155.309 Y139.801 E0.01056
G1 X155.036 Y139.998 E0.01056
G1 X154.741 Y140.160 E0.01056
G1 X154.429 Y140.286 E0.01056
G1 X154.103 Y140.373 E0.01056
G1 X153.770 Y140.420 E0.01056
G1 X153.433 Y140.427 E0.01056
G1 X153.098 Y140.393 E0.01056
G1 X152.770 Y140.319 E0.01056
G1 X152.443 Y140.203 E0.01087
G1 X152.331 Y140.142 E0.00399
G1 X151.789 Y140.856 E0.02810
G1 X151.269 Y141.475 E0.02537
G1 X150.730 Y142.073 E0.02523
G1 X150.171 Y142.652 E0.02523
G1 X149.592 Y143.211 E0.02523
G1 X148.994 Y143.750 E0.02523
G1 X148.375 Y144.270 E0.02537
G1 X147.661 Y144.812 E0.02810
G1 X147.722 Y144.924 E0.00399
G1 X147.839 Y145.254 E0.01096
G1 X147.915 Y145.606 E0.01131
G1 X147.946 Y145.914 E0.00971
G1 X147.939 Y146.251 E0.01056
G1 X147.892 Y146.585 E0.01056
G1 X147.805 Y146.910 E0.01056
G1 X147.678 Y147.225 E0.01065
G1 X147.501 Y147.539 E0.01131
G1 X147.320 Y147.790 E0.00971
G1 X147.091 Y148.038 E0.01056
G1 X146.835 Y148.256 E0.01056
G1 X146.554 Y148.442 E0.01056
G1 X146.253 Y148.592 E0.01056
G1 X145.935 Y148.705 E0.01056
G1 X145.607 Y148.779 E0.01056
G1 X145.272 Y148.813 E0.01056
G1 X144.935 Y148.806 E0.01056
G1 X144.602 Y148.759 E0.01056
G1 X144.277 Y148.672 E0.01056
G1 X143.964 Y148.546 E0.01056
G1 X143.669 Y148.384 E0.01056
G1 X143.396 Y148.187 E0.01056
G1 X143.148 Y147.958 E0.01056
G1 X142.924 Y147.694 E0.01087
G1 X142.857 Y147.586 E0.00399
G1 X142.031 Y147.933 E0.02810
G1 X141.270 Y148.209 E0.02537
G1 X140.505 Y148.457 E0.02523
G1 X139.731 Y148.679 E0.02523
G1 X138.950 Y148.874 E0.02523
G1 X138.163 Y149.042 E0.02523
G1 X137.367 Y149.183 E0.02537
G1 X136.477 Y149.295 E0.02810
G1 X136.474 Y149.423 E0.00399
G1 X136.412 Y149.764 E0.01087
G1 X136.311 Y150.085 E0.01056
G1 X136.173 Y150.392 E0.01056
G1 X135.999 Y150.680 E0.01056
G1 X135.791 Y150.945 E0.01056
G1 X135.553 Y151.183 E0.01056
G1 X135.288 Y151.391 E0.01056
G1 X135.000 Y151.565 E0.01056
G1 X134.693 Y151.704 E0.01056
G1 X134.371 Y151.804 E0.01056
G1 X134.040 Y151.864 E0.01056
G1 X133.704 Y151.885 E0.01056
G1 X133.368 Y151.864 E0.01056
G1 X133.037 Y151.804 E0.01056
G1 X132.715 Y151.704 E0.01056
G1 X132.408 Y151.565 E0.01056
G1 X132.120 Y151.391 E0.01056
G1 X131.855 Y151.183 E0.01056
G1 X131.617 Y150.945 E0.01056
G1 X131.409 Y150.680 E0.01056
G1 X131.235 Y150.392 E0.01056
G1 X131.097 Y150.085 E0.01056
G1 X130.997 Y149.764 E0.01056
G1 X130.934 Y149.423 E0.01087
G1 X130.931 Y149.295 E0.00399
G1 X130.042 Y149.183 E0.02810
G1 X129.245 Y149.042 E0.02537
G1 X128.458 Y148.874 E0.02523
G1 X127.677 Y148.679 E0.02523
G1 X126.903 Y148.457 E0.02523
G1 X126.138 Y148.209 E0.02523
G1 X125.377 Y147.933 E0.02537
G1 X124.551 Y147.586 E0.02810
G1 X124.484 Y147.694 E0.00399
G1 X124.260 Y147.958 E0.01087
G1 X124.012 Y148.187 E0.01056
G1 X123.739 Y148.384 E0.01056
G1 X123.444 Y148.546 E0.01056
G1 X123.129 Y148.673 E0.01065
G1 X122.780 Y148.763 E0.01131
G1 X122.473 Y148.806 E0.00971
G1 X122.136 Y148.813 E0.01056
G1 X121.801 Y148.779 E0.01056
G1 X121.473 Y148.705 E0.01056
G1 X121.156 Y148.592 E0.01056
G1 X120.854 Y148.442 E0.01056
G1 X120.573 Y148.256 E0.01056
G1 X120.317 Y148.038 E0.01056
G1 X120.089 Y147.790 E0.01056
G1 X119.890 Y147.515 E0.01065
G1 X119.719 Y147.197 E0.01131
G1 X119.604 Y146.910 E0.00971
G1 X119.516 Y146.585 E0.01056
G1 X119.469 Y146.251 E0.01056
G1 X119.462 Y145.914 E0.01056
G1 X119.496 Y145.579 E0.01056
G1 X119.570 Y145.251 E0.01056
G1 X119.687 Y144.924 E0.01087
G1 X119.747 Y144.812 E0.00399
G1 X119.033 Y144.270 E0.02810
G1 X118.414 Y143.750 E0.02537
G1 X117.816 Y143.211 E0.02523
G1 X117.238 Y142.652 E0.02523
G1 X116.678 Y142.073 E0.02523
G1 X116.140 Y141.475 E0.02523
G1 X115.619 Y140.856 E0.02537
G1 X115.077 Y140.142 E0.02810
G1 X114.965 Y140.203 E0.00399
G1 X114.638 Y140.319 E0.01087
G1 X114.310 Y140.393 E0.01056
G1 X113.975 Y140.427 E0.01056
G1 X113.638 Y140.420 E0.01056
G1 X113.305 Y140.373 E0.01056
G1 X112.980 Y140.286 E0.01056
G1 X112.664 Y140.159 E0.01065
G1 X112.350 Y139.982 E0.01131
G1 X112.099 Y139.801 E0.00971
G1 X111.852 Y139.572 E0.01056
G1 X111.633 Y139.316 E0.01056
G1 X111.448 Y139.035 E0.01056
G1 X111.297 Y138.734 E0.01056
G1 X111.184 Y138.417 E0.01056
G1 X111.110 Y138.088 E0.01056
G1 X111.076 Y137.753 E0.01056
G1 X111.083 Y137.416 E0.01056
G1 X111.130 Y137.083 E0.01056
G1 X111.218 Y136.758 E0.01056
G1 X111.343 Y136.445 E0.01056
G1 X111.506 Y136.150 E0.01056
G1 X111.703 Y135.877 E0.01056
G1 X111.931 Y135.630 E0.01056
G1 X112.195 Y135.405 E0.01087
G1 X112.304 Y135.338 E0.00399
G1 X111.956 Y134.512 E0.02810
G1 X111.680 Y133.752 E0.02537
G1 X111.432 Y132.986 E0.02523
G1 X111.210 Y132.212 E0.02523
G1 X111.016 Y131.432 E0.02523
G1 X110.848 Y130.645 E0.02523
G1 X110.707 Y129.848 E0.02537
G1 X110.594 Y128.959 E0.02810
G1 X110.467 Y128.955 E0.00399
G1 X110.126 Y128.893 E0.01087
G1 X109.804 Y128.793 E0.01056
G1 X109.497 Y128.654 E0.01056
G1 X109.209 Y128.480 E0.01056
G1 X108.944 Y128.273 E0.01056
G1 X108.706 Y128.034 E0.01056
G1 X108.498 Y127.769 E0.01056
G1 X108.324 Y127.481 E0.01056
G1 X108.186 Y127.174 E0.01056
G1 X108.086 Y126.853 E0.01056
G1 X108.025 Y126.521 E0.01056
G1 X108.005 Y126.185 E0.01056
G1 X108.025 Y125.849 E0.01056
G1 X108.086 Y125.518 E0.01056
G1 X108.186 Y125.196 E0.01056
G1 X108.324 Y124.889 E0.01056
G1 X108.498 Y124.601 E0.01056
G1 X108.706 Y124.336 E0.01056
G1 X108.944 Y124.098 E0.01056
G1 X109.209 Y123.890 E0.01056
G1 X109.497 Y123.716 E0.01056
G1 X109.804 Y123.578 E0.01056
G1 X110.126 Y123.478 E0.01056
G1 X110.467 Y123.415 E0.01087
G1 X110.594 Y123.412 E0.00399
G1 X110.707 Y122.523 E0.02810
G1 X110.848 Y121.726 E0.02537
G1 X111.016 Y120.939 E0.02523
G1 X111.210 Y120.158 E0.02523
G1 X111.432 Y119.385 E0.02523
G1 X111.680 Y118.619 E0.02523
G1 X111.956 Y117.858 E0.02537
G1 X112.304 Y117.032 E0.02810
G1 X112.195 Y116.966 E0.00399
G1 X111.931 Y116.741 E0.01087
G1 X111.703 Y116.493 E0.01056
G1 X111.506 Y116.220 E0.01056
G1 X111.343 Y115.925 E0.01056
G1 X111.218 Y115.613 E0.01056
G1 X111.130 Y115.288 E0.01056
G1 X111.083 Y114.954 E0.01056
G1 X111.076 Y114.618 E0.01056
G1 X111.110 Y114.283 E0.01056
G1 X111.184 Y113.954 E0.01056
