; generated by PrusaSlicer 2.3.0+win64 on 2021-03-08 at 19:45:22 UTC

; 

; external perimeters extrusion width = 0.45mm
; perimeters extrusion width = 0.45mm
; infill extrusion width = 0.45mm
; solid infill extrusion width = 0.45mm
; top infill extrusion width = 0.40mm
; support material extrusion width = 0.35mm
; first layer extrusion width = 0.42mm

M73 P0 R211
M73 Q0 S212
M201 X1000 Y1000 Z200 E5000 ; sets maximum accelerations, mm/sec^2
M203 X200 Y200 Z12 E120 ; sets maximum feedrates, mm/sec
M204 P1250 R1250 T1250 ; sets acceleration (P, T) and retract acceleration (R), mm/sec^2
M205 X8.00 Y8.00 Z0.40 E4.50 ; sets the jerk limits, mm/sec
M205 S0 T0 ; sets the minimum extruding and travel feed rate, mm/sec
M107
;TYPE:Custom
M862.3 P "MK3S" ; printer model check
M862.1 P0.4 ; nozzle diameter check
M115 U3.9.0 ; tell printer latest fw version
G90 ; use absolute coordinates
M83 ; extruder relative mode
M104 S230 ; set extruder temp
M140 S85 ; set bed temp
M190 S85 ; wait for bed temp
M109 S230 ; wait for extruder temp
G28 W ; home all without mesh bed level
G80 ; mesh bed leveling
G1 Y-3.0 F1000.0 ; go outside print area
G92 E0.0
G1 X60.0 E9.0 F1000.0 ; intro line
G1 X100.0 E12.5 F1000.0 ; intro line
G92 E0.0
M221 S95

; Don't change E values below. Excessive value can damage the printer.

M907 E538 ; set extruder motor current
G21 ; set units to millimeters
G90 ; use absolute coordinates
M83 ; use relative distances for extrusion
M900 K0.08 ; Filament gcode LA 1.5
M900 K45 ; Filament gcode LA 1.0
;LAYER_CHANGE
;Z:0.2
;HEIGHT:0.2
;BEFORE_LAYER_CHANGE
G92 E0.0
;0.2


G1 E-1.40000 F2100.000
G1 Z0.200 F10800.000
;AFTER_LAYER_CHANGE
;0.2
G1 Z0.400
G1 X104.137 Y59.985
G1 Z0.200
G1 E1.40000 F2100.000
M204 S1000
;TYPE:Skirt
;WIDTH:0.42
G1 F1200.000
G1 X104.735 Y59.612 E0.02209
G1 X105.352 Y59.351 E0.02101
G1 X106.637 Y59.125 E0.04094
G1 X125.008 Y59.123 E0.57601
G1 X126.538 Y59.286 E0.04823
G1 X127.559 Y59.582 E0.03332
G1 X128.939 Y60.260 E0.04823
G1 X130.188 Y61.252 E0.05001
G1 X205.292 Y136.358 E3.33028
G1 X206.253 Y137.582 E0.04878
G1 X206.748 Y138.508 E0.03293
G1 X207.238 Y140.059 E0.05101
G1 X207.373 Y141.198 E0.03595
G1 X207.261 Y142.831 E0.05131
G1 X206.787 Y144.394 E0.05120
G1 X206.267 Y145.396 E0.03540
G1 X205.303 Y146.630 E0.04910
G1 X204.458 Y147.378 E0.03538
G1 X203.048 Y148.220 E0.05149
G1 X202.061 Y148.582 E0.03298
G1 X200.434 Y148.865 E0.05179
G1 X125.011 Y150.877 E2.36567
M73 P0 R210
G1 X49.888 Y148.874 E2.35626
G1 X48.361 Y148.689 E0.04823
G1 X47.366 Y148.389 E0.03257
G1 X45.933 Y147.648 E0.05058
G1 X45.093 Y147.004 E0.03320
G1 X44.002 Y145.785 E0.05129
G1 X43.415 Y144.811 E0.03566
G1 X42.843 Y143.270 E0.05153
G1 X42.630 Y141.613 E0.05238
G1 X42.631 Y123.107 E0.58023
G1 X42.717 Y122.375 E0.02313
G1 X43.021 Y121.434 E0.03101
G1 X43.404 Y120.753 E0.02449
G1 X43.825 Y120.235 E0.02092
G1 X104.095 Y60.028 E2.67108
;WIPE_START
G1 F8640.000
G1 X104.735 Y59.612 E-0.17618
G1 X105.352 Y59.351 E-0.15469
G1 X106.637 Y59.125 E-0.30146
G1 X109.659 Y59.125 E-0.69767
;WIPE_END
G1 E-0.07000 F2100.000
G1 Z0.400 F10800.000
G1 X123.260 Y135.749
G1 Z0.200
G1 E1.40000 F2100.000
;TYPE:Perimeter
G1 F1200.000
G1 X123.838 Y135.605 E0.01867
G1 X124.554 Y135.513 E0.02264
G1 X125.005 Y135.491 E0.01415
G1 X125.594 Y135.520 E0.01849
G1 X126.177 Y135.606 E0.01849
G1 X126.749 Y135.749 E0.01849
G1 X127.304 Y135.948 E0.01849
G1 X127.837 Y136.200 E0.01849
G1 X128.343 Y136.503 E0.01849
G1 X128.817 Y136.855 E0.01849
G1 X129.254 Y137.251 E0.01849
G1 X129.650 Y137.688 E0.01849
G1 X130.001 Y138.161 E0.01849
G1 X130.304 Y138.667 E0.01849
G1 X130.556 Y139.200 E0.01849
G1 X130.755 Y139.756 E0.01849
G1 X130.898 Y140.328 E0.01849
G1 X130.985 Y140.911 E0.01849
G1 X131.014 Y141.500 E0.01849
G1 X130.985 Y142.089 E0.01849
G1 X130.898 Y142.672 E0.01849
G1 X130.755 Y143.244 E0.01849
G1 X130.556 Y143.800 E0.01849
G1 X130.304 Y144.333 E0.01849
G1 X130.001 Y144.839 E0.01849
G1 X129.650 Y145.312 E0.01849
G1 X129.254 Y145.749 E0.01849
G1 X128.817 Y146.145 E0.01849
G1 X128.343 Y146.497 E0.01849
G1 X127.837 Y146.800 E0.01849
G1 X127.304 Y147.052 E0.01849
G1 X126.749 Y147.251 E0.01849
G1 X126.177 Y147.394 E0.01849
G1 X125.594 Y147.480 E0.01849
G1 X125.005 Y147.509 E0.01849
G1 X124.416 Y147.480 E0.01849
G1 X123.832 Y147.394 E0.01849
G1 X123.260 Y147.251 E0.01849
G1 X122.705 Y147.052 E0.01849
G1 X122.172 Y146.800 E0.01849
G1 X121.666 Y146.497 E0.01849
G1 X121.192 Y146.145 E0.01849
G1 X120.755 Y145.749 E0.01849
G1 X120.359 Y145.312 E0.01849
G1 X120.008 Y144.839 E0.01849
G1 X119.705 Y144.333 E0.01849
G1 X119.453 Y143.800 E0.01849
G1 X119.254 Y143.244 E0.01849
G1 X119.111 Y142.672 E0.01849
G1 X119.024 Y142.089 E0.01849
G1 X118.995 Y141.500 E0.01849
G1 X119.024 Y140.911 E0.01849
G1 X119.111 Y140.328 E0.01849
G1 X119.254 Y139.756 E0.01849
G1 X119.453 Y139.200 E0.01849
G1 X119.705 Y138.667 E0.01849
G1 X120.008 Y138.161 E0.01849
G1 X120.359 Y137.688 E0.01849
G1 X120.755 Y137.251 E0.01849
G1 X121.192 Y136.855 E0.01849
G1 X121.666 Y136.503 E0.01849
G1 X122.172 Y136.200 E0.01849
G1 X122.705 Y135.948 E0.01849
G1 X123.204 Y135.770 E0.01661
G1 X123.331 Y136.125 F10800.000
;TYPE:External perimeter
G1 F1200.000
G1 X123.908 Y135.976 E0.01869
G1 X124.587 Y135.889 E0.02147
G1 X125.005 Y135.868 E0.01310
G1 X125.557 Y135.895 E0.01733
G1 X126.103 Y135.976 E0.01733
G1 X126.639 Y136.111 E0.01733
G1 X127.160 Y136.297 E0.01733
G1 X127.659 Y136.533 E0.01733
G1 X128.133 Y136.817 E0.01733
G1 X128.577 Y137.147 E0.01733
G1 X128.987 Y137.518 E0.01733
G1 X129.358 Y137.927 E0.01733
G1 X129.687 Y138.371 E0.01733
G1 X129.971 Y138.845 E0.01733
G1 X130.208 Y139.345 E0.01733
G1 X130.394 Y139.865 E0.01733
G1 X130.528 Y140.401 E0.01733
G1 X130.609 Y140.948 E0.01733
G1 X130.636 Y141.500 E0.01733
G1 X130.609 Y142.052 E0.01733
G1 X130.528 Y142.599 E0.01733
G1 X130.394 Y143.135 E0.01733
G1 X130.208 Y143.655 E0.01733
G1 X129.971 Y144.155 E0.01733
G1 X129.687 Y144.629 E0.01733
G1 X129.358 Y145.073 E0.01733
G1 X128.987 Y145.482 E0.01733
G1 X128.577 Y145.853 E0.01733
G1 X128.133 Y146.183 E0.01733
G1 X127.659 Y146.467 E0.01733
G1 X127.160 Y146.703 E0.01733
G1 X126.639 Y146.889 E0.01733
G1 X126.103 Y147.024 E0.01733
G1 X125.557 Y147.105 E0.01733
G1 X125.005 Y147.132 E0.01733
G1 X124.453 Y147.105 E0.01733
G1 X123.906 Y147.024 E0.01733
G1 X123.370 Y146.889 E0.01733
G1 X122.849 Y146.703 E0.01733
G1 X122.350 Y146.467 E0.01733
G1 X121.876 Y146.183 E0.01733
G1 X121.432 Y145.853 E0.01733
G1 X121.022 Y145.482 E0.01733
G1 X120.651 Y145.073 E0.01733
G1 X120.322 Y144.629 E0.01733
G1 X120.038 Y144.155 E0.01733
G1 X119.801 Y143.655 E0.01733
G1 X119.615 Y143.135 E0.01733
G1 X119.481 Y142.599 E0.01733
G1 X119.400 Y142.052 E0.01733
G1 X119.373 Y141.500 E0.01733
G1 X119.400 Y140.948 E0.01733
G1 X119.481 Y140.401 E0.01733
G1 X119.615 Y139.865 E0.01733
G1 X119.801 Y139.345 E0.01733
G1 X120.038 Y138.845 E0.01733
G1 X120.322 Y138.371 E0.01733
G1 X120.651 Y137.927 E0.01733
G1 X121.022 Y137.518 E0.01733
G1 X121.432 Y137.147 E0.01733
G1 X121.876 Y136.817 E0.01733
G1 X122.350 Y136.533 E0.01733
G1 X122.849 Y136.297 E0.01733
G1 X123.274 Y136.145 E0.01415
G1 X123.419 Y135.735 F10800.000
;WIPE_START
G1 F8640.000
G1 X123.908 Y135.976 E-0.15143
G1 X124.587 Y135.889 E-0.15814
G1 X125.005 Y135.868 E-0.09649
G1 X125.557 Y135.895 E-0.12762
G1 X126.103 Y135.976 E-0.12762
G1 X126.639 Y136.111 E-0.12762
G1 X127.160 Y136.297 E-0.12762
G1 X127.659 Y136.533 E-0.12762
G1 X128.133 Y136.817 E-0.12762
G1 X128.577 Y137.147 E-0.12762
G1 X128.676 Y137.236 E-0.03063
;WIPE_END
G1 E-0.07000 F2100.000
G1 Z0.400 F10800.000
G1 X122.934 Y62.913
G1 Z0.200
G1 E1.40000 F2100.000
;TYPE:Perimeter
G1 F1200.000
G1 X127.076 Y62.913 E0.12987
G1 X129.147 Y66.500 E0.12987
G1 X127.076 Y70.087 E0.12987
G1 X122.934 Y70.087 E0.12987
G1 X120.863 Y66.500 E0.12987
G1 X122.904 Y62.965 E0.12799
G1 X123.151 Y63.290 F10800.000
;TYPE:External perimeter
G1 F1200.000
G1 X126.858 Y63.290 E0.11622
G1 X128.711 Y66.500 E0.11622
G1 X126.858 Y69.710 E0.11622
G1 X123.151 Y69.710 E0.11622
G1 X121.298 Y66.500 E0.11622
G1 X123.121 Y63.342 E0.11434
G1 X123.151 Y62.890 F10800.000
;WIPE_START
G1 F8640.000
G1 X126.858 Y63.290 E-0.86287
G1 X127.869 Y65.042 E-0.46713
;WIPE_END
G1 E-0.07000 F2100.000
G1 Z0.400 F10800.000
G1 X52.076 Y137.913
G1 Z0.200
G1 E1.40000 F2100.000
;TYPE:Perimeter
G1 F1200.000
G1 X54.147 Y141.500 E0.12987
G1 X52.076 Y145.087 E0.12987
G1 X47.934 Y145.087 E0.12987
G1 X45.863 Y141.500 E0.12987
G1 X47.934 Y137.913 E0.12987
G1 X52.016 Y137.913 E0.12799
G1 X51.858 Y138.290 F10800.000
;TYPE:External perimeter
G1 F1200.000
G1 X53.711 Y141.500 E0.11622
G1 X51.858 Y144.710 E0.11622
G1 X48.151 Y144.710 E0.11622
G1 X46.298 Y141.500 E0.11622
G1 X48.151 Y138.290 E0.11622
G1 X51.798 Y138.290 E0.11434
G1 X52.204 Y138.090 F10800.000
;WIPE_START
G1 F8640.000
G1 X53.711 Y141.500 E-0.86287
G1 X52.700 Y143.252 E-0.46713
;WIPE_END
G1 E-0.07000 F2100.000
G1 Z0.400 F10800.000
G1 X195.863 Y141.500
G1 Z0.200
G1 E1.40000 F2100.000
;TYPE:Perimeter
G1 F1200.000
G1 X197.934 Y137.913 E0.12987
G1 X202.076 Y137.913 E0.12987
G1 X204.147 Y141.500 E0.12987
G1 X202.076 Y145.087 E0.12987
G1 X197.934 Y145.087 E0.12987
G1 X195.893 Y141.552 E0.12799
G1 X196.298 Y141.500 F10800.000
;TYPE:External perimeter
G1 F1200.000
G1 X198.151 Y138.290 E0.11622
G1 X201.858 Y138.290 E0.11622
G1 X203.711 Y141.500 E0.11622
G1 X201.858 Y144.710 E0.11622
G1 X198.151 Y144.710 E0.11622
G1 X196.328 Y141.552 E0.11434
G1 X195.952 Y141.300 F10800.000
;WIPE_START
G1 F8640.000
G1 X198.151 Y138.290 E-0.86287
G1 X200.174 Y138.290 E-0.46713
;WIPE_END
G1 E-0.07000 F2100.000
G1 Z0.400 F10800.000
G1 X106.371 Y62.349
G1 Z0.200
G1 E1.40000 F2100.000
;TYPE:Perimeter
G1 F1200.000
G1 X106.556 Y62.304 E0.00595
G1 X106.776 Y62.287 E0.00693
G1 X124.982 Y62.287 E0.57085
G1 X125.476 Y62.315 E0.01550
G1 X125.942 Y62.394 E0.01481
G1 X126.396 Y62.525 E0.01481
G1 X126.832 Y62.705 E0.01481
G1 X127.245 Y62.934 E0.01481
G1 X127.631 Y63.207 E0.01481
G1 X127.999 Y63.537 E0.01550
G1 X202.967 Y138.504 E3.32419
G1 X203.320 Y138.903 E0.01669
G1 X203.609 Y139.321 E0.01595
G1 X203.845 Y139.772 E0.01595
G1 X204.025 Y140.247 E0.01595
G1 X204.147 Y140.741 E0.01595
G1 X204.208 Y141.246 E0.01595
G1 X204.208 Y141.754 E0.01595
G1 X204.147 Y142.259 E0.01595
G1 X204.025 Y142.753 E0.01595
G1 X203.845 Y143.228 E0.01595
G1 X203.609 Y143.679 E0.01595
G1 X203.320 Y144.097 E0.01595
G1 X202.983 Y144.478 E0.01595
G1 X202.602 Y144.815 E0.01595
G1 X202.183 Y145.104 E0.01595
G1 X201.733 Y145.340 E0.01595
G1 X201.257 Y145.521 E0.01595
G1 X200.764 Y145.642 E0.01595
G1 X200.259 Y145.704 E0.01595
G1 X199.750 Y145.704 E0.01595
G1 X199.245 Y145.642 E0.01595
G1 X198.752 Y145.521 E0.01595
G1 X198.276 Y145.340 E0.01595
G1 X197.826 Y145.104 E0.01595
G1 X197.407 Y144.815 E0.01595
G1 X197.009 Y144.462 E0.01669
G1 X184.052 Y131.506 E0.57451
G1 X183.736 Y131.238 E0.01299
G1 X183.361 Y131.010 E0.01377
G1 X182.976 Y130.851 E0.01307
G1 X182.526 Y130.744 E0.01451
G1 X182.137 Y130.713 E0.01222
G1 X136.981 Y130.713 E1.41585
G1 X136.307 Y130.754 E0.02117
G1 X135.619 Y130.880 E0.02192
M73 Q0 S211
G1 X134.952 Y131.088 E0.02192
G1 X134.315 Y131.375 E0.02192
G1 X133.716 Y131.736 E0.02192
G1 X133.166 Y132.167 E0.02192
G1 X132.672 Y132.662 E0.02192
G1 X132.241 Y133.212 E0.02192
G1 X131.879 Y133.810 E0.02192
G1 X131.592 Y134.447 E0.02192
G1 X131.384 Y135.115 E0.02192
G1 X131.258 Y135.802 E0.02192
G1 X131.217 Y136.476 E0.02117
G1 X131.217 Y141.479 E0.15687
G1 X131.182 Y142.149 E0.02103
G1 X131.081 Y142.792 E0.02039
G1 X130.912 Y143.420 E0.02039
G1 X130.679 Y144.027 E0.02039
G1 X130.384 Y144.606 E0.02039
G1 X130.030 Y145.151 E0.02039
G1 X129.621 Y145.657 E0.02039
G1 X129.161 Y146.116 E0.02039
G1 X128.656 Y146.525 E0.02039
G1 X128.110 Y146.880 E0.02039
G1 X127.531 Y147.175 E0.02039
G1 X126.924 Y147.408 E0.02039
G1 X126.296 Y147.576 E0.02039
G1 X125.654 Y147.678 E0.02039
G1 X125.005 Y147.712 E0.02039
G1 X124.355 Y147.678 E0.02039
G1 X123.713 Y147.576 E0.02039
G1 X123.085 Y147.408 E0.02039
G1 X122.478 Y147.175 E0.02039
G1 X121.899 Y146.880 E0.02039
G1 X121.353 Y146.525 E0.02039
G1 X120.848 Y146.116 E0.02039
G1 X120.388 Y145.657 E0.02039
G1 X119.979 Y145.151 E0.02039
G1 X119.625 Y144.606 E0.02039
G1 X119.330 Y144.027 E0.02039
G1 X119.097 Y143.420 E0.02039
G1 X118.928 Y142.792 E0.02039
G1 X118.827 Y142.149 E0.02039
G1 X118.792 Y141.479 E0.02103
G1 X118.792 Y136.477 E0.15685
G1 X118.751 Y135.806 E0.02106
G1 X118.626 Y135.118 E0.02194
G1 X118.418 Y134.450 E0.02194
G1 X118.131 Y133.812 E0.02194
G1 X117.769 Y133.212 E0.02195
G1 X117.337 Y132.662 E0.02194
G1 X116.843 Y132.167 E0.02192
G1 X116.292 Y131.736 E0.02194
G1 X115.693 Y131.374 E0.02195
G1 X115.055 Y131.087 E0.02194
G1 X114.386 Y130.879 E0.02194
G1 X113.698 Y130.753 E0.02194
G1 X113.028 Y130.713 E0.02106
G1 X56.975 Y130.713 E1.75749
G1 X56.534 Y130.751 E0.01387
G1 X56.065 Y130.874 E0.01521
G1 X55.623 Y131.077 E0.01524
G1 X55.224 Y131.353 E0.01524
G1 X54.878 Y131.695 E0.01524
G1 X54.597 Y132.092 E0.01524
G1 X54.389 Y132.532 E0.01524
G1 X54.260 Y133.001 E0.01526
G1 X54.217 Y133.469 E0.01473
G1 X54.217 Y141.476 E0.25107
G1 X54.185 Y142.008 E0.01669
G1 X54.094 Y142.508 E0.01595
G1 X53.942 Y142.993 E0.01595
G1 X53.734 Y143.457 E0.01595
G1 X53.471 Y143.892 E0.01595
G1 X53.157 Y144.293 E0.01595
G1 X52.797 Y144.652 E0.01595
G1 X52.397 Y144.966 E0.01595
G1 X51.962 Y145.229 E0.01595
G1 X51.498 Y145.438 E0.01595
G1 X51.012 Y145.589 E0.01595
G1 X50.512 Y145.681 E0.01595
G1 X50.005 Y145.711 E0.01595
G1 X49.497 Y145.681 E0.01595
G1 X48.997 Y145.589 E0.01595
G1 X48.511 Y145.438 E0.01595
G1 X48.047 Y145.229 E0.01595
G1 X47.612 Y144.966 E0.01595
G1 X47.212 Y144.652 E0.01595
G1 X46.852 Y144.293 E0.01595
G1 X46.539 Y143.892 E0.01595
G1 X46.275 Y143.457 E0.01595
G1 X46.067 Y142.993 E0.01595
G1 X45.915 Y142.508 E0.01595
G1 X45.824 Y142.008 E0.01595
G1 X45.792 Y141.476 E0.01669
G1 X45.792 Y123.270 E0.57085
G1 X45.809 Y123.051 E0.00688
G1 X45.853 Y122.867 E0.00595
G1 X45.926 Y122.691 E0.00595
G1 X46.025 Y122.529 E0.00595
G1 X46.168 Y122.362 E0.00688
G1 X105.866 Y62.664 E2.64712
G1 X106.034 Y62.520 E0.00693
G1 X106.316 Y62.372 E0.00999
G1 X106.171 Y62.023 F10800.000
;TYPE:External perimeter
G1 F1200.000
G1 X106.496 Y61.931 E0.01060
G1 X106.761 Y61.910 E0.00833
G1 X124.993 Y61.910 E0.57165
G1 X125.518 Y61.940 E0.01650
G1 X126.026 Y62.026 E0.01614
G1 X126.520 Y62.168 E0.01614
G1 X126.996 Y62.365 E0.01614
G1 X127.446 Y62.614 E0.01614
G1 X127.866 Y62.912 E0.01614
G1 X128.258 Y63.263 E0.01650
G1 X203.241 Y138.246 E3.32488
G1 X203.617 Y138.670 E0.01777
G1 X203.932 Y139.126 E0.01738
G1 X204.190 Y139.617 E0.01738
G1 X204.386 Y140.135 E0.01738
G1 X204.519 Y140.673 E0.01738
G1 X204.585 Y141.223 E0.01738
G1 X204.585 Y141.777 E0.01738
G1 X204.519 Y142.327 E0.01738
G1 X204.386 Y142.865 E0.01738
G1 X204.190 Y143.383 E0.01738
G1 X203.932 Y143.874 E0.01738
G1 X203.617 Y144.330 E0.01738
G1 X203.250 Y144.745 E0.01738
G1 X202.835 Y145.113 E0.01738
G1 X202.379 Y145.427 E0.01738
G1 X201.888 Y145.685 E0.01738
G1 X201.370 Y145.881 E0.01738
G1 X200.832 Y146.014 E0.01738
G1 X200.282 Y146.081 E0.01738
G1 X199.727 Y146.081 E0.01738
G1 X199.177 Y146.014 E0.01738
G1 X198.639 Y145.881 E0.01738
G1 X198.121 Y145.685 E0.01738
G1 X197.630 Y145.427 E0.01738
G1 X197.174 Y145.113 E0.01738
G1 X196.750 Y144.737 E0.01777
G1 X183.797 Y131.783 E0.57438
G1 X183.515 Y131.545 E0.01157
G1 X183.190 Y131.347 E0.01193
G1 X182.859 Y131.210 E0.01122
G1 X182.467 Y131.117 E0.01264
G1 X182.122 Y131.090 E0.01084
G1 X136.992 Y131.090 E1.41503
M73 P0 R209
G1 X136.352 Y131.129 E0.02010
G1 X135.710 Y131.246 E0.02049
G1 X135.086 Y131.441 E0.02049
G1 X134.490 Y131.709 E0.02049
G1 X133.931 Y132.047 E0.02049
G1 X133.417 Y132.450 E0.02049
G1 X132.955 Y132.912 E0.02049
G1 X132.552 Y133.426 E0.02049
G1 X132.214 Y133.985 E0.02049
G1 X131.945 Y134.581 E0.02049
G1 X131.751 Y135.205 E0.02049
G1 X131.633 Y135.848 E0.02049
G1 X131.595 Y136.488 E0.02010
G1 X131.595 Y141.489 E0.15682
G1 X131.558 Y142.189 E0.02196
G1 X131.450 Y142.870 E0.02163
G1 X131.271 Y143.536 E0.02163
G1 X131.024 Y144.180 E0.02163
G1 X130.711 Y144.795 E0.02163
