; generated by PrusaSlicer 2.2.0+win64 on 2021-01-04 at 18:43:04 UTC

; 

; external perimeters extrusion width = 0.45mm
; perimeters extrusion width = 0.45mm
; infill extrusion width = 0.45mm
; solid infill extrusion width = 0.45mm
; top infill extrusion width = 0.40mm
; first layer extrusion width = 0.42mm

; external perimeters extrusion width = 0.45mm
; perimeters extrusion width = 0.45mm
; infill extrusion width = 0.45mm
; solid infill extrusion width = 0.45mm
; top infill extrusion width = 0.40mm
; first layer extrusion width = 0.42mm

M73 P0 R216
M73 Q0 S222
M201 X1000 Y1000 Z200 E8000 ; sets maximum accelerations, mm/sec^2
M203 X200 Y200 Z12 E120 ; sets maximum feedrates, mm/sec
M204 P1250 R1250 T1250 ; sets acceleration (P, T) and retract acceleration (R), mm/sec^2
M205 X8.00 Y8.00 Z0.40 E4.50 ; sets the jerk limits, mm/sec
M205 S0 T0 ; sets the minimum extruding and travel feed rate, mm/sec
M107
M862.3 P "MK3SMMU2S" ; printer model check
M862.1 P0.4 ; nozzle diameter check
M115 U3.9.1 ; tell printer latest fw version
G90 ; use absolute coordinates
M83 ; extruder relative mode
M104 S215 ; set extruder temp
M140 S60 ; set bed temp
M190 S60 ; wait for bed temp
M109 S215 ; wait for extruder temp
G28 W ; home all without mesh bed level
G80 ; mesh bed leveling

; Send the filament type to the MMU2.0 unit.
; E stands for extruder number, F stands for filament type (0: default; 1:flex; 2: PVA)
M403 E0 F0
M403 E1 F0
M403 E2 F0
M403 E3 F0
M403 E4 F0


;go outside print area
G1 Y-3.0 F1000.0
G1 Z0.4 F1000.0
; select extruder
T1
; initial load
G1 X55.0 E29.0 F1073.0
M73 Q0 S222
M73 P0 R216
G1 X5.0 E29.0 F1800.0
G1 X55.0 E8.0 F2000.0
G1 Z0.3 F1000.0
G92 E0.0
G1 X240.0 E25.0 F2200.0
G1 Y-2.0 F1000.0
G1 X55.0 E25 F1400.0
G1 Z0.20 F1000.0
G1 X5.0 E4.0 F1000.0
G92 E0.0


M221 S95
G92 E0.0

; Don't change E values below. Excessive value can damage the printer.

M907 E538 ; set extruder motor current
G21 ; set units to millimeters
G90 ; use absolute coordinates
M83 ; use relative distances for extrusion
T1
M900 K0.05 ; Filament gcode LA 1.5
M900 K30 ; Filament gcode LA 1.0
G1 Z0.200 F10800.000
;BEFORE_LAYER_CHANGE
G92 E0.0
;0.2


G1 E-0.80000 F2100.00000
G1 Z0.800 F10800.000
G1 Z0.200
;AFTER_LAYER_CHANGE
;0.2
G1 E-2.20000 F2100.00000
G1 Z0.800 F10800.000
G1 X155.943 Y142.414
G1 Z0.200
G1 E3.00000 F2100.00000
;-------------------------------------
; CP WIPE TOWER FIRST LAYER BRIM START
G1  X155.943 Y156.474  E0.8016 F2400
G1  X153.400 Y156.931   F7000
G1  Y141.957  E0.6260 F2100
G1  X92.486  E2.5466
G1  Y156.931  E0.6260
G1  X153.400  E2.5466
G1  X153.857 Y157.388   F7000
G1  Y141.500  E0.6642 F2100
G1  X92.029  E2.5849
G1  Y157.388  E0.6642
G1  X153.857  E2.5849
G1  X154.314 Y157.845   F7000
G1  Y141.043  E0.7025 F2100
G1  X91.572  E2.6231
G1  Y157.845  E0.7025
G1  X154.314  E2.6231
G1  X154.771 Y158.302   F7000
G1  Y140.586  E0.7407 F2100
G1  X91.115  E2.6613
G1  Y158.302  E0.7407
G1  X154.771  E2.6613
G1  X152.943 Y156.474   F7000
G1  X92.943 
G1  X152.943 
; CP WIPE TOWER FIRST LAYER BRIM END
;-----------------------------------
G1  X152.443 Y142.914   F7200
;--------------------
; CP EMPTY GRID START
; layer #1
G1  X152.943 
G1  Y142.414 
G1  Y156.474  E0.5344 F1450
G1  X92.943  E2.2804
G1  Y142.414  E0.5344
G1  X152.943  E2.2804
G1  X152.443 
G1  Y142.914 
G1  Y155.974  E0.4964
G1  X93.443  E2.2424
G1  Y142.914  E0.4964
G1  X152.443  E2.2424
G1  Y155.974 
G1  X151.943 Y155.451   E0.0275
G1  X93.943  E2.2044
G1  Y154.927  E0.0199
G1  X151.943  E2.2044
G1  Y154.404  E0.0199
G1  X93.943  E2.2044
M73 Q0 S221
M73 P0 R215
G1  Y153.881  E0.0199
G1  X151.943  E2.2044
G1  Y153.357  E0.0199
G1  X93.943  E2.2044
G1  Y152.834  E0.0199
G1  X151.943  E2.2044
G1  Y152.311  E0.0199
G1  X93.943  E2.2044
G1  Y151.787  E0.0199
G1  X151.943  E2.2044
G1  Y151.264  E0.0199
G1  X93.943  E2.2044
G1  Y150.741  E0.0199
G1  X151.943  E2.2044
G1  Y150.217  E0.0199
G1  X93.943  E2.2044
G1  Y149.694  E0.0199
G1  X151.943  E2.2044
G1  Y149.171  E0.0199
G1  X93.943  E2.2044
G1  Y148.647  E0.0199
G1  X151.943  E2.2044
G1  Y148.124  E0.0199
G1  X93.943  E2.2044
G1  Y147.601  E0.0199
G1  X151.943  E2.2044
G1  Y147.077  E0.0199
G1  X93.943  E2.2044
G1  Y146.554  E0.0199
G1  X151.943  E2.2044
G1  Y146.031  E0.0199
G1  X93.943  E2.2044
G1  Y145.507  E0.0199
G1  X151.943  E2.2044
G1  Y144.984  E0.0199
G1  X93.943  E2.2044
G1  Y144.461  E0.0199
G1  X151.943  E2.2044
G1  Y143.937  E0.0199
G1  X93.943  E2.2044
G1  Y143.414  E0.0199
G1  X151.943  E2.2044
G1  X93.943 
; CP EMPTY GRID END
;------------------







G1 F8640.000
G1 X90.652 Y143.414 E-0.76000
G1 E-0.04000 F2100.00000
G1 Z0.800 F10800.000
G1 X90.192 Y160.804
G1 Z0.200
G1 E0.80000 F2100.00000
M204 S1000
G1 F1200.000
G1 X89.710 Y160.597 E0.01645
G1 X46.477 Y135.897 E1.56117
G1 X45.213 Y135.028 E0.04811
G1 X44.509 Y134.346 E0.03071
G1 X43.859 Y133.507 E0.03329
G1 X43.149 Y132.157 E0.04784
G1 X42.831 Y131.181 E0.03217
G1 X42.658 Y130.175 E0.03201
G1 X42.617 Y111.135 E0.59700
G1 X42.817 Y109.845 E0.04093
G1 X43.185 Y109.002 E0.02882
G1 X43.884 Y108.073 E0.03647
G1 X104.111 Y47.910 E2.66915
M73 Q1 S220
M73 P1 R214
G1 X104.717 Y47.529 E0.02244
G1 X105.337 Y47.265 E0.02112
G1 X106.626 Y47.038 E0.04105
G1 X124.997 Y47.036 E0.57601
G1 X126.527 Y47.199 E0.04823
G1 X127.542 Y47.493 E0.03314
G1 X128.928 Y48.173 E0.04840
G1 X130.177 Y49.165 E0.05001
G1 X205.234 Y124.221 E3.32813
G1 X205.818 Y124.885 E0.02773
G1 X206.369 Y125.707 E0.03102
G1 X206.776 Y126.518 E0.02845
G1 X207.221 Y127.947 E0.04691
G1 X207.355 Y128.938 E0.03138
G1 X207.359 Y129.833 E0.02805
G1 X207.251 Y130.736 E0.02853
G1 X207.042 Y131.588 E0.02750
G1 X206.658 Y132.570 E0.03305
G1 X205.799 Y133.965 E0.05136
G1 X204.645 Y135.136 E0.05155
G1 X203.753 Y135.759 E0.03412
G1 X156.097 Y160.640 E1.68562
G1 X155.578 Y160.837 E0.01740
G1 X155.005 Y160.908 E0.01811
G1 X90.886 Y160.908 E2.01039
G1 X90.251 Y160.813 E0.02013
G1 F8640.000
G1 X89.710 Y160.597 E-0.13456
G1 X87.358 Y159.253 E-0.62544
G1 E-0.04000 F2100.00000
G1 Z0.800 F10800.000
G1 X120.348 Y133.225
G1 Z0.200
G1 E0.80000 F2100.00000
G1 F1200.000
G1 X119.997 Y132.752 E0.01849
G1 X119.694 Y132.246 E0.01849
G1 X119.442 Y131.713 E0.01849
G1 X119.243 Y131.157 E0.01849
G1 X119.100 Y130.585 E0.01849
G1 X119.013 Y130.002 E0.01849
G1 X118.984 Y129.413 E0.01849
G1 X119.013 Y128.824 E0.01849
G1 X119.100 Y128.241 E0.01849
G1 X119.243 Y127.669 E0.01849
G1 X119.442 Y127.113 E0.01849
G1 X119.694 Y126.580 E0.01849
G1 X119.997 Y126.074 E0.01849
G1 X120.348 Y125.601 E0.01849
G1 X120.744 Y125.164 E0.01849
G1 X121.181 Y124.768 E0.01849
G1 X121.655 Y124.416 E0.01849
G1 X122.161 Y124.113 E0.01849
G1 X122.694 Y123.861 E0.01849
G1 X123.249 Y123.662 E0.01849
G1 X123.827 Y123.518 E0.01867
G1 X124.543 Y123.426 E0.02264
G1 X124.994 Y123.404 E0.01415
G1 X125.583 Y123.433 E0.01849
G1 X126.166 Y123.519 E0.01849
G1 X126.738 Y123.662 E0.01849
G1 X127.293 Y123.861 E0.01849
G1 X127.826 Y124.113 E0.01849
G1 X128.332 Y124.416 E0.01849
G1 X128.806 Y124.768 E0.01849
G1 X129.243 Y125.164 E0.01849
G1 X129.639 Y125.601 E0.01849
G1 X129.990 Y126.074 E0.01849
G1 X130.293 Y126.580 E0.01849
G1 X130.545 Y127.113 E0.01849
G1 X130.744 Y127.669 E0.01849
G1 X130.887 Y128.241 E0.01849
G1 X130.974 Y128.824 E0.01849
G1 X131.003 Y129.413 E0.01849
G1 X130.974 Y130.002 E0.01849
G1 X130.887 Y130.585 E0.01849
G1 X130.744 Y131.157 E0.01849
G1 X130.545 Y131.713 E0.01849
G1 X130.293 Y132.246 E0.01849
G1 X129.990 Y132.752 E0.01849
G1 X129.639 Y133.225 E0.01849
G1 X129.243 Y133.662 E0.01849
G1 X128.806 Y134.058 E0.01849
G1 X128.332 Y134.410 E0.01849
G1 X127.826 Y134.713 E0.01849
G1 X127.293 Y134.965 E0.01849
G1 X126.738 Y135.164 E0.01849
G1 X126.166 Y135.307 E0.01849
G1 X125.583 Y135.393 E0.01849
G1 X124.994 Y135.422 E0.01849
G1 X124.404 Y135.393 E0.01849
G1 X123.821 Y135.307 E0.01849
G1 X123.249 Y135.164 E0.01849
G1 X122.694 Y134.965 E0.01849
G1 X122.161 Y134.713 E0.01849
G1 X121.655 Y134.410 E0.01849
G1 X121.181 Y134.058 E0.01849
G1 X120.744 Y133.662 E0.01849
G1 X120.389 Y133.270 E0.01661
G1 X120.668 Y133.017 F10800.000
G1 F1200.000
G1 X120.311 Y132.542 E0.01862
G1 X120.027 Y132.068 E0.01733
G1 X119.790 Y131.568 E0.01733
G1 X119.604 Y131.048 E0.01733
G1 X119.470 Y130.512 E0.01733
G1 X119.389 Y129.965 E0.01733
G1 X119.362 Y129.413 E0.01733
G1 X119.389 Y128.861 E0.01733
G1 X119.470 Y128.314 E0.01733
G1 X119.604 Y127.778 E0.01733
G1 X119.790 Y127.258 E0.01733
G1 X120.027 Y126.758 E0.01733
G1 X120.311 Y126.284 E0.01733
G1 X120.640 Y125.840 E0.01733
G1 X121.011 Y125.431 E0.01733
G1 X121.421 Y125.060 E0.01733
G1 X121.865 Y124.730 E0.01733
G1 X122.339 Y124.446 E0.01733
G1 X122.838 Y124.210 E0.01733
G1 X123.359 Y124.024 E0.01733
G1 X123.897 Y123.889 E0.01739
G1 X124.576 Y123.802 E0.02147
G1 X124.994 Y123.781 E0.01310
G1 X125.546 Y123.808 E0.01733
G1 X126.092 Y123.889 E0.01733
G1 X126.628 Y124.024 E0.01733
G1 X127.149 Y124.210 E0.01733
G1 X127.648 Y124.446 E0.01733
G1 X128.122 Y124.730 E0.01733
G1 X128.566 Y125.060 E0.01733
G1 X128.976 Y125.431 E0.01733
G1 X129.347 Y125.840 E0.01733
G1 X129.676 Y126.284 E0.01733
G1 X129.960 Y126.758 E0.01733
G1 X130.197 Y127.258 E0.01733
G1 X130.383 Y127.778 E0.01733
G1 X130.517 Y128.314 E0.01733
G1 X130.598 Y128.861 E0.01733
G1 X130.625 Y129.413 E0.01733
G1 X130.598 Y129.965 E0.01733
G1 X130.517 Y130.512 E0.01733
G1 X130.383 Y131.048 E0.01733
G1 X130.197 Y131.568 E0.01733
G1 X129.960 Y132.068 E0.01733
G1 X129.676 Y132.542 E0.01733
G1 X129.347 Y132.986 E0.01733
G1 X128.976 Y133.395 E0.01733
G1 X128.566 Y133.766 E0.01733
G1 X128.122 Y134.096 E0.01733
G1 X127.648 Y134.380 E0.01733
G1 X127.149 Y134.616 E0.01733
G1 X126.628 Y134.802 E0.01733
G1 X126.092 Y134.937 E0.01733
G1 X125.546 Y135.018 E0.01733
G1 X124.994 Y135.045 E0.01733
G1 X124.441 Y135.018 E0.01733
G1 X123.895 Y134.937 E0.01733
G1 X123.359 Y134.802 E0.01733
G1 X122.838 Y134.616 E0.01733
G1 X122.339 Y134.380 E0.01733
G1 X121.865 Y134.096 E0.01733
G1 X121.421 Y133.766 E0.01733
G1 X121.011 Y133.395 E0.01733
G1 X120.708 Y133.061 E0.01415
G1 X120.274 Y133.084 F10800.000
G1 F8640.000
G1 X120.311 Y132.542 E-0.15095
G1 X120.027 Y132.068 E-0.12762
G1 X119.790 Y131.568 E-0.12762
G1 X119.604 Y131.048 E-0.12761
G1 X119.470 Y130.512 E-0.12761
G1 X119.407 Y130.089 E-0.09859
G1 E-0.04000 F2100.00000
G1 Z0.800 F10800.000
G1 X122.923 Y58.000
G1 Z0.200
G1 E0.80000 F2100.00000
G1 F1200.000
G1 X120.852 Y54.413 E0.12987
G1 X122.923 Y50.826 E0.12987
G1 X127.065 Y50.826 E0.12987
G1 X129.136 Y54.413 E0.12987
G1 X127.065 Y58.000 E0.12987
G1 X122.983 Y58.000 E0.12799
G1 X123.140 Y57.623 F10800.000
G1 F1200.000
G1 X121.287 Y54.413 E0.11622
G1 X123.140 Y51.203 E0.11622
G1 X126.847 Y51.203 E0.11622
G1 X128.700 Y54.413 E0.11622
G1 X126.847 Y57.623 E0.11622
G1 X123.200 Y57.623 E0.11434
G1 X122.794 Y57.823 F10800.000
G1 F8640.000
G1 X121.515 Y54.796 E-0.76000
G1 E-0.04000 F2100.00000
G1 Z0.800 F10800.000
G1 X52.065 Y125.826
G1 Z0.200
G1 E0.80000 F2100.00000
G1 F1200.000
G1 X54.136 Y129.413 E0.12987
G1 X52.065 Y133.000 E0.12987
G1 X47.923 Y133.000 E0.12987
G1 X45.852 Y129.413 E0.12987
G1 X47.923 Y125.826 E0.12987
G1 X52.005 Y125.826 E0.12799
G1 X51.847 Y126.203 F10800.000
G1 F1200.000
G1 X53.700 Y129.413 E0.11622
G1 X51.847 Y132.623 E0.11622
G1 X48.140 Y132.623 E0.11622
G1 X46.287 Y129.413 E0.11622
G1 X48.140 Y126.203 E0.11622
G1 X51.787 Y126.203 E0.11434
G1 X52.193 Y126.003 F10800.000
G1 F8640.000
G1 X53.472 Y129.030 E-0.76000
G1 E-0.04000 F2100.00000
G1 Z0.800 F10800.000
G1 X195.852 Y129.413
G1 Z0.200
G1 E0.80000 F2100.00000
G1 F1200.000
G1 X197.923 Y125.826 E0.12987
G1 X202.065 Y125.826 E0.12987
G1 X204.136 Y129.413 E0.12987
G1 X202.065 Y133.000 E0.12987
G1 X197.923 Y133.000 E0.12987
G1 X195.882 Y129.465 E0.12799
G1 X196.287 Y129.413 F10800.000
G1 F1200.000
G1 X198.140 Y126.203 E0.11622
G1 X201.847 Y126.203 E0.11622
G1 X203.700 Y129.413 E0.11622
G1 X201.847 Y132.623 E0.11622
G1 X198.140 Y132.623 E0.11622
G1 X196.317 Y129.465 E0.11434
G1 X195.941 Y129.213 F10800.000
G1 F8640.000
G1 X197.923 Y126.592 E-0.76000
G1 E-0.04000 F2100.00000
G1 Z0.800 F10800.000
G1 X106.360 Y50.262
G1 Z0.200
G1 E0.80000 F2100.00000
G1 F1200.000
G1 X106.545 Y50.217 E0.00595
G1 X106.765 Y50.200 E0.00693
G1 X124.971 Y50.200 E0.57085
G1 X125.465 Y50.228 E0.01550
G1 X125.931 Y50.307 E0.01481
G1 X126.385 Y50.438 E0.01481
G1 X126.821 Y50.618 E0.01481
G1 X127.234 Y50.847 E0.01481
G1 X127.619 Y51.120 E0.01481
G1 X127.988 Y51.450 E0.01550
G1 X202.956 Y126.417 E3.32419
G1 X203.309 Y126.816 E0.01669
G1 X203.598 Y127.234 E0.01595
G1 X203.834 Y127.685 E0.01595
G1 X204.014 Y128.160 E0.01595
G1 X204.136 Y128.654 E0.01595
G1 X204.197 Y129.159 E0.01595
G1 X204.197 Y129.667 E0.01595
G1 X204.136 Y130.172 E0.01595
G1 X204.014 Y130.666 E0.01595
G1 X203.834 Y131.141 E0.01595
G1 X203.598 Y131.592 E0.01595
G1 X203.309 Y132.010 E0.01595
G1 X202.971 Y132.391 E0.01595
G1 X202.591 Y132.728 E0.01595
G1 X202.172 Y133.017 E0.01595
G1 X201.722 Y133.253 E0.01595
G1 X201.246 Y133.434 E0.01595
G1 X200.753 Y133.555 E0.01595
G1 X200.248 Y133.617 E0.01595
G1 X199.739 Y133.617 E0.01595
G1 X199.234 Y133.555 E0.01595
G1 X198.741 Y133.434 E0.01595
G1 X198.265 Y133.253 E0.01595
G1 X197.815 Y133.017 E0.01595
G1 X197.396 Y132.728 E0.01595
G1 X196.998 Y132.375 E0.01669
G1 X184.041 Y119.419 E0.57451
G1 X183.725 Y119.151 E0.01299
G1 X183.350 Y118.923 E0.01377
G1 X182.965 Y118.764 E0.01306
G1 X182.515 Y118.657 E0.01450
G1 X182.126 Y118.626 E0.01222
G1 X136.970 Y118.626 E1.41585
G1 X136.296 Y118.667 E0.02117
G1 X135.608 Y118.793 E0.02192
G1 X134.941 Y119.001 E0.02192
G1 X134.303 Y119.288 E0.02192
G1 X133.705 Y119.649 E0.02192
G1 X133.155 Y120.080 E0.02192
G1 X132.661 Y120.575 E0.02192
G1 X132.230 Y121.125 E0.02192
G1 X131.868 Y121.723 E0.02192
G1 X131.581 Y122.360 E0.02192
G1 X131.373 Y123.028 E0.02192
G1 X131.247 Y123.715 E0.02192
G1 X131.206 Y124.389 E0.02117
G1 X131.206 Y129.392 E0.15687
G1 X131.171 Y130.062 E0.02103
G1 X131.070 Y130.705 E0.02039
G1 X130.901 Y131.333 E0.02039
G1 X130.668 Y131.940 E0.02039
G1 X130.373 Y132.519 E0.02039
G1 X130.019 Y133.064 E0.02039
G1 X129.610 Y133.570 E0.02039
G1 X129.380 Y133.799 E0.01019
G1 X129.150 Y134.029 E0.01019
G1 X128.645 Y134.438 E0.02039
G1 X128.099 Y134.793 E0.02039
G1 X127.520 Y135.088 E0.02039
G1 X126.913 Y135.321 E0.02039
G1 X126.285 Y135.489 E0.02039
G1 X125.643 Y135.591 E0.02039
G1 X124.994 Y135.625 E0.02039
G1 X124.344 Y135.591 E0.02039
G1 X123.702 Y135.489 E0.02039
G1 X123.074 Y135.321 E0.02039
G1 X122.467 Y135.088 E0.02039
G1 X121.888 Y134.793 E0.02039
G1 X121.342 Y134.438 E0.02039
G1 X120.837 Y134.029 E0.02039
G1 X120.377 Y133.570 E0.02039
G1 X119.968 Y133.064 E0.02039
G1 X119.614 Y132.519 E0.02039
G1 X119.319 Y131.940 E0.02039
G1 X119.086 Y131.333 E0.02039
G1 X118.917 Y130.705 E0.02039
G1 X118.816 Y130.062 E0.02039
G1 X118.781 Y129.392 E0.02103
G1 X118.781 Y124.390 E0.15685
G1 X118.740 Y123.719 E0.02106
G1 X118.615 Y123.031 E0.02194
G1 X118.407 Y122.363 E0.02194
G1 X118.120 Y121.725 E0.02194
G1 X117.758 Y121.125 E0.02195
G1 X117.326 Y120.575 E0.02194
G1 X116.832 Y120.080 E0.02192
G1 X116.281 Y119.649 E0.02194
G1 X115.682 Y119.287 E0.02195
G1 X115.044 Y119.000 E0.02194
G1 X114.375 Y118.792 E0.02194
G1 X113.687 Y118.666 E0.02194
G1 X113.017 Y118.626 E0.02106
G1 X56.956 Y118.626 E1.75774
G1 X56.494 Y118.669 E0.01455
G1 X56.025 Y118.797 E0.01524
G1 X55.586 Y119.005 E0.01524
G1 X55.189 Y119.286 E0.01525
G1 X54.847 Y119.632 E0.01525
G1 X54.571 Y120.030 E0.01518
G1 X54.377 Y120.446 E0.01439
G1 X54.249 Y120.913 E0.01519
G1 X54.206 Y121.375 E0.01454
G1 X54.206 Y129.389 E0.25128
G1 X54.174 Y129.921 E0.01669
G1 X54.083 Y130.421 E0.01595
G1 X53.931 Y130.906 E0.01595
G1 X53.723 Y131.370 E0.01595
G1 X53.459 Y131.805 E0.01595
G1 X53.146 Y132.206 E0.01595
G1 X52.786 Y132.565 E0.01595
G1 X52.386 Y132.879 E0.01595
G1 X51.951 Y133.142 E0.01595
G1 X51.487 Y133.351 E0.01595
G1 X51.001 Y133.502 E0.01595
G1 X50.501 Y133.594 E0.01595
G1 X49.994 Y133.624 E0.01595
G1 X49.486 Y133.594 E0.01595
G1 X48.986 Y133.502 E0.01595
G1 X48.500 Y133.351 E0.01595
G1 X48.036 Y133.142 E0.01595
G1 X47.601 Y132.879 E0.01595
