; generated by PrusaSlicer 2.3.0+win64 on 2021-05-27 at 00:31:57 UTC

; 

; external perimeters extrusion width = 0.45mm
; perimeters extrusion width = 0.45mm
; infill extrusion width = 0.45mm
; solid infill extrusion width = 0.45mm
; top infill extrusion width = 0.40mm
; first layer extrusion width = 0.42mm

; external perimeters extrusion width = 0.45mm
; perimeters extrusion width = 0.45mm
; infill extrusion width = 0.45mm
; solid infill extrusion width = 0.45mm
; top infill extrusion width = 0.40mm
; first layer extrusion width = 0.42mm

; external perimeters extrusion width = 0.45mm
; perimeters extrusion width = 0.45mm
; infill extrusion width = 0.45mm
; solid infill extrusion width = 0.45mm
; top infill extrusion width = 0.40mm
; first layer extrusion width = 0.42mm

M73 P0 R83
M73 Q0 S83
M201 X1000 Y1000 Z200 E8000 ; sets maximum accelerations, mm/sec^2
M203 X200 Y200 Z12 E120 ; sets maximum feedrates, mm/sec
M204 P1250 R1250 T1250 ; sets acceleration (P, T) and retract acceleration (R), mm/sec^2
M205 X8.00 Y8.00 Z0.40 E4.50 ; sets the jerk limits, mm/sec
M205 S0 T0 ; sets the minimum extruding and travel feed rate, mm/sec
M107
;TYPE:Custom
M862.3 P "MK3SMMU2S" ; printer model check
M862.1 P0.4 ; nozzle diameter check
M115 U3.9.3 ; tell printer latest fw version
G90 ; use absolute coordinates
M83 ; extruder relative mode
M104 S215 ; set extruder temp
M140 S60 ; set bed temp
M190 S60 ; wait for bed temp
M109 S215 ; wait for extruder temp
G28 W ; home all without mesh bed level
G80 ; mesh bed leveling

; Send the filament type to the MMU2.0 unit.
; E stands for extruder number, F stands for filament type (0: default; 1:flex; 2: PVA)
M403 E0 F0
M403 E1 F0
M403 E2 F0
M403 E3 F0
M403 E4 F0


;go outside print area
G1 Y-3.0 F1000.0
M73 P0 R82
G1 Z0.4 F1000.0
; select extruder
T1
; initial load
G1 X55.0 E29.0 F1073.0
G1 X5.0 E29.0 F1800.0
G1 X55.0 E8.0 F2000.0
G1 Z0.3 F1000.0
G92 E0.0
G1 X240.0 E25.0 F2200.0
M73 Q0 S82
G1 Y-2.0 F1000.0
G1 X55.0 E25 F1400.0
G1 Z0.20 F1000.0
G1 X5.0 E4.0 F1000.0
G92 E0.0


M221 S95
G92 E0.0

; Don't change E values below. Excessive value can damage the printer.
M907 E430 ; set extruder motor current
G21 ; set units to millimeters
G90 ; use absolute coordinates
M83 ; use relative distances for extrusion
T1
M900 K0.05 ; Filament gcode LA 1.5
M900 K30 ; Filament gcode LA 1.0
G1 Z0.200 F10800.000
;LAYER_CHANGE
;Z:0.2
;HEIGHT:0.2
;BEFORE_LAYER_CHANGE
G92 E0.0
;0.2


G1 E-0.80000 F2100.000
G1 Z0.600 F10800.000
G1 Z0.200
;AFTER_LAYER_CHANGE
;0.2
G1 E-2.20000 F2100.000
G1 Z0.600 F10800.000
G1 X211.000 Y73.000
G1 Z0.200
G1 E3.00000 F2100.000
;HEIGHT:0.200000
;TYPE:Wipe tower
;WIDTH:0.500000
;-------------------------------------
; CP WIPE TOWER FIRST LAYER BRIM START
G1  X211.000 Y100.120  E1.5461 F2400
G1  X208.457 Y100.577   F7000
G1  Y72.543  E1.1720 F2100
G1  X147.543  E2.5466
G1  Y100.577  E1.1720
G1  X208.457  E2.5466
G1  X208.914 Y101.034   F7000
G1  Y72.086  E1.2102 F2100
G1  X147.086  E2.5849
G1  Y101.034  E1.2102
M73 Q1 S82
G1  X208.914  E2.5849
M73 P1 R82
G1  X209.371 Y101.491   F7000
G1  Y71.629  E1.2485 F2100
G1  X146.629  E2.6231
G1  Y101.491  E1.2485
G1  X209.371  E2.6231
G1  X209.828 Y101.948   F7000
G1  Y71.172  E1.2867 F2100
G1  X146.172  E2.6613
G1  Y101.948  E1.2867
G1  X209.828  E2.6613
; CP WIPE TOWER FIRST LAYER BRIM END
;-----------------------------------

;WIPE_START
G1 F8640.000
G1 X209.371 Y101.491 E-0.14925
G1 X206.726 Y101.491 E-0.61075
;WIPE_END
G1 E-0.04000 F2100.000
G1 Z0.600 F10800.000
G1 X211.321 Y103.359
G1 Z0.200
G1 E0.80000 F2100.000
M204 S1000
;TYPE:Skirt
;WIDTH:0.42
;HEIGHT:0.2
G1 F1200.000
G1 X210.816 Y103.762 E0.02024
G1 X141.152 Y145.047 E2.53904
M73 P1 R81
G1 X140.497 Y145.312 E0.02213
G1 X139.946 Y145.377 E0.01740
G1 X39.924 Y145.377 E3.13613
G1 X39.396 Y145.313 E0.01668
G1 X38.895 Y145.133 E0.01669
G1 X38.447 Y144.847 E0.01668
G1 X38.073 Y144.468 E0.01668
G1 X37.698 Y143.782 E0.02449
G1 X37.566 Y143.016 E0.02437
G1 X37.566 Y66.989 E2.38380
G1 X37.629 Y66.456 E0.01680
G1 X37.808 Y65.955 E0.01668
G1 X38.094 Y65.506 E0.01668
G1 X38.476 Y65.130 E0.01680
G1 X39.161 Y64.755 E0.02449
G1 X39.931 Y64.623 E0.02449
G1 X139.947 Y64.623 E3.13594
G1 X209.757 Y69.028 E2.19321
M73 Q1 S81
G1 X210.252 Y69.114 E0.01574
G1 X210.717 Y69.302 E0.01574
G1 X211.224 Y69.664 E0.01953
G1 X211.619 Y70.146 E0.01953
G1 X211.875 Y70.713 E0.01953
G1 X211.976 Y71.332 E0.01965
G1 X211.977 Y101.739 E0.95338
G1 X211.904 Y102.304 E0.01787
G1 X211.699 Y102.836 E0.01787
G1 X211.356 Y103.311 E0.01836
; printing object WinderSpoolRemovalAidStart0.5Delta1.stl id:0 copy 1
;WIPE_START
G1 F8640.000
G1 X210.816 Y103.762 E-0.16244
G1 X208.590 Y105.081 E-0.59756
;WIPE_END
G1 E-0.04000 F2100.000
G1 Z0.600 F10800.000
G1 X47.397 Y88.886
G1 Z0.200
G1 E0.80000 F2100.000
;TYPE:Perimeter
G1 F1200.000
G1 X47.454 Y88.973 E0.00324
G1 X47.515 Y89.277 E0.00972
G1 X47.515 Y89.640 E0.01138
G1 X47.487 Y89.799 E0.00507
G1 X47.330 Y90.267 E0.01546
G1 X47.079 Y90.744 E0.01689
G1 X46.958 Y90.121 E0.01990
G1 X46.924 Y89.845 E0.00872
G1 X46.912 Y89.573 E0.00854
G1 X46.946 Y89.143 E0.01351
G1 X47.000 Y88.932 E0.00684
G1 X47.089 Y88.830 E0.00424
G1 X47.229 Y88.822 E0.00439
G1 X47.349 Y88.851 E0.00387
;WIPE_START
G1 F8640.000
G1 X47.454 Y88.973 E-0.03715
G1 X47.515 Y89.277 E-0.07161
G1 X47.515 Y89.640 E-0.08383
G1 X47.487 Y89.799 E-0.03731
G1 X47.330 Y90.267 E-0.11389
G1 X47.079 Y90.744 E-0.12439
G1 X46.958 Y90.121 E-0.14653
G1 X46.924 Y89.845 E-0.06419
G1 X46.912 Y89.573 E-0.06291
G1 X46.918 Y89.494 E-0.01820
;WIPE_END
G1 E-0.04000 F2100.000
G1 Z0.600 F10800.000
G1 X47.079 Y73.818
G1 Z0.200
G1 E0.80000 F2100.000
G1 F1200.000
G1 X46.958 Y73.195 E0.01990
G1 X46.924 Y72.919 E0.00872
G1 X46.912 Y72.647 E0.00854
G1 X46.946 Y72.217 E0.01351
G1 X46.988 Y72.035 E0.00588
G1 X47.038 Y71.947 E0.00316
G1 X47.089 Y71.904 E0.00209
G1 X47.229 Y71.897 E0.00439
G1 X47.368 Y71.936 E0.00453
G1 X47.454 Y72.047 E0.00440
G1 X47.515 Y72.351 E0.00972
G1 X47.515 Y72.714 E0.01138
G1 X47.487 Y72.873 E0.00507
G1 X47.330 Y73.341 E0.01546
G1 X47.107 Y73.765 E0.01501
;WIPE_START
G1 F8640.000
G1 X46.958 Y73.195 E-0.13600
G1 X46.924 Y72.919 E-0.06419
G1 X46.912 Y72.647 E-0.06291
G1 X46.946 Y72.217 E-0.09952
G1 X46.988 Y72.035 E-0.04329
G1 X47.038 Y71.947 E-0.02324
G1 X47.089 Y71.904 E-0.01542
G1 X47.229 Y71.897 E-0.03233
G1 X47.368 Y71.936 E-0.03337
G1 X47.454 Y72.047 E-0.03241
G1 X47.515 Y72.351 E-0.07161
G1 X47.515 Y72.714 E-0.08383
G1 X47.487 Y72.873 E-0.03731
G1 X47.453 Y72.974 E-0.02457
;WIPE_END
G1 E-0.04000 F2100.000
G1 Z0.600 F10800.000
G1 X47.107 Y81.569
G1 Z0.200
G1 E0.80000 F2100.000
G1 F1200.000
G1 X47.140 Y81.569 E0.00101
G1 X47.140 Y82.181 E0.01921
G1 X45.840 Y82.181 E0.04075
G1 X45.840 Y81.569 E0.01921
G1 X47.047 Y81.569 E0.03785
;WIPE_START
G1 F8640.000
G1 X47.140 Y81.569 E-0.02132
G1 X47.140 Y82.181 E-0.14143
G1 X45.840 Y82.181 E-0.30009
G1 X45.840 Y81.569 E-0.14143
G1 X46.515 Y81.569 E-0.15572
;WIPE_END
G1 E-0.04000 F2100.000
G1 Z0.600 F10800.000
G1 X48.005 Y82.854
G1 Z0.200
G1 E0.80000 F2100.000
G1 F1200.000
G1 X48.005 Y85.855 E0.09410
G1 X48.325 Y85.948 E0.01044
G1 X48.639 Y86.094 E0.01084
G1 X48.937 Y86.277 E0.01098
G1 X49.397 Y86.682 E0.01921
G1 X49.759 Y87.174 E0.01915
G1 X49.931 Y87.496 E0.01145
G1 X50.137 Y88.076 E0.01930
G1 X50.209 Y88.446 E0.01182
G1 X50.249 Y88.821 E0.01182
G1 X50.250 Y89.557 E0.02309
G1 X50.183 Y90.234 E0.02133
G1 X50.120 Y90.568 E0.01064
G1 X49.980 Y91.093 E0.01706
G1 X49.911 Y91.277 E0.00615
G1 X50.131 Y91.277 E0.00689
G1 X50.131 Y94.654 E0.10587
G1 X49.418 Y94.654 E0.02236
G1 X49.587 Y94.832 E0.00770
G1 X49.800 Y95.129 E0.01148
G1 X49.973 Y95.454 E0.01154
G1 X50.104 Y95.803 E0.01169
G1 X50.193 Y96.170 E0.01183
G1 X50.244 Y96.549 E0.01200
G1 X50.260 Y96.942 E0.01232
G1 X50.244 Y97.337 E0.01238
G1 X50.194 Y97.717 E0.01203
G1 X50.104 Y98.085 E0.01186
G1 X49.972 Y98.435 E0.01173
G1 X49.797 Y98.761 E0.01160
G1 X49.580 Y99.059 E0.01156
G1 X49.325 Y99.325 E0.01155
G1 X49.040 Y99.551 E0.01142
G1 X48.734 Y99.741 E0.01128
G1 X48.407 Y99.896 E0.01138
G1 X48.061 Y100.019 E0.01150
G1 X47.687 Y100.116 E0.01210
G1 X46.960 Y100.223 E0.02307
G1 X46.531 Y100.251 E0.01345
G1 X45.682 Y100.251 E0.02662
G1 X44.885 Y100.179 E0.02509
G1 X44.186 Y100.024 E0.02246
G1 X43.826 Y99.893 E0.01201
G1 X43.501 Y99.738 E0.01130
G1 X43.186 Y99.545 E0.01157
G1 X42.896 Y99.310 E0.01170
G1 X42.642 Y99.039 E0.01166
G1 X42.427 Y98.735 E0.01166
G1 X42.256 Y98.406 E0.01163
G1 X42.130 Y98.059 E0.01159
G1 X42.043 Y97.699 E0.01163
G1 X41.994 Y97.326 E0.01177
G1 X41.978 Y96.942 E0.01206
G1 X41.995 Y96.542 E0.01254
G1 X42.047 Y96.158 E0.01218
G1 X42.139 Y95.786 E0.01200
G1 X42.276 Y95.434 E0.01183
G1 X42.455 Y95.111 E0.01161
G1 X42.675 Y94.816 E0.01152
G1 X42.932 Y94.554 E0.01151
G1 X43.219 Y94.329 E0.01144
G1 X43.525 Y94.143 E0.01123
G1 X43.852 Y93.990 E0.01131
G1 X44.213 Y93.863 E0.01202
G1 X44.923 Y93.710 E0.02277
G1 X45.799 Y93.636 E0.02754
G1 X46.591 Y93.642 E0.02485
G1 X46.591 Y91.866 E0.05569
G1 X42.103 Y91.866 E0.14073
G1 X42.103 Y85.894 E0.18725
G1 X44.940 Y85.894 E0.08897
G1 X44.940 Y82.854 E0.09531
G1 X42.980 Y82.854 E0.06146
G1 X42.877 Y81.400 E0.04571
G1 X42.088 Y81.253 E0.02518
G1 X42.088 Y78.153 E0.09722
G1 X47.140 Y78.153 E0.15840
G1 X47.140 Y77.728 E0.01332
G1 X46.591 Y77.728 E0.01720
G1 X46.591 Y74.940 E0.08742
G1 X42.103 Y74.940 E0.14073
G1 X42.103 Y68.968 E0.18725
G1 X45.183 Y68.968 E0.09657
G1 X45.183 Y69.479 E0.01603
G1 X45.456 Y69.264 E0.01090
G1 X45.744 Y69.094 E0.01049
G1 X46.062 Y68.960 E0.01081
G1 X46.409 Y68.865 E0.01129
G1 X46.844 Y68.809 E0.01376
G1 X47.402 Y68.810 E0.01749
G1 X47.761 Y68.859 E0.01136
G1 X48.325 Y69.022 E0.01842
G1 X48.639 Y69.168 E0.01084
G1 X48.937 Y69.351 E0.01098
G1 X49.397 Y69.756 E0.01921
G1 X49.759 Y70.248 E0.01915
G1 X49.931 Y70.570 E0.01145
G1 X50.137 Y71.150 E0.01930
G1 X50.209 Y71.520 E0.01182
G1 X50.249 Y71.895 E0.01182
G1 X50.250 Y72.632 E0.02309
G1 X50.183 Y73.308 E0.02133
G1 X50.120 Y73.642 E0.01064
G1 X49.980 Y74.168 E0.01706
G1 X49.911 Y74.351 E0.00615
G1 X50.131 Y74.351 E0.00689
G1 X50.131 Y82.854 E0.26660
G1 X48.065 Y82.854 E0.06477
;WIPE_START
G1 F8640.000
G1 X48.005 Y85.855 E-0.69311
G1 X48.284 Y85.936 E-0.06689
;WIPE_END
G1 E-0.04000 F2100.000
G1 Z0.600 F10800.000
G1 X45.317 Y82.558
G1 Z0.200
G1 E0.80000 F2100.000
G1 F1200.000
G1 X47.628 Y82.558 E0.07246
G1 X47.628 Y86.147 E0.11252
G1 X48.192 Y86.302 E0.01834
G1 X48.460 Y86.427 E0.00925
G1 X48.712 Y86.582 E0.00929
G1 X49.117 Y86.938 E0.01693
G1 X49.439 Y87.375 E0.01701
G1 X49.585 Y87.649 E0.00972
G1 X49.773 Y88.176 E0.01755
G1 X49.836 Y88.502 E0.01042
G1 X49.872 Y88.841 E0.01069
G1 X49.873 Y89.539 E0.02188
G1 X49.810 Y90.180 E0.02021
G1 X49.752 Y90.484 E0.00968
G1 X49.620 Y90.979 E0.01606
G1 X49.368 Y91.654 E0.02260
G1 X49.754 Y91.654 E0.01209
G1 X49.754 Y94.277 E0.08223
G1 X48.086 Y94.277 E0.05229
G1 X48.563 Y94.480 E0.01625
G1 X48.834 Y94.648 E0.00999
G1 X49.079 Y94.844 E0.00985
G1 X49.295 Y95.073 E0.00987
G1 X49.479 Y95.329 E0.00988
G1 X49.629 Y95.610 E0.00999
G1 X49.743 Y95.915 E0.01021
G1 X49.822 Y96.240 E0.01049
G1 X49.868 Y96.582 E0.01083
G1 X49.883 Y96.942 E0.01130
G1 X49.868 Y97.304 E0.01136
G1 X49.822 Y97.647 E0.01086
G1 X49.743 Y97.973 E0.01051
G1 X49.628 Y98.278 E0.01022
G1 X49.477 Y98.560 E0.01002
G1 X49.291 Y98.816 E0.00994
G1 X49.071 Y99.045 E0.00995
G1 X48.823 Y99.242 E0.00993
G1 X48.554 Y99.409 E0.00992
G1 X48.262 Y99.547 E0.01012
G1 X47.950 Y99.658 E0.01038
G1 X47.612 Y99.745 E0.01094
G1 X46.919 Y99.848 E0.02197
G1 X46.519 Y99.874 E0.01259
G1 X45.700 Y99.874 E0.02569
G1 X44.944 Y99.806 E0.02380
G1 X44.292 Y99.661 E0.02094
G1 X43.972 Y99.545 E0.01067
G1 X43.681 Y99.406 E0.01011
G1 X43.404 Y99.237 E0.01017
G1 X43.154 Y99.034 E0.01012
G1 X42.935 Y98.800 E0.01004
G1 X42.750 Y98.539 E0.01003
G1 X42.602 Y98.254 E0.01006
G1 X42.491 Y97.950 E0.01015
G1 X42.415 Y97.630 E0.01033
G1 X42.370 Y97.294 E0.01062
G1 X42.356 Y96.942 E0.01103
G1 X42.371 Y96.576 E0.01151
G1 X42.418 Y96.229 E0.01098
G1 X42.499 Y95.900 E0.01060
G1 X42.618 Y95.595 E0.01028
G1 X42.773 Y95.316 E0.01002
G1 X42.962 Y95.062 E0.00992
G1 X43.184 Y94.835 E0.00994
G1 X43.434 Y94.640 E0.00996
G1 X43.703 Y94.476 E0.00988
G1 X43.995 Y94.340 E0.01008
G1 X44.316 Y94.227 E0.01069
G1 X44.979 Y94.083 E0.02126
G1 X45.814 Y94.013 E0.02627
G1 X46.520 Y94.015 E0.02214
G1 X46.968 Y94.048 E0.01409
G1 X46.968 Y91.654 E0.07507
G1 X47.008 Y91.654 E0.00124
G1 X47.008 Y91.489 E0.00519
G1 X42.480 Y91.489 E0.14197
G1 X42.480 Y86.271 E0.16360
G1 X44.806 Y86.271 E0.07293
M73 Q2 S81
G1 X44.806 Y87.687 E0.04439
G1 X44.874 Y87.498 E0.00630
G1 X45.074 Y87.109 E0.01370
G1 X45.250 Y86.874 E0.00922
G1 X45.447 Y86.674 E0.00878
G1 X45.762 Y86.446 E0.01220
G1 X45.317 Y86.446 E0.01396
G1 X45.317 Y82.618 E0.12002
;WIPE_START
G1 F8640.000
G1 X47.628 Y82.558 E-0.53382
G1 X47.628 Y83.538 E-0.22618
;WIPE_END
G1 E-0.04000 F2100.000
G1 Z0.600 F10800.000
G1 X47.345 Y92.031
G1 Z0.200
G1 E0.80000 F2100.000
;TYPE:External perimeter
G1 F1200.000
G1 X49.377 Y92.031 E0.06370
G1 X49.377 Y93.900 E0.05858
M73 P2 R81
G1 X47.345 Y93.900 E0.06370
G1 X47.345 Y92.091 E0.05670
G1 X47.236 Y91.646 F10800.000
;WIPE_START
G1 F8640.000
G1 X49.377 Y92.031 E-0.46928
G1 X49.377 Y93.290 E-0.29072
;WIPE_END
G1 E-0.04000 F2100.000
G1 Z0.600 F10800.000
G1 X47.001 Y94.434
G1 Z0.200
G1 E0.80000 F2100.000
G1 F1200.000
G1 X47.542 Y94.514 E0.01717
G1 X47.847 Y94.592 E0.00985
G1 X48.126 Y94.691 E0.00929
G1 X48.383 Y94.812 E0.00890
G1 X48.616 Y94.956 E0.00860
G1 X48.823 Y95.122 E0.00832
G1 X49.004 Y95.313 E0.00826
G1 X49.158 Y95.528 E0.00829
G1 X49.284 Y95.766 E0.00843
G1 X49.382 Y96.026 E0.00873
G1 X49.451 Y96.310 E0.00915
G1 X49.492 Y96.615 E0.00966
G1 X49.505 Y96.942 E0.01027
G1 X49.492 Y97.271 E0.01033
G1 X49.451 Y97.578 E0.00969
G1 X49.382 Y97.862 E0.00916
G1 X49.284 Y98.122 E0.00872
G1 X49.157 Y98.359 E0.00844
G1 X49.001 Y98.574 E0.00833
G1 X48.816 Y98.766 E0.00835
G1 X48.606 Y98.933 E0.00844
G1 X48.373 Y99.077 E0.00857
G1 X48.118 Y99.198 E0.00887
G1 X47.840 Y99.297 E0.00925
G1 X47.538 Y99.375 E0.00979
G1 X46.879 Y99.473 E0.02086
G1 X46.506 Y99.497 E0.01172
G1 X45.717 Y99.497 E0.02476
G1 X45.002 Y99.432 E0.02251
G1 X44.397 Y99.298 E0.01942
G1 X44.118 Y99.197 E0.00932
G1 X43.861 Y99.075 E0.00891
G1 X43.622 Y98.928 E0.00878
G1 X43.411 Y98.757 E0.00854
G1 X43.227 Y98.561 E0.00841
G1 X43.073 Y98.343 E0.00840
G1 X42.948 Y98.102 E0.00849
G1 X42.853 Y97.841 E0.00871
G1 X42.786 Y97.561 E0.00904
G1 X42.746 Y97.261 E0.00948
G1 X42.733 Y96.942 E0.01001
G1 X42.747 Y96.609 E0.01047
G1 X42.788 Y96.300 E0.00978
G1 X42.859 Y96.015 E0.00920
G1 X42.960 Y95.755 E0.00872
G1 X43.090 Y95.521 E0.00842
G1 X43.249 Y95.308 E0.00833
G1 X43.436 Y95.117 E0.00836
G1 X43.649 Y94.950 E0.00849
G1 X43.881 Y94.809 E0.00853
G1 X44.137 Y94.689 E0.00885
G1 X44.419 Y94.590 E0.00937
G1 X45.035 Y94.457 E0.01976
G1 X45.829 Y94.390 E0.02499
G1 X46.507 Y94.392 E0.02126
G1 X46.941 Y94.426 E0.01365
G1 X47.237 Y94.112 F10800.000
;WIPE_START
G1 F8640.000
G1 X47.542 Y94.514 E-0.14029
G1 X47.847 Y94.592 E-0.07253
G1 X48.126 Y94.691 E-0.06843
G1 X48.383 Y94.812 E-0.06553
G1 X48.616 Y94.956 E-0.06332
G1 X48.823 Y95.122 E-0.06126
G1 X49.004 Y95.313 E-0.06083
G1 X49.158 Y95.528 E-0.06102
G1 X49.284 Y95.766 E-0.06210
G1 X49.382 Y96.026 E-0.06427
G1 X49.424 Y96.196 E-0.04042
;WIPE_END
G1 E-0.04000 F2100.000
G1 Z0.600 F10800.000
G1 X47.385 Y91.374
G1 Z0.200
G1 E0.80000 F2100.000
G1 F1200.000
G1 X47.385 Y90.973 E0.01255
G1 X47.678 Y90.415 E0.01977
G1 X47.853 Y89.893 E0.01728
G1 X47.891 Y89.684 E0.00665
G1 X47.903 Y89.449 E0.00738
G1 X47.890 Y89.228 E0.00693
G1 X47.817 Y88.863 E0.01167
G1 X47.784 Y88.785 E0.00267
G1 X47.680 Y88.631 E0.00582
G1 X47.586 Y88.552 E0.00386
G1 X47.485 Y88.494 E0.00363
G1 X47.262 Y88.443 E0.00719
G1 X47.004 Y88.457 E0.00809
G1 X46.898 Y88.499 E0.00358
G1 X46.752 Y88.621 E0.00595
G1 X46.629 Y88.844 E0.00798
G1 X46.572 Y89.085 E0.00778
G1 X46.535 Y89.566 E0.01512
G1 X46.547 Y89.876 E0.00974
G1 X46.586 Y90.182 E0.00968
G1 X46.702 Y90.747 E0.01806
G1 X46.702 Y91.112 E0.01144
G1 X42.857 Y91.112 E0.12058
G1 X42.857 Y86.648 E0.13995
