; generated by PrusaSlicer 2.3.0+win64 on 2021-05-26 at 23:48:22 UTC

; 

; external perimeters extrusion width = 0.45mm
; perimeters extrusion width = 0.45mm
; infill extrusion width = 0.45mm
; solid infill extrusion width = 0.45mm
; top infill extrusion width = 0.40mm
; first layer extrusion width = 0.42mm

; external perimeters extrusion width = 0.45mm
; perimeters extrusion width = 0.45mm
; infill extrusion width = 0.45mm
; solid infill extrusion width = 0.45mm
; top infill extrusion width = 0.40mm
; first layer extrusion width = 0.42mm

M73 P0 R40
M73 Q0 S40
M201 X1000 Y1000 Z200 E8000 ; sets maximum accelerations, mm/sec^2
M203 X200 Y200 Z12 E120 ; sets maximum feedrates, mm/sec
M204 P1250 R1250 T1250 ; sets acceleration (P, T) and retract acceleration (R), mm/sec^2
M205 X8.00 Y8.00 Z0.40 E4.50 ; sets the jerk limits, mm/sec
M205 S0 T0 ; sets the minimum extruding and travel feed rate, mm/sec
M107
;TYPE:Custom
M862.3 P "MK3SMMU2S" ; printer model check
M862.1 P0.4 ; nozzle diameter check
M115 U3.9.3 ; tell printer latest fw version
G90 ; use absolute coordinates
M83 ; extruder relative mode
M104 S215 ; set extruder temp
M140 S60 ; set bed temp
M190 S60 ; wait for bed temp
M109 S215 ; wait for extruder temp
G28 W ; home all without mesh bed level
G80 ; mesh bed leveling

; Send the filament type to the MMU2.0 unit.
; E stands for extruder number, F stands for filament type (0: default; 1:flex; 2: PVA)
M403 E0 F0
M403 E1 F0
M403 E2 F0
M403 E3 F0
M403 E4 F0


;go outside print area
G1 Y-3.0 F1000.0
G1 Z0.4 F1000.0
; select extruder
T1
; initial load
G1 X55.0 E29.0 F1073.0
G1 X5.0 E29.0 F1800.0
G1 X55.0 E8.0 F2000.0
G1 Z0.3 F1000.0
G92 E0.0
G1 X240.0 E25.0 F2200.0
M73 P1 R40
M73 Q1 S40
G1 Y-2.0 F1000.0
G1 X55.0 E25 F1400.0
G1 Z0.20 F1000.0
G1 X5.0 E4.0 F1000.0
G92 E0.0


M221 S95
G92 E0.0

; Don't change E values below. Excessive value can damage the printer.
M907 E430 ; set extruder motor current
G21 ; set units to millimeters
G90 ; use absolute coordinates
M83 ; use relative distances for extrusion
T1
M900 K0.05 ; Filament gcode LA 1.5
M900 K30 ; Filament gcode LA 1.0
G1 Z0.200 F10800.000
;LAYER_CHANGE
;Z:0.2
;HEIGHT:0.2
;BEFORE_LAYER_CHANGE
G92 E0.0
;0.2


G1 E-0.80000 F2100.000
G1 Z0.600 F10800.000
G1 Z0.200
;AFTER_LAYER_CHANGE
;0.2
G1 E-2.20000 F2100.000
G1 Z0.600 F10800.000
G1 X158.000 Y56.970
G1 Z0.200
G1 E3.00000 F2100.000
;HEIGHT:0.200000
;TYPE:Wipe tower
;WIDTH:0.500000
;-------------------------------------
; CP WIPE TOWER FIRST LAYER BRIM START
G1  X158.000 Y71.030  E0.8016 F2400
G1  X155.457 Y71.487   F7000
G1  Y56.513  E0.6260 F2100
M73 P1 R39
G1  X94.543  E2.5466
G1  Y71.487  E0.6260
G1  X155.457  E2.5466
G1  X155.914 Y71.944   F7000
G1  Y56.056  E0.6642 F2100
G1  X94.086  E2.5849
G1  Y71.944  E0.6642
G1  X155.914  E2.5849
M73 P2 R39
M73 Q2 S39
G1  X156.371 Y72.401   F7000
G1  Y55.599  E0.7025 F2100
G1  X93.629  E2.6231
G1  Y72.401  E0.7025
G1  X156.371  E2.6231
G1  X156.828 Y72.858   F7000
G1  Y55.142  E0.7407 F2100
G1  X93.172  E2.6613
G1  Y72.858  E0.7407
G1  X156.828  E2.6613
; CP WIPE TOWER FIRST LAYER BRIM END
;-----------------------------------

;WIPE_START
G1 F8640.000
G1 X156.371 Y72.401 E-0.14926
G1 X153.726 Y72.401 E-0.61074
;WIPE_END
G1 E-0.04000 F2100.000
G1 Z0.600 F10800.000
G1 X177.333 Y78.173
G1 Z0.200
G1 E0.80000 F2100.000
M204 S1000
;TYPE:Skirt
;WIDTH:0.42
;HEIGHT:0.2
G1 F1200.000
G1 X177.377 Y154.645 E2.39773
G1 X177.240 Y155.425 E0.02484
G1 X176.854 Y156.117 E0.02484
G1 X176.480 Y156.490 E0.01657
G1 X176.032 Y156.771 E0.01657
G1 X175.534 Y156.946 E0.01657
G1 X175.009 Y157.007 E0.01657
G1 X74.989 Y157.007 E3.13606
G1 X74.208 Y156.871 E0.02484
G1 X73.512 Y156.484 E0.02496
G1 X73.142 Y156.112 E0.01645
G1 X72.862 Y155.669 E0.01645
G1 X72.686 Y155.174 E0.01645
G1 X72.623 Y154.654 E0.01645
G1 X72.659 Y78.217 E2.39663
G1 X72.828 Y77.664 E0.01811
G1 X73.122 Y77.172 E0.01799
G1 X91.548 Y53.881 E0.93117
M73 P3 R39
M73 Q3 S39
G1 X91.917 Y53.513 E0.01633
G1 X92.357 Y53.234 E0.01633
G1 X92.847 Y53.058 E0.01633
G1 X93.367 Y52.993 E0.01645
G1 X156.604 Y52.993 E1.98273
G1 X157.125 Y53.052 E0.01645
G1 X157.617 Y53.222 E0.01633
G1 X158.061 Y53.495 E0.01633
G1 X158.434 Y53.858 E0.01633
G1 X176.876 Y77.170 E0.93200
G1 X177.163 Y77.645 E0.01740
G1 X177.314 Y78.116 E0.01552
; printing object WinderSpoolRemovalAidInfill.stl id:0 copy 1
;WIPE_START
G1 F8640.000
G1 X177.317 Y81.407 E-0.76000
;WIPE_END
G1 E-0.04000 F2100.000
G1 Z0.600 F10800.000
G1 X84.811 Y144.284
G1 Z0.200
G1 E0.80000 F2100.000
;TYPE:Perimeter
G1 F1200.000
G1 X84.811 Y146.906 E0.08223
G1 X83.143 Y146.906 E0.05229
G1 X83.620 Y147.110 E0.01625
G1 X83.891 Y147.277 E0.00999
G1 X84.136 Y147.474 E0.00985
G1 X84.352 Y147.702 E0.00987
G1 X84.536 Y147.959 E0.00988
G1 X84.686 Y148.240 E0.00999
G1 X84.800 Y148.545 E0.01021
G1 X84.879 Y148.870 E0.01049
G1 X84.925 Y149.212 E0.01083
G1 X84.940 Y149.572 E0.01130
G1 X84.925 Y149.934 E0.01136
G1 X84.879 Y150.277 E0.01086
G1 X84.800 Y150.603 E0.01051
G1 X84.685 Y150.908 E0.01022
G1 X84.534 Y151.190 E0.01002
G1 X84.347 Y151.446 E0.00994
G1 X84.128 Y151.675 E0.00995
G1 X83.880 Y151.872 E0.00993
G1 X83.611 Y152.039 E0.00992
G1 X83.319 Y152.177 E0.01012
G1 X83.007 Y152.288 E0.01038
G1 X82.669 Y152.375 E0.01094
G1 X81.976 Y152.478 E0.02197
G1 X81.576 Y152.504 E0.01259
G1 X80.756 Y152.504 E0.02569
G1 X80.000 Y152.435 E0.02380
G1 X79.348 Y152.291 E0.02094
G1 X79.029 Y152.175 E0.01067
G1 X78.738 Y152.036 E0.01011
G1 X78.461 Y151.867 E0.01017
G1 X78.210 Y151.663 E0.01012
G1 X77.991 Y151.430 E0.01004
G1 X77.807 Y151.169 E0.01003
G1 X77.659 Y150.884 E0.01006
G1 X77.548 Y150.580 E0.01015
G1 X77.471 Y150.259 E0.01033
G1 X77.427 Y149.924 E0.01062
G1 X77.412 Y149.572 E0.01103
G1 X77.428 Y149.205 E0.01151
G1 X77.474 Y148.858 E0.01098
G1 X77.556 Y148.530 E0.01060
G1 X77.675 Y148.225 E0.01028
G1 X77.830 Y147.945 E0.01002
G1 X78.019 Y147.692 E0.00992
G1 X78.241 Y147.465 E0.00994
G1 X78.491 Y147.269 E0.00996
G1 X78.760 Y147.106 E0.00988
G1 X79.051 Y146.970 E0.01008
G1 X79.373 Y146.856 E0.01069
G1 X80.036 Y146.713 E0.02126
G1 X80.871 Y146.643 E0.02627
G1 X81.577 Y146.645 E0.02214
G1 X82.025 Y146.678 E0.01409
G1 X82.025 Y144.284 E0.07507
G1 X84.751 Y144.284 E0.08546
G1 X84.434 Y144.661 F10800.000
;TYPE:External perimeter
G1 F1200.000
G1 X84.434 Y146.529 E0.05858
G1 X82.402 Y146.529 E0.06370
G1 X82.402 Y144.661 E0.05858
G1 X84.374 Y144.661 E0.06182
G1 X84.821 Y144.563 F10800.000
;WIPE_START
G1 F8640.000
G1 X84.434 Y146.529 E-0.43164
G1 X83.011 Y146.529 E-0.32836
;WIPE_END
G1 E-0.04000 F2100.000
G1 Z0.600 F10800.000
G1 X83.183 Y147.321
G1 Z0.200
G1 E0.80000 F2100.000
G1 F1200.000
G1 X83.439 Y147.442 E0.00890
G1 X83.673 Y147.586 E0.00860
G1 X83.880 Y147.752 E0.00832
G1 X84.061 Y147.943 E0.00826
G1 X84.215 Y148.158 E0.00829
G1 X84.341 Y148.395 E0.00843
G1 X84.439 Y148.656 E0.00873
G1 X84.508 Y148.939 E0.00915
G1 X84.549 Y149.245 E0.00966
G1 X84.562 Y149.572 E0.01027
G1 X84.549 Y149.901 E0.01033
G1 X84.508 Y150.208 E0.00969
G1 X84.439 Y150.491 E0.00916
G1 X84.341 Y150.752 E0.00872
G1 X84.214 Y150.989 E0.00844
G1 X84.058 Y151.204 E0.00833
G1 X83.873 Y151.396 E0.00835
G1 X83.662 Y151.563 E0.00844
G1 X83.430 Y151.707 E0.00857
G1 X83.174 Y151.828 E0.00887
G1 X82.897 Y151.927 E0.00925
G1 X82.594 Y152.005 E0.00979
G1 X81.936 Y152.102 E0.02086
G1 X81.563 Y152.127 E0.01172
G1 X80.774 Y152.127 E0.02476
G1 X80.059 Y152.062 E0.02251
G1 X79.454 Y151.928 E0.01942
G1 X79.174 Y151.827 E0.00932
G1 X78.918 Y151.704 E0.00891
G1 X78.679 Y151.558 E0.00878
G1 X78.468 Y151.387 E0.00854
G1 X78.284 Y151.191 E0.00841
G1 X78.130 Y150.972 E0.00840
G1 X78.005 Y150.732 E0.00849
G1 X77.910 Y150.471 E0.00871
G1 X77.843 Y150.191 E0.00904
G1 X77.803 Y149.891 E0.00948
G1 X77.790 Y149.572 E0.01001
G1 X77.804 Y149.238 E0.01047
G1 X77.845 Y148.929 E0.00978
G1 X77.916 Y148.644 E0.00920
G1 X78.017 Y148.385 E0.00872
G1 X78.147 Y148.150 E0.00842
G1 X78.306 Y147.937 E0.00833
G1 X78.493 Y147.747 E0.00836
G1 X78.706 Y147.580 E0.00849
G1 X78.938 Y147.438 E0.00853
G1 X79.194 Y147.319 E0.00885
G1 X79.476 Y147.220 E0.00937
G1 X80.092 Y147.087 E0.01976
G1 X80.886 Y147.020 E0.02499
G1 X81.564 Y147.022 E0.02126
G1 X81.937 Y147.046 E0.01173
G1 X82.599 Y147.144 E0.02097
G1 X83.126 Y147.301 E0.01724
G1 X83.403 Y147.142 F10800.000
;WIPE_START
G1 F8640.000
G1 X83.439 Y147.442 E-0.07933
G1 X83.673 Y147.586 E-0.06332
G1 X83.880 Y147.752 E-0.06126
G1 X84.061 Y147.943 E-0.06083
G1 X84.215 Y148.158 E-0.06102
G1 X84.341 Y148.395 E-0.06210
G1 X84.439 Y148.656 E-0.06427
G1 X84.508 Y148.939 E-0.06736
G1 X84.549 Y149.245 E-0.07112
G1 X84.562 Y149.572 E-0.07564
G1 X84.549 Y149.901 E-0.07610
G1 X84.539 Y149.977 E-0.01766
;WIPE_END
G1 E-0.04000 F2100.000
G1 Z0.600 F10800.000
G1 X80.374 Y135.188
G1 Z0.200
G1 E0.80000 F2100.000
;TYPE:Perimeter
G1 F1200.000
G1 X82.685 Y135.188 E0.07246
G1 X82.685 Y138.866 E0.11531
G1 X84.811 Y138.866 E0.06665
G1 X84.811 Y144.069 E0.16313
G1 X82.574 Y144.069 E0.07014
G1 X82.574 Y142.784 E0.04030
G1 X80.520 Y142.784 E0.06440
G1 X80.520 Y144.069 E0.04030
G1 X78.390 Y144.069 E0.06679
G1 X78.319 Y142.995 E0.03375
G1 X78.257 Y142.739 E0.00827
G1 X78.226 Y142.694 E0.00170
G1 X78.155 Y142.649 E0.00263
G1 X77.522 Y142.532 E0.02021
G1 X77.522 Y140.122 E0.07557
G1 X82.574 Y140.122 E0.15840
G1 X82.574 Y139.076 E0.03278
G1 X80.374 Y139.076 E0.06897
G1 X80.374 Y135.248 E0.12002
;WIPE_START
G1 F8640.000
G1 X82.685 Y135.188 E-0.53382
G1 X82.685 Y136.168 E-0.22618
;WIPE_END
G1 E-0.04000 F2100.000
G1 Z0.600 F10800.000
G1 X82.951 Y139.243
G1 Z0.200
G1 E0.80000 F2100.000
;TYPE:External perimeter
G1 F1200.000
G1 X84.434 Y139.243 E0.04649
G1 X84.434 Y143.692 E0.13949
G1 X82.951 Y143.692 E0.04649
G1 X82.951 Y142.407 E0.04030
G1 X80.143 Y142.407 E0.08804
G1 X80.143 Y143.692 E0.04030
G1 X78.743 Y143.692 E0.04390
G1 X78.693 Y142.947 E0.02339
G1 X78.651 Y142.724 E0.00713
G1 X78.597 Y142.568 E0.00517
G1 X78.512 Y142.442 E0.00478
G1 X78.406 Y142.350 E0.00439
G1 X78.271 Y142.287 E0.00466
G1 X77.899 Y142.218 E0.01187
G1 X77.899 Y140.499 E0.05391
G1 X82.951 Y140.499 E0.15840
G1 X82.951 Y139.303 E0.03749
G1 X83.122 Y138.882 F10800.000
G1 X82.308 Y138.699
G1 F1200.000
G1 X80.751 Y138.699 E0.04882
G1 X80.751 Y135.565 E0.09826
G1 X82.308 Y135.565 E0.04882
G1 X82.308 Y138.639 E0.09638
G1 X82.369 Y139.094 F10800.000
;WIPE_START
G1 F8640.000
G1 X80.751 Y138.699 E-0.35977
G1 X80.751 Y136.966 E-0.40023
;WIPE_END
G1 E-0.04000 F2100.000
G1 Z0.600 F10800.000
G1 X82.574 Y135.107
G1 Z0.200
G1 E0.80000 F2100.000
;TYPE:Perimeter
G1 F1200.000
G1 X82.574 Y133.822 E0.04030
G1 X80.520 Y133.822 E0.06440
G1 X80.520 Y135.107 E0.04030
G1 X78.390 Y135.107 E0.06679
G1 X78.319 Y134.033 E0.03375
G1 X78.257 Y133.776 E0.00827
G1 X78.226 Y133.731 E0.00170
G1 X78.155 Y133.687 E0.00263
G1 X77.522 Y133.570 E0.02021
G1 X77.522 Y131.159 E0.07557
G1 X82.574 Y131.159 E0.15840
G1 X82.574 Y129.981 E0.03696
G1 X82.025 Y129.981 E0.01720
G1 X82.025 Y127.358 E0.08223
G1 X84.811 Y127.358 E0.08734
G1 X84.811 Y135.107 E0.24296
G1 X82.634 Y135.107 E0.06826
G1 X82.951 Y134.730 F10800.000
;TYPE:External perimeter
G1 F1200.000
G1 X82.951 Y133.444 E0.04030
G1 X80.143 Y133.444 E0.08804
G1 X80.143 Y134.730 E0.04030
G1 X78.743 Y134.730 E0.04390
G1 X78.693 Y133.985 E0.02339
G1 X78.651 Y133.762 E0.00713
G1 X78.597 Y133.606 E0.00517
G1 X78.512 Y133.480 E0.00478
G1 X78.406 Y133.388 E0.00439
G1 X78.271 Y133.325 E0.00466
G1 X77.899 Y133.256 E0.01187
G1 X77.899 Y131.537 E0.05391
G1 X82.951 Y131.537 E0.15840
G1 X82.951 Y130.281 E0.03937
G1 X84.434 Y130.281 E0.04649
G1 X84.434 Y134.730 E0.13949
G1 X83.011 Y134.730 E0.04461
G1 X82.585 Y134.892 F10800.000
;WIPE_START
G1 F8640.000
G1 X82.951 Y133.444 E-0.29709
G1 X80.946 Y133.444 E-0.46291
;WIPE_END
G1 E-0.04000 F2100.000
G1 Z0.600 F10800.000
G1 X82.402 Y127.735
G1 Z0.200
G1 E0.80000 F2100.000
G1 F1200.000
G1 X84.434 Y127.735 E0.06370
G1 X84.434 Y129.604 E0.05858
G1 X82.402 Y129.604 E0.06370
G1 X82.402 Y127.795 E0.05670
G1 X82.293 Y127.350 F10800.000
G1 X82.574 Y127.143
;TYPE:Perimeter
G1 F1200.000
G1 X82.574 Y125.858 E0.04030
G1 X80.520 Y125.858 E0.06440
G1 X80.520 Y127.143 E0.04030
G1 X78.390 Y127.143 E0.06679
G1 X78.319 Y126.069 E0.03375
G1 X78.257 Y125.813 E0.00827
G1 X78.226 Y125.768 E0.00170
G1 X78.155 Y125.723 E0.00263
G1 X77.522 Y125.606 E0.02021
G1 X77.522 Y123.196 E0.07557
G1 X82.574 Y123.196 E0.15840
G1 X82.574 Y121.940 E0.03937
G1 X84.811 Y121.940 E0.07014
G1 X84.811 Y127.143 E0.16313
G1 X82.634 Y127.143 E0.06826
G1 X82.951 Y126.766 F10800.000
;TYPE:External perimeter
G1 F1200.000
G1 X82.951 Y125.481 E0.04030
G1 X80.143 Y125.481 E0.08804
G1 X80.143 Y126.766 E0.04030
G1 X78.743 Y126.766 E0.04390
G1 X78.693 Y126.022 E0.02339
G1 X78.651 Y125.798 E0.00713
G1 X78.597 Y125.643 E0.00517
G1 X78.512 Y125.516 E0.00478
G1 X78.406 Y125.424 E0.00439
G1 X78.271 Y125.361 E0.00466
G1 X77.899 Y125.292 E0.01187
G1 X77.899 Y123.573 E0.05391
G1 X82.951 Y123.573 E0.15840
G1 X82.951 Y122.317 E0.03937
G1 X84.434 Y122.317 E0.04649
G1 X84.434 Y126.766 E0.13949
G1 X83.011 Y126.766 E0.04461
G1 X82.585 Y126.928 F10800.000
;WIPE_START
G1 F8640.000
G1 X82.951 Y125.481 E-0.29709
G1 X80.946 Y125.481 E-0.46291
;WIPE_END
G1 E-0.04000 F2100.000
G1 Z0.600 F10800.000
G1 X75.787 Y120.417
G1 Z0.200
G1 E0.80000 F2100.000
;TYPE:Perimeter
G1 F1200.000
G1 X174.213 Y120.417 E3.08607
M73 P4 R38
M73 Q4 S39
G1 X174.213 Y133.643 E0.41469
G1 X104.976 Y133.643 E2.17087
G1 X104.580 Y133.667 E0.01246
G1 X104.165 Y133.743 E0.01321
G1 X103.763 Y133.868 E0.01321
G1 X103.379 Y134.041 E0.01321
G1 X103.018 Y134.259 E0.01321
G1 X102.687 Y134.519 E0.01321
G1 X102.389 Y134.816 E0.01321
G1 X102.129 Y135.148 E0.01321
G1 X101.911 Y135.509 E0.01321
G1 X101.738 Y135.893 E0.01321
G1 X101.613 Y136.295 E0.01321
G1 X101.537 Y136.709 E0.01321
G1 X101.511 Y137.130 E0.01321
G1 X101.537 Y137.550 E0.01321
G1 X101.613 Y137.965 E0.01321
G1 X101.738 Y138.367 E0.01321
G1 X101.911 Y138.751 E0.01321
G1 X102.129 Y139.111 E0.01321
G1 X102.389 Y139.443 E0.01321
G1 X102.687 Y139.741 E0.01321
G1 X103.018 Y140.001 E0.01321
G1 X103.379 Y140.219 E0.01321
G1 X103.763 Y140.392 E0.01321
G1 X104.165 Y140.517 E0.01321
G1 X104.580 Y140.593 E0.01321
G1 X104.976 Y140.617 E0.01246
G1 X174.213 Y140.617 E2.17087
M73 Q4 S38
G1 X174.213 Y153.843 E0.41469
G1 X75.787 Y153.843 E3.08607
G1 X75.787 Y120.477 E1.04616
G1 X75.410 Y120.040 F10800.000
;TYPE:External perimeter
G1 F1200.000
G1 X174.590 Y120.040 E3.10972
M73 P5 R38
M73 Q5 S38
G1 X174.590 Y134.020 E0.43833
G1 X104.988 Y134.020 E2.18233
G1 X104.625 Y134.042 E0.01139
G1 X104.256 Y134.109 E0.01178
G1 X103.897 Y134.221 E0.01178
G1 X103.554 Y134.375 E0.01178
G1 X103.233 Y134.570 E0.01178
G1 X102.937 Y134.801 E0.01178
G1 X102.672 Y135.067 E0.01178
G1 X102.440 Y135.363 E0.01178
G1 X102.246 Y135.684 E0.01178
G1 X102.091 Y136.027 E0.01178
G1 X101.980 Y136.385 E0.01178
G1 X101.912 Y136.755 E0.01178
G1 X101.889 Y137.130 E0.01178
G1 X101.912 Y137.505 E0.01178
G1 X101.980 Y137.874 E0.01178
G1 X102.091 Y138.233 E0.01178
G1 X102.246 Y138.575 E0.01178
G1 X102.440 Y138.897 E0.01178
G1 X102.672 Y139.193 E0.01178
G1 X102.937 Y139.458 E0.01178
G1 X103.233 Y139.690 E0.01178
G1 X103.554 Y139.884 E0.01178
G1 X103.897 Y140.038 E0.01178
G1 X104.256 Y140.150 E0.01178
G1 X104.625 Y140.218 E0.01178
G1 X104.988 Y140.240 E0.01139
G1 X174.590 Y140.240 E2.18233
G1 X174.590 Y154.220 E0.43833
G1 X75.410 Y154.220 E3.10972
G1 X75.410 Y120.100 E1.06981
G1 X75.808 Y120.084 F10800.000
;WIPE_START
G1 F8640.000
G1 X78.701 Y120.098 E-0.76000
;WIPE_END
G1 E-0.04000 F2100.000
G1 Z0.600 F10800.000
G1 X79.764 Y149.514
G1 Z0.200
G1 E0.80000 F2100.000
;TYPE:Perimeter
G1 F1200.000
G1 X79.876 Y149.469 E0.00378
G1 X80.289 Y149.390 E0.01318
G1 X80.676 Y149.360 E0.01219
G1 X81.428 Y149.352 E0.02358
G1 X82.065 Y149.392 E0.01999
G1 X82.354 Y149.440 E0.00920
G1 X82.535 Y149.494 E0.00591
G1 X82.622 Y149.541 E0.00311
G1 X82.631 Y149.593 E0.00166
G1 X82.606 Y149.619 E0.00111
G1 X82.348 Y149.709 E0.00856
G1 X81.877 Y149.775 E0.01493
G1 X80.917 Y149.797 E0.03011
G1 X80.286 Y149.757 E0.01982
G1 X79.863 Y149.676 E0.01350
G1 X79.732 Y149.611 E0.00460
G1 X79.721 Y149.553 E0.00184
